%
(Header)
(Generated by gcodetools from Inkscape.)
(Using default header. To add your own header create file "header" in the output dir.)
M3
(Header end.)
G21 (All units in mm)

(Start cutting path id: path935)
(Change tool to Default tool)

G00 Z5.000000
G00 X176.946881 Y191.676908

G01 Z-0.125000 F100.0(Penetrate)
G03 X177.784733 Y191.536234 Z-0.125000 I0.717204 J1.706190 F400.000000
G03 X178.531733 Y191.676908 Z-0.125000 I-0.205414 J3.144443
G02 X179.138575 Y191.840663 Z-0.125000 I3.994877 J-13.597947
G02 X179.471003 Y191.814492 Z-0.125000 I0.126722 J-0.514724
G02 X179.790546 Y191.453249 Z-0.125000 I-0.212448 J-0.509875
G02 X179.759398 Y190.962534 Z-0.125000 I-0.718497 J-0.200740
G02 X179.348903 Y190.391705 Z-0.125000 I-1.452729 J0.611675
G02 X178.568775 Y189.801015 Z-0.125000 I-4.354749 J4.940839
G02 X175.584521 Y188.555205 Z-0.125000 I-4.858752 J7.441618
G02 X171.626117 Y188.922599 Z-0.125000 I-1.395835 J6.469046
G02 X168.374826 Y192.312334 Z-0.125000 I2.282394 J5.443295
G02 X168.461704 Y196.500256 Z-0.125000 I5.346127 J1.983957
G02 X173.165383 Y203.728346 Z-0.125000 I22.250100 J-9.334744
G03 X181.174917 Y216.039711 Z-0.125000 I-29.864365 J28.190277
G03 X181.460251 Y218.485852 Z-0.125000 I-4.088601 J1.716632
G03 X180.640460 Y219.521623 Z-0.125000 I-1.348356 J-0.224886
G02 X180.231321 Y219.922711 Z-0.125000 I0.297767 J0.712964
G02 X180.225064 Y220.492643 Z-0.125000 I0.662472 J0.292273
G02 X181.845814 Y221.772995 Z-0.125000 I1.966584 J-0.823425
G02 X187.247097 Y221.138225 Z-0.125000 I1.596552 J-9.712135
G02 X189.819796 Y218.659929 Z-0.125000 I-1.908774 J-4.555978
G02 X189.890281 Y214.843796 Z-0.125000 I-4.287853 J-1.987916
G02 X183.765074 Y205.525463 Z-0.125000 I-28.027395 J11.750907
G03 X176.764319 Y194.878363 Z-0.125000 I25.046237 J-24.093719
G03 X176.436044 Y192.340360 Z-0.125000 I4.446185 J-1.865318
G03 X176.949527 Y191.676908 Z-0.125000 I0.837881 J0.118051
G01 X176.949527 Y191.676908 Z-0.125000
G01 X176.946881 Y191.676908 Z-0.125000
G00 Z5.000000

(End cutting path id: path935)


(Start cutting path id: path935)
(Change tool to Default tool)

G00 Z5.000000
G00 X176.946881 Y191.676908

G01 Z-0.125000 F100.0(Penetrate)
G03 X177.784733 Y191.536234 Z-0.125000 I0.717204 J1.706190 F400.000000
G03 X178.531733 Y191.676908 Z-0.125000 I-0.205414 J3.144443
G02 X179.138575 Y191.840663 Z-0.125000 I3.994877 J-13.597947
G02 X179.471003 Y191.814492 Z-0.125000 I0.126722 J-0.514724
G02 X179.790546 Y191.453249 Z-0.125000 I-0.212448 J-0.509875
G02 X179.759398 Y190.962534 Z-0.125000 I-0.718497 J-0.200740
G02 X179.348903 Y190.391705 Z-0.125000 I-1.452729 J0.611675
G02 X178.568775 Y189.801015 Z-0.125000 I-4.354749 J4.940839
G02 X175.584521 Y188.555205 Z-0.125000 I-4.858752 J7.441618
G02 X171.626117 Y188.922599 Z-0.125000 I-1.395835 J6.469046
G02 X168.374826 Y192.312334 Z-0.125000 I2.282394 J5.443295
G02 X168.461704 Y196.500256 Z-0.125000 I5.346127 J1.983957
G02 X173.165383 Y203.728346 Z-0.125000 I22.250100 J-9.334744
G03 X181.174917 Y216.039711 Z-0.125000 I-29.864365 J28.190277
G03 X181.460251 Y218.485852 Z-0.125000 I-4.088601 J1.716632
G03 X180.640460 Y219.521623 Z-0.125000 I-1.348356 J-0.224886
G02 X180.231321 Y219.922711 Z-0.125000 I0.297767 J0.712964
G02 X180.225064 Y220.492643 Z-0.125000 I0.662472 J0.292273
G02 X181.845814 Y221.772995 Z-0.125000 I1.966584 J-0.823425
G02 X187.247097 Y221.138225 Z-0.125000 I1.596552 J-9.712135
G02 X189.819796 Y218.659929 Z-0.125000 I-1.908774 J-4.555978
G02 X189.890281 Y214.843796 Z-0.125000 I-4.287853 J-1.987916
G02 X183.765074 Y205.525463 Z-0.125000 I-28.027395 J11.750907
G03 X176.764319 Y194.878363 Z-0.125000 I25.046237 J-24.093719
G03 X176.436044 Y192.340360 Z-0.125000 I4.446185 J-1.865318
G03 X176.949527 Y191.676908 Z-0.125000 I0.837881 J0.118051
G01 X176.949527 Y191.676908 Z-0.125000
G01 X176.946881 Y191.676908 Z-0.125000
G00 Z5.000000

(End cutting path id: path935)


(Start cutting path id: path933)
(Change tool to Default tool)

G00 Z5.000000
G00 X169.525328 Y203.008998

G01 Z-0.125000 F100.0(Penetrate)
G02 X164.240474 Y195.818234 Z-0.125000 I-13.622794 J4.474640 F400.000000
G02 X155.560637 Y194.492071 Z-0.125000 I-5.648692 J7.902944
G02 X150.719857 Y198.456123 Z-0.125000 I2.708109 J8.244793
G02 X150.094352 Y204.742017 Z-0.125000 I6.788583 J3.849596
G02 X155.205476 Y211.199727 Z-0.125000 I11.335215 J-3.720031
G02 X165.069750 Y212.346132 Z-0.125000 I6.171617 J-10.091934
G02 X169.289856 Y208.475542 Z-0.125000 I-2.165208 J-6.596613
G02 X169.525328 Y203.008998 Z-0.125000 I-7.133972 J-3.045640
G01 X169.525328 Y203.008998 Z-0.125000
G00 Z5.000000

(End cutting path id: path933)


(Start cutting path id: path933)
(Change tool to Default tool)

G00 Z5.000000
G00 X169.525328 Y203.008998

G01 Z-0.125000 F100.0(Penetrate)
G02 X164.240474 Y195.818234 Z-0.125000 I-13.622794 J4.474640 F400.000000
G02 X155.560637 Y194.492071 Z-0.125000 I-5.648692 J7.902944
G02 X150.719857 Y198.456123 Z-0.125000 I2.708109 J8.244793
G02 X150.094352 Y204.742017 Z-0.125000 I6.788583 J3.849596
G02 X155.205476 Y211.199727 Z-0.125000 I11.335215 J-3.720031
G02 X165.069750 Y212.346132 Z-0.125000 I6.171617 J-10.091934
G02 X169.289856 Y208.475542 Z-0.125000 I-2.165208 J-6.596613
G02 X169.525328 Y203.008998 Z-0.125000 I-7.133972 J-3.045640
G01 X169.525328 Y203.008998 Z-0.125000
G00 Z5.000000

(End cutting path id: path933)


(Start cutting path id: path933)
(Change tool to Default tool)

G00 Z5.000000
G00 X163.664814 Y203.900643

G01 Z-0.125000 F100.0(Penetrate)
G02 X162.461752 Y205.652568 Z-0.125000 I2.996554 J3.346800 F400.000000
G02 X162.437149 Y206.755494 Z-0.125000 I1.543492 J0.586167
G02 X163.669523 Y208.380168 Z-0.125000 I2.972867 J-0.975288
G03 X164.045814 Y208.874803 Z-0.125000 I-0.532625 J0.795639
G03 X164.026344 Y209.146738 Z-0.125000 I-0.340689 J0.112272
G03 X163.799752 Y209.343115 Z-0.125000 I-0.348527 J-0.173236
G03 X163.474440 Y209.372562 Z-0.125000 I-0.228529 J-0.713012
G03 X162.003233 Y208.901262 Z-0.125000 I0.556485 J-4.269022
G03 X160.320788 Y207.451049 Z-0.125000 I2.231170 J-4.289503
G03 X158.116509 Y203.141290 Z-0.125000 I12.701984 J-9.215167
G03 X157.963978 Y199.734222 Z-0.125000 I6.027732 J-1.976804
G03 X159.434132 Y198.127442 Z-0.125000 I2.159278 J0.499710
G03 X162.144250 Y198.651034 Z-0.125000 I0.884827 J2.695722
G03 X163.969085 Y201.350063 Z-0.125000 I-3.826365 J4.553443
G03 X164.157169 Y202.848387 Z-0.125000 I-3.742204 J1.230725
G03 X163.667460 Y203.900643 Z-0.125000 I-1.611064 J-0.109691
G01 X163.664814 Y203.900643 Z-0.125000
G00 Z5.000000

(End cutting path id: path933)


(Start cutting path id: path933)
(Change tool to Default tool)

G00 Z5.000000
G00 X163.664814 Y203.900643

G01 Z-0.125000 F100.0(Penetrate)
G02 X162.461752 Y205.652568 Z-0.125000 I2.996554 J3.346800 F400.000000
G02 X162.437149 Y206.755494 Z-0.125000 I1.543492 J0.586167
G02 X163.669523 Y208.380168 Z-0.125000 I2.972867 J-0.975288
G03 X164.045814 Y208.874803 Z-0.125000 I-0.532625 J0.795639
G03 X164.026344 Y209.146738 Z-0.125000 I-0.340689 J0.112272
G03 X163.799752 Y209.343115 Z-0.125000 I-0.348527 J-0.173236
G03 X163.474440 Y209.372562 Z-0.125000 I-0.228529 J-0.713012
G03 X162.003233 Y208.901262 Z-0.125000 I0.556485 J-4.269022
G03 X160.320788 Y207.451049 Z-0.125000 I2.231170 J-4.289503
G03 X158.116509 Y203.141290 Z-0.125000 I12.701984 J-9.215167
G03 X157.963978 Y199.734222 Z-0.125000 I6.027732 J-1.976804
G03 X159.434132 Y198.127442 Z-0.125000 I2.159278 J0.499710
G03 X162.144250 Y198.651034 Z-0.125000 I0.884827 J2.695722
G03 X163.969085 Y201.350063 Z-0.125000 I-3.826365 J4.553443
G03 X164.157169 Y202.848387 Z-0.125000 I-3.742204 J1.230725
G03 X163.667460 Y203.900643 Z-0.125000 I-1.611064 J-0.109691
G01 X163.664814 Y203.900643 Z-0.125000
G00 Z5.000000

(End cutting path id: path933)


(Start cutting path id: path931)
(Change tool to Default tool)

G00 Z5.000000
G00 X149.909144 Y209.245220

G01 Z-0.125000 F100.0(Penetrate)
G02 X145.370801 Y201.562333 Z-0.125000 I-13.997643 J3.086660 F400.000000
G02 X136.865202 Y199.373628 Z-0.125000 I-6.413298 J7.301630
G02 X131.652114 Y202.833107 Z-0.125000 I1.870862 J8.476742
G02 X130.398794 Y209.025616 Z-0.125000 I6.371437 J4.512620
G02 X134.838207 Y215.960342 Z-0.125000 I11.648086 J-2.568416
G02 X144.540755 Y218.090229 Z-0.125000 I7.155888 J-9.433555
G02 X149.126854 Y214.661275 Z-0.125000 I-1.493996 J-6.779510
G02 X149.909144 Y209.245220 Z-0.125000 I-6.798613 J-3.746510
G01 X149.909144 Y209.245220 Z-0.125000
G00 Z5.000000

(End cutting path id: path931)


(Start cutting path id: path931)
(Change tool to Default tool)

G00 Z5.000000
G00 X149.909144 Y209.245220

G01 Z-0.125000 F100.0(Penetrate)
G02 X145.370801 Y201.562333 Z-0.125000 I-13.997643 J3.086660 F400.000000
G02 X136.865202 Y199.373628 Z-0.125000 I-6.413298 J7.301630
G02 X131.652114 Y202.833107 Z-0.125000 I1.870862 J8.476742
G02 X130.398794 Y209.025616 Z-0.125000 I6.371437 J4.512620
G02 X134.838207 Y215.960342 Z-0.125000 I11.648086 J-2.568416
G02 X144.540755 Y218.090229 Z-0.125000 I7.155888 J-9.433555
G02 X149.126854 Y214.661275 Z-0.125000 I-1.493996 J-6.779510
G02 X149.909144 Y209.245220 Z-0.125000 I-6.798613 J-3.746510
G01 X149.909144 Y209.245220 Z-0.125000
G00 Z5.000000

(End cutting path id: path931)


(Start cutting path id: path931)
(Change tool to Default tool)

G00 Z5.000000
G00 X143.987777 Y209.546844

G01 Z-0.125000 F100.0(Penetrate)
G02 X142.614954 Y211.169212 Z-0.125000 I2.644584 J3.629821 F400.000000
G02 X142.479654 Y212.264112 Z-0.125000 I1.477763 J0.738421
G02 X143.542065 Y214.003446 Z-0.125000 I3.061214 J-0.675700
G03 X143.866069 Y214.534234 Z-0.125000 I-0.609351 J0.736243
G03 X143.819500 Y214.803637 Z-0.125000 I-0.353320 J0.077653
G03 X143.575027 Y214.976087 Z-0.125000 I-0.327443 J-0.204685
G03 X143.248242 Y214.974479 Z-0.125000 I-0.159900 J-0.710666
G03 X141.831425 Y214.356963 Z-0.125000 I0.989623 J-4.204685
G03 X140.303500 Y212.744885 Z-0.125000 I2.670781 J-4.061483
G03 X138.542659 Y208.237158 Z-0.125000 I13.477873 J-7.862606
G03 X138.730798 Y204.831699 Z-0.125000 I6.186994 J-1.366117
G03 X140.355052 Y203.379414 Z-0.125000 I2.099581 J0.713764
G03 X142.999628 Y204.171589 Z-0.125000 I0.611065 J2.770413
G03 X144.543401 Y207.038597 Z-0.125000 I-4.257171 J4.141458
G03 X144.580231 Y208.549415 Z-0.125000 I-3.848526 J0.849674
G03 X143.987777 Y209.546844 Z-0.125000 I-1.591881 J-0.270879
G01 X143.987777 Y209.546844 Z-0.125000
G00 Z5.000000

(End cutting path id: path931)


(Start cutting path id: path931)
(Change tool to Default tool)

G00 Z5.000000
G00 X143.987777 Y209.546844

G01 Z-0.125000 F100.0(Penetrate)
G02 X142.614954 Y211.169212 Z-0.125000 I2.644584 J3.629821 F400.000000
G02 X142.479654 Y212.264112 Z-0.125000 I1.477763 J0.738421
G02 X143.542065 Y214.003446 Z-0.125000 I3.061214 J-0.675700
G03 X143.866069 Y214.534234 Z-0.125000 I-0.609351 J0.736243
G03 X143.819500 Y214.803637 Z-0.125000 I-0.353320 J0.077653
G03 X143.575027 Y214.976087 Z-0.125000 I-0.327443 J-0.204685
G03 X143.248242 Y214.974479 Z-0.125000 I-0.159900 J-0.710666
G03 X141.831425 Y214.356963 Z-0.125000 I0.989623 J-4.204685
G03 X140.303500 Y212.744885 Z-0.125000 I2.670781 J-4.061483
G03 X138.542659 Y208.237158 Z-0.125000 I13.477873 J-7.862606
G03 X138.730798 Y204.831699 Z-0.125000 I6.186994 J-1.366117
G03 X140.355052 Y203.379414 Z-0.125000 I2.099581 J0.713764
G03 X142.999628 Y204.171589 Z-0.125000 I0.611065 J2.770413
G03 X144.543401 Y207.038597 Z-0.125000 I-4.257171 J4.141458
G03 X144.580231 Y208.549415 Z-0.125000 I-3.848526 J0.849674
G03 X143.987777 Y209.546844 Z-0.125000 I-1.591881 J-0.270879
G01 X143.987777 Y209.546844 Z-0.125000
G00 Z5.000000

(End cutting path id: path931)


(Start cutting path id: path929)
(Change tool to Default tool)

G00 Z5.000000
G00 X124.781697 Y209.480698

G01 Z-0.125000 F100.0(Penetrate)
G03 X125.390369 Y207.585996 Z-0.125000 I2.581614 J-0.215777 F400.000000
G03 X126.684049 Y206.919535 Z-0.125000 I1.457446 J1.240251
G03 X128.221861 Y207.302267 Z-0.125000 I0.208369 J2.443598
G03 X129.681774 Y208.329762 Z-0.125000 I-11.992213 J18.589993
G03 X130.449712 Y208.904245 Z-0.125000 I-63.698534 J85.949391
G02 X130.882981 Y209.028262 Z-0.125000 I0.377472 J-0.499897
G02 X131.389224 Y208.734801 Z-0.125000 I-0.058822 J-0.684858
G02 X131.523272 Y208.237158 Z-0.125000 I-0.630472 J-0.436703
G02 X131.370249 Y207.729075 Z-0.125000 I-1.289698 J0.111341
G02 X130.753335 Y206.824285 Z-0.125000 I-4.841276 J2.638223
G02 X127.403656 Y203.794936 Z-0.125000 I-11.726444 J9.599809
G02 X121.402972 Y202.257583 Z-0.125000 I-5.209428 J7.853950
G02 X117.365566 Y204.633819 Z-0.125000 I0.455445 J5.391882
G02 X116.341499 Y208.591700 Z-0.125000 I5.118997 J3.435921
G02 X117.723863 Y214.140387 Z-0.125000 I17.905600 J-1.514344
G03 X118.804767 Y218.476520 Z-0.125000 I-12.923791 J5.524411
G03 X118.180051 Y219.516330 Z-0.125000 I-1.033297 J0.086765
G02 X117.518893 Y220.616997 Z-0.125000 I0.432423 J1.008659
G02 X117.850317 Y221.273986 Z-0.125000 I0.976036 J-0.080280
G02 X118.540184 Y221.762641 Z-0.125000 I2.728449 J-3.120638
G03 X120.278504 Y223.265805 Z-0.125000 I-2.977292 J5.199777
G03 X121.477055 Y226.316115 Z-0.125000 I-4.503090 J3.530015
G03 X121.170759 Y227.538232 Z-0.125000 I-1.940966 J0.162982
G03 X120.267911 Y228.080883 Z-0.125000 I-1.006438 J-0.652091
G03 X117.888183 Y227.173658 Z-0.125000 I-0.246141 J-2.929078
G03 X115.841437 Y222.606661 Z-0.125000 I5.490075 J-5.202565
G03 X115.829622 Y220.334339 Z-0.125000 I14.249341 J-1.210279
G02 X115.820271 Y218.484458 Z-0.125000 I-11.630919 J-0.866167
G02 X114.909679 Y216.452636 Z-0.125000 I-3.358647 J0.285270
G02 X113.092420 Y215.759253 Z-0.125000 I-1.629332 J1.542167
G02 X111.835851 Y216.292080 Z-0.125000 I0.185983 J2.186705
G02 X111.293255 Y217.632501 Z-0.125000 I1.051679 J1.205744
G02 X111.658940 Y218.754547 Z-0.125000 I2.563529 J-0.214862
G03 X111.877984 Y219.429019 Z-0.125000 I-1.314923 J0.799844
G03 X111.640001 Y220.039217 Z-0.125000 I-0.737690 J0.063800
G03 X110.869923 Y220.376226 Z-0.125000 I-0.879770 J-0.961972
G03 X109.923146 Y220.036962 Z-0.125000 I-0.100478 J-1.210303
G03 X109.189821 Y218.487104 Z-0.125000 I1.705556 J-1.755413
G03 X111.629578 Y214.290552 Z-0.125000 I4.216016 J-0.356405
G02 X114.457668 Y209.427782 Z-0.125000 I-2.058889 J-4.451174
G02 X111.909264 Y205.056306 Z-0.125000 I-5.868625 J0.492636
G02 X105.803158 Y203.448206 Z-0.125000 I-5.315722 J7.787516
G02 X100.659914 Y205.521898 Z-0.125000 I0.791154 J9.377319
G02 X99.021896 Y209.372219 Z-0.125000 I2.823266 J3.474672
G02 X100.197884 Y211.753203 Z-0.125000 I3.611868 J-0.303025
G02 X102.046080 Y212.377882 Z-0.125000 I1.640704 J-1.807833
G02 X103.415041 Y211.703297 Z-0.125000 I-0.172697 J-2.076796
G02 X104.056910 Y209.808781 Z-0.125000 I-1.850206 J-1.682849
G03 X104.340584 Y208.236651 Z-0.125000 I3.063153 J-0.258947
G03 X105.231659 Y207.618034 Z-0.125000 I0.982540 J0.464208
G03 X105.964298 Y207.915037 Z-0.125000 I0.073801 J0.870079
G03 X106.369366 Y208.874803 Z-0.125000 I-1.262591 J1.098236
G03 X104.458340 Y212.641374 Z-0.125000 I-4.003062 J0.337066
G02 X101.802663 Y217.875917 Z-0.125000 I2.907243 J4.765884
G02 X104.102658 Y221.686824 Z-0.125000 I5.006015 J-0.421767
G02 X110.404257 Y223.244306 Z-0.125000 I5.450346 J-8.525263
G02 X111.655469 Y223.049219 Z-0.125000 I-0.782393 J-9.127920
G02 X113.015691 Y222.654286 Z-0.125000 I-2.678000 J-11.763406
G02 X116.576192 Y229.959444 Z-0.125000 I11.213686 J-0.945235
G02 X122.665033 Y232.057566 Z-0.125000 I5.418887 J-5.841743
G02 X126.915137 Y229.811950 Z-0.125000 I-0.513888 J-6.117327
G02 X128.422359 Y224.927054 Z-0.125000 I-5.305846 J-4.312077
G02 X128.232670 Y223.589416 Z-0.125000 I-11.538064 J0.953934
G03 X128.022839 Y222.130412 Z-0.125000 I12.813106 J-2.587345
G03 X128.281790 Y221.395769 Z-0.125000 I0.947547 J-0.078962
G03 X129.747920 Y220.693726 Z-0.125000 I1.656377 J1.577203
G02 X130.164536 Y220.502218 Z-0.125000 I-0.056350 J-0.671506
G02 X130.388211 Y219.899977 Z-0.125000 I-0.532519 J-0.540437
G02 X130.052663 Y219.157371 Z-0.125000 I-1.211116 J0.100132
G02 X129.142025 Y218.651145 Z-0.125000 I-1.281932 J1.233864
G03 X127.590226 Y217.897010 Z-0.125000 I0.635180 J-3.280670
G03 X126.498840 Y216.288419 Z-0.125000 I2.463422 J-2.845899
G03 X125.478300 Y213.095943 Z-0.125000 I112.093451 J-37.592316
G03 X124.784343 Y209.478053 Z-0.125000 I16.700243 J-5.078821
G01 X124.781697 Y209.478053 Z-0.125000
G01 X124.781697 Y209.480698 Z-0.125000
G00 Z5.000000

(End cutting path id: path929)


(Start cutting path id: path929)
(Change tool to Default tool)

G00 Z5.000000
G00 X124.781697 Y209.480698

G01 Z-0.125000 F100.0(Penetrate)
G03 X125.390369 Y207.585996 Z-0.125000 I2.581614 J-0.215777 F400.000000
G03 X126.684049 Y206.919535 Z-0.125000 I1.457446 J1.240251
G03 X128.221861 Y207.302267 Z-0.125000 I0.208369 J2.443598
G03 X129.681774 Y208.329762 Z-0.125000 I-11.992213 J18.589993
G03 X130.449712 Y208.904245 Z-0.125000 I-63.698534 J85.949391
G02 X130.882981 Y209.028262 Z-0.125000 I0.377472 J-0.499897
G02 X131.389224 Y208.734801 Z-0.125000 I-0.058822 J-0.684858
G02 X131.523272 Y208.237158 Z-0.125000 I-0.630472 J-0.436703
G02 X131.370249 Y207.729075 Z-0.125000 I-1.289698 J0.111341
G02 X130.753335 Y206.824285 Z-0.125000 I-4.841276 J2.638223
G02 X127.403656 Y203.794936 Z-0.125000 I-11.726444 J9.599809
G02 X121.402972 Y202.257583 Z-0.125000 I-5.209428 J7.853950
G02 X117.365566 Y204.633819 Z-0.125000 I0.455445 J5.391882
G02 X116.341499 Y208.591700 Z-0.125000 I5.118997 J3.435921
G02 X117.723863 Y214.140387 Z-0.125000 I17.905600 J-1.514344
G03 X118.804767 Y218.476520 Z-0.125000 I-12.923791 J5.524411
G03 X118.180051 Y219.516330 Z-0.125000 I-1.033297 J0.086765
G02 X117.518893 Y220.616997 Z-0.125000 I0.432423 J1.008659
G02 X117.850317 Y221.273986 Z-0.125000 I0.976036 J-0.080280
G02 X118.540184 Y221.762641 Z-0.125000 I2.728449 J-3.120638
G03 X120.278504 Y223.265805 Z-0.125000 I-2.977292 J5.199777
G03 X121.477055 Y226.316115 Z-0.125000 I-4.503090 J3.530015
G03 X121.170759 Y227.538232 Z-0.125000 I-1.940966 J0.162982
G03 X120.267911 Y228.080883 Z-0.125000 I-1.006438 J-0.652091
G03 X117.888183 Y227.173658 Z-0.125000 I-0.246141 J-2.929078
G03 X115.841437 Y222.606661 Z-0.125000 I5.490075 J-5.202565
G03 X115.829622 Y220.334339 Z-0.125000 I14.249341 J-1.210279
G02 X115.820271 Y218.484458 Z-0.125000 I-11.630919 J-0.866167
G02 X114.909679 Y216.452636 Z-0.125000 I-3.358647 J0.285270
G02 X113.092420 Y215.759253 Z-0.125000 I-1.629332 J1.542167
G02 X111.835851 Y216.292080 Z-0.125000 I0.185983 J2.186705
G02 X111.293255 Y217.632501 Z-0.125000 I1.051679 J1.205744
G02 X111.658940 Y218.754547 Z-0.125000 I2.563529 J-0.214862
G03 X111.877984 Y219.429019 Z-0.125000 I-1.314923 J0.799844
G03 X111.640001 Y220.039217 Z-0.125000 I-0.737690 J0.063800
G03 X110.869923 Y220.376226 Z-0.125000 I-0.879770 J-0.961972
G03 X109.923146 Y220.036962 Z-0.125000 I-0.100478 J-1.210303
G03 X109.189821 Y218.487104 Z-0.125000 I1.705556 J-1.755413
G03 X111.629578 Y214.290552 Z-0.125000 I4.216016 J-0.356405
G02 X114.457668 Y209.427782 Z-0.125000 I-2.058889 J-4.451174
G02 X111.909264 Y205.056306 Z-0.125000 I-5.868625 J0.492636
G02 X105.803158 Y203.448206 Z-0.125000 I-5.315722 J7.787516
G02 X100.659914 Y205.521898 Z-0.125000 I0.791154 J9.377319
G02 X99.021896 Y209.372219 Z-0.125000 I2.823266 J3.474672
G02 X100.197884 Y211.753203 Z-0.125000 I3.611868 J-0.303025
G02 X102.046080 Y212.377882 Z-0.125000 I1.640704 J-1.807833
G02 X103.415041 Y211.703297 Z-0.125000 I-0.172697 J-2.076796
G02 X104.056910 Y209.808781 Z-0.125000 I-1.850206 J-1.682849
G03 X104.340584 Y208.236651 Z-0.125000 I3.063153 J-0.258947
G03 X105.231659 Y207.618034 Z-0.125000 I0.982540 J0.464208
G03 X105.964298 Y207.915037 Z-0.125000 I0.073801 J0.870079
G03 X106.369366 Y208.874803 Z-0.125000 I-1.262591 J1.098236
G03 X104.458340 Y212.641374 Z-0.125000 I-4.003062 J0.337066
G02 X101.802663 Y217.875917 Z-0.125000 I2.907243 J4.765884
G02 X104.102658 Y221.686824 Z-0.125000 I5.006015 J-0.421767
G02 X110.404257 Y223.244306 Z-0.125000 I5.450346 J-8.525263
G02 X111.655469 Y223.049219 Z-0.125000 I-0.782393 J-9.127920
G02 X113.015691 Y222.654286 Z-0.125000 I-2.678000 J-11.763406
G02 X116.576192 Y229.959444 Z-0.125000 I11.213686 J-0.945235
G02 X122.665033 Y232.057566 Z-0.125000 I5.418887 J-5.841743
G02 X126.915137 Y229.811950 Z-0.125000 I-0.513888 J-6.117327
G02 X128.422359 Y224.927054 Z-0.125000 I-5.305846 J-4.312077
G02 X128.232670 Y223.589416 Z-0.125000 I-11.538064 J0.953934
G03 X128.022839 Y222.130412 Z-0.125000 I12.813106 J-2.587345
G03 X128.281790 Y221.395769 Z-0.125000 I0.947547 J-0.078962
G03 X129.747920 Y220.693726 Z-0.125000 I1.656377 J1.577203
G02 X130.164536 Y220.502218 Z-0.125000 I-0.056350 J-0.671506
G02 X130.388211 Y219.899977 Z-0.125000 I-0.532519 J-0.540437
G02 X130.052663 Y219.157371 Z-0.125000 I-1.211116 J0.100132
G02 X129.142025 Y218.651145 Z-0.125000 I-1.281932 J1.233864
G03 X127.590226 Y217.897010 Z-0.125000 I0.635180 J-3.280670
G03 X126.498840 Y216.288419 Z-0.125000 I2.463422 J-2.845899
G03 X125.478300 Y213.095943 Z-0.125000 I112.093451 J-37.592316
G03 X124.784343 Y209.478053 Z-0.125000 I16.700243 J-5.078821
G01 X124.781697 Y209.478053 Z-0.125000
G01 X124.781697 Y209.480698 Z-0.125000
G00 Z5.000000

(End cutting path id: path929)


(Start cutting path id: path927)
(Change tool to Default tool)

G00 Z5.000000
G00 X95.389171 Y211.023217

G01 Z-0.125000 F100.0(Penetrate)
G03 X96.075712 Y209.096649 Z-0.125000 I3.660755 J0.218916 F400.000000
G03 X97.106315 Y208.607575 Z-0.125000 I0.959966 J0.692483
G03 X98.145249 Y209.030412 Z-0.125000 I-0.105765 J1.747649
G03 X99.082750 Y210.015156 Z-0.125000 I-4.571586 J5.290898
G02 X99.594953 Y210.538760 Z-0.125000 I2.555908 J-1.987928
G02 X99.963811 Y210.681905 Z-0.125000 I0.405676 J-0.498540
G02 X100.579906 Y210.395019 Z-0.125000 I0.042649 J-0.713393
G02 X100.770790 Y209.869635 Z-0.125000 I-0.781644 J-0.581357
G02 X100.615078 Y209.005968 Z-0.125000 I-1.862866 J-0.110012
G02 X100.022020 Y207.858805 Z-0.125000 I-9.626424 J4.249768
G02 X97.961491 Y205.387699 Z-0.125000 I-9.076654 J5.473920
G02 X93.129633 Y203.392644 Z-0.125000 I-5.311044 J6.014201
G02 X90.205677 Y204.249245 Z-0.125000 I-0.267572 J4.505330
G02 X88.732263 Y206.202515 Z-0.125000 I2.474586 J3.399016
G02 X85.915469 Y203.830427 Z-0.125000 I-7.652406 J6.228556
G02 X82.212938 Y202.741769 Z-0.125000 I-4.216279 J7.499095
G02 X77.963699 Y204.368619 Z-0.125000 I-0.327381 J5.507709
G02 X75.683029 Y209.478053 Z-0.125000 I5.640325 J5.581362
G02 X78.410826 Y218.594382 Z-0.125000 I13.837496 J0.825803
G02 X85.488475 Y222.410870 Z-0.125000 I7.643549 J-5.703939
G02 X88.457878 Y222.022899 Z-0.125000 I0.475974 J-7.914449
G02 X89.332866 Y221.595954 Z-0.125000 I-1.145471 J-3.457635
G02 X90.513329 Y228.974546 Z-0.125000 I181.680841 J-25.282447
G02 X92.092467 Y236.259144 Z-0.125000 I106.430639 J-19.258327
G02 X73.392662 Y242.779033 Z-0.125000 I137.197071 J423.573840
G03 X53.561245 Y245.757674 Z-0.125000 I-16.950096 J-45.344747
G03 X46.587582 Y242.045998 Z-0.125000 I0.563378 J-9.465553
G03 X44.938485 Y236.642789 Z-0.125000 I6.445269 J-4.920404
G03 X45.941264 Y233.377515 Z-0.125000 I7.214434 J0.428967
G02 X46.216421 Y232.480899 Z-0.125000 I-1.704151 J-1.013505
G02 X46.043167 Y231.806907 Z-0.125000 I-1.135059 J-0.067490
G02 X45.674026 Y231.589254 Z-0.125000 I-0.395956 J0.249685
G02 X41.857077 Y232.795162 Z-0.125000 I-0.331161 J5.595479
G02 X36.101413 Y243.857968 Z-0.125000 I9.510973 J11.976947
G02 X39.974960 Y254.926002 Z-0.125000 I15.161928 J0.905529
G02 X51.277894 Y260.367947 Z-0.125000 I12.287405 J-11.061889
G02 X72.980637 Y253.822097 Z-0.125000 I1.954746 J-32.769658
G03 X93.312195 Y242.109074 Z-0.125000 I57.619980 J76.514865
G02 X101.847482 Y259.608045 Z-0.125000 I42.008734 J-9.659087
G02 X111.240339 Y264.431942 Z-0.125000 I10.174681 J-8.255038
G02 X119.462841 Y261.420088 Z-0.125000 I0.651681 J-10.950717
G02 X123.178324 Y253.409414 Z-0.125000 I-8.322529 J-8.727114
G02 X117.172061 Y239.443087 Z-0.125000 I-16.901220 J-1.006247
G02 X104.940618 Y234.568458 Z-0.125000 I-13.475409 J16.029653
G02 X102.192495 Y234.634993 Z-0.125000 I-0.973431 J16.580772
G02 X99.162125 Y235.084395 Z-0.125000 I4.075153 J37.920983
G03 X96.605658 Y224.942019 Z-0.125000 I380.695998 J-101.350855
G03 X95.389171 Y211.023217 Z-0.125000 I46.568296 J-11.082573
G01 X95.389171 Y211.023217 Z-0.125000
G00 Z5.000000

(End cutting path id: path927)


(Start cutting path id: path927)
(Change tool to Default tool)

G00 Z5.000000
G00 X95.389171 Y211.023217

G01 Z-0.125000 F100.0(Penetrate)
G03 X96.075712 Y209.096649 Z-0.125000 I3.660755 J0.218916 F400.000000
G03 X97.106315 Y208.607575 Z-0.125000 I0.959966 J0.692483
G03 X98.145249 Y209.030412 Z-0.125000 I-0.105765 J1.747649
G03 X99.082750 Y210.015156 Z-0.125000 I-4.571586 J5.290898
G02 X99.594953 Y210.538760 Z-0.125000 I2.555908 J-1.987928
G02 X99.963811 Y210.681905 Z-0.125000 I0.405676 J-0.498540
G02 X100.579906 Y210.395019 Z-0.125000 I0.042649 J-0.713393
G02 X100.770790 Y209.869635 Z-0.125000 I-0.781644 J-0.581357
G02 X100.615078 Y209.005968 Z-0.125000 I-1.862866 J-0.110012
G02 X100.022020 Y207.858805 Z-0.125000 I-9.626424 J4.249768
G02 X97.961491 Y205.387699 Z-0.125000 I-9.076654 J5.473920
G02 X93.129633 Y203.392644 Z-0.125000 I-5.311044 J6.014201
G02 X90.205677 Y204.249245 Z-0.125000 I-0.267572 J4.505330
G02 X88.732263 Y206.202515 Z-0.125000 I2.474586 J3.399016
G02 X85.915469 Y203.830427 Z-0.125000 I-7.652406 J6.228556
G02 X82.212938 Y202.741769 Z-0.125000 I-4.216279 J7.499095
G02 X77.963699 Y204.368619 Z-0.125000 I-0.327381 J5.507709
G02 X75.683029 Y209.478053 Z-0.125000 I5.640325 J5.581362
G02 X78.410826 Y218.594382 Z-0.125000 I13.837496 J0.825803
G02 X85.488475 Y222.410870 Z-0.125000 I7.643549 J-5.703939
G02 X88.457878 Y222.022899 Z-0.125000 I0.475974 J-7.914449
G02 X89.332866 Y221.595954 Z-0.125000 I-1.145471 J-3.457635
G02 X90.513329 Y228.974546 Z-0.125000 I181.680841 J-25.282447
G02 X92.092467 Y236.259144 Z-0.125000 I106.430639 J-19.258327
G02 X73.392662 Y242.779033 Z-0.125000 I137.197071 J423.573840
G03 X53.561245 Y245.757674 Z-0.125000 I-16.950096 J-45.344747
G03 X46.587582 Y242.045998 Z-0.125000 I0.563378 J-9.465553
G03 X44.938485 Y236.642789 Z-0.125000 I6.445269 J-4.920404
G03 X45.941264 Y233.377515 Z-0.125000 I7.214434 J0.428967
G02 X46.216421 Y232.480899 Z-0.125000 I-1.704151 J-1.013505
G02 X46.043167 Y231.806907 Z-0.125000 I-1.135059 J-0.067490
G02 X45.674026 Y231.589254 Z-0.125000 I-0.395956 J0.249685
G02 X41.857077 Y232.795162 Z-0.125000 I-0.331161 J5.595479
G02 X36.101413 Y243.857968 Z-0.125000 I9.510973 J11.976947
G02 X39.974960 Y254.926002 Z-0.125000 I15.161928 J0.905529
G02 X51.277894 Y260.367947 Z-0.125000 I12.287405 J-11.061889
G02 X72.980637 Y253.822097 Z-0.125000 I1.954746 J-32.769658
G03 X93.312195 Y242.109074 Z-0.125000 I57.619980 J76.514865
G02 X101.847482 Y259.608045 Z-0.125000 I42.008734 J-9.659087
G02 X111.240339 Y264.431942 Z-0.125000 I10.174681 J-8.255038
G02 X119.462841 Y261.420088 Z-0.125000 I0.651681 J-10.950717
G02 X123.178324 Y253.409414 Z-0.125000 I-8.322529 J-8.727114
G02 X117.172061 Y239.443087 Z-0.125000 I-16.901220 J-1.006247
G02 X104.940618 Y234.568458 Z-0.125000 I-13.475409 J16.029653
G02 X102.192495 Y234.634993 Z-0.125000 I-0.973431 J16.580772
G02 X99.162125 Y235.084395 Z-0.125000 I4.075153 J37.920983
G03 X96.605658 Y224.942019 Z-0.125000 I380.695998 J-101.350855
G03 X95.389171 Y211.023217 Z-0.125000 I46.568296 J-11.082573
G01 X95.389171 Y211.023217 Z-0.125000
G00 Z5.000000

(End cutting path id: path927)


(Start cutting path id: path927)
(Change tool to Default tool)

G00 Z5.000000
G00 X86.988661 Y219.122103

G01 Z-0.125000 F100.0(Penetrate)
G03 X84.676232 Y217.263381 Z-0.125000 I0.150982 J-2.555639 F400.000000
G03 X83.824248 Y209.411907 Z-0.125000 I22.775672 J-6.443408
G03 X84.365148 Y207.689202 Z-0.125000 I3.720898 J0.222029
G03 X85.255642 Y207.223805 Z-0.125000 I0.833147 J0.509512
G03 X87.690470 Y209.473665 Z-0.125000 I-0.157113 J2.612461
G03 X88.028472 Y218.016146 Z-0.125000 I-42.639265 J5.965043
G03 X87.681792 Y218.837668 Z-0.125000 I-1.341043 J-0.082006
G03 X86.986015 Y219.122103 Z-0.125000 I-0.645982 J-0.586972
G01 X86.988661 Y219.122103 Z-0.125000
G00 Z5.000000

(End cutting path id: path927)


(Start cutting path id: path927)
(Change tool to Default tool)

G00 Z5.000000
G00 X86.988661 Y219.122103

G01 Z-0.125000 F100.0(Penetrate)
G03 X84.676232 Y217.263381 Z-0.125000 I0.150982 J-2.555639 F400.000000
G03 X83.824248 Y209.411907 Z-0.125000 I22.775672 J-6.443408
G03 X84.365148 Y207.689202 Z-0.125000 I3.720898 J0.222029
G03 X85.255642 Y207.223805 Z-0.125000 I0.833147 J0.509512
G03 X87.690470 Y209.473665 Z-0.125000 I-0.157113 J2.612461
G03 X88.028472 Y218.016146 Z-0.125000 I-42.639265 J5.965043
G03 X87.681792 Y218.837668 Z-0.125000 I-1.341043 J-0.082006
G03 X86.986015 Y219.122103 Z-0.125000 I-0.645982 J-0.586972
G01 X86.988661 Y219.122103 Z-0.125000
G00 Z5.000000

(End cutting path id: path927)


(Start cutting path id: path925)
(Change tool to Default tool)

G00 Z5.000000
G00 X70.364911 Y201.193959

G01 Z-0.125000 F100.0(Penetrate)
G02 X65.760882 Y203.016961 Z-0.125000 I-0.841984 J4.598838 F400.000000
G02 X65.425147 Y203.532873 Z-0.125000 I4.216230 J3.110957
G03 X65.277030 Y203.280233 Z-0.125000 I9.700808 J-5.857092
G02 X59.554050 Y199.217524 Z-0.125000 I-7.220208 J4.108602
G02 X55.303585 Y200.114396 Z-0.125000 I-1.030930 J5.634565
G02 X52.031955 Y205.136246 Z-0.125000 I4.361382 J6.417973
G02 X53.028337 Y213.233581 Z-0.125000 I13.449128 J2.455047
G02 X60.638840 Y219.177665 Z-0.125000 I9.482095 J-4.296298
G02 X64.441555 Y218.962023 Z-0.125000 I1.455761 J-7.965622
G03 X65.589188 Y218.897207 Z-0.125000 I0.707614 J2.336644
G03 X68.059532 Y219.965985 Z-0.125000 I-1.073927 J5.871582
G02 X70.333161 Y220.947726 Z-0.125000 I3.250990 J-4.405382
G02 X70.877830 Y220.832756 Z-0.125000 I0.131836 J-0.723098
G02 X71.296243 Y220.188372 Z-0.125000 I-0.556045 J-0.819087
G02 X71.324368 Y217.554519 Z-0.125000 I-7.651326 J-1.398778
G03 X71.415306 Y208.988574 Z-0.125000 I24.984504 J-4.018223
G03 X72.477459 Y207.162678 Z-0.125000 I3.057834 J0.556907
G03 X73.677490 Y206.845452 Z-0.125000 I0.938004 J1.119958
G03 X74.656661 Y207.389060 Z-0.125000 I-0.310553 J1.713050
G03 X75.468717 Y208.483221 Z-0.125000 I-5.155520 J4.674707
G02 X75.914129 Y209.063026 Z-0.125000 I2.831540 J-1.714230
G02 X76.265112 Y209.253157 Z-0.125000 I0.473688 J-0.455406
G02 X76.910837 Y209.042927 Z-0.125000 I0.128185 J-0.703073
G02 X77.164694 Y208.544075 Z-0.125000 I-0.708208 J-0.674412
G02 X77.113940 Y207.666538 Z-0.125000 I-1.825921 J-0.334631
G02 X76.664632 Y206.459161 Z-0.125000 I-10.366084 J3.170299
G02 X74.918133 Y203.755717 Z-0.125000 I-9.642128 J4.313218
G02 X70.362265 Y201.193959 Z-0.125000 I-5.992765 J5.325631
G01 X70.364911 Y201.193959 Z-0.125000
G00 Z5.000000

(End cutting path id: path925)


(Start cutting path id: path925)
(Change tool to Default tool)

G00 Z5.000000
G00 X70.364911 Y201.193959

G01 Z-0.125000 F100.0(Penetrate)
G02 X65.760882 Y203.016961 Z-0.125000 I-0.841984 J4.598838 F400.000000
G02 X65.425147 Y203.532873 Z-0.125000 I4.216230 J3.110957
G03 X65.277030 Y203.280233 Z-0.125000 I9.700808 J-5.857092
G02 X59.554050 Y199.217524 Z-0.125000 I-7.220208 J4.108602
G02 X55.303585 Y200.114396 Z-0.125000 I-1.030930 J5.634565
G02 X52.031955 Y205.136246 Z-0.125000 I4.361382 J6.417973
G02 X53.028337 Y213.233581 Z-0.125000 I13.449128 J2.455047
G02 X60.638840 Y219.177665 Z-0.125000 I9.482095 J-4.296298
G02 X64.441555 Y218.962023 Z-0.125000 I1.455761 J-7.965622
G03 X65.589188 Y218.897207 Z-0.125000 I0.707614 J2.336644
G03 X68.059532 Y219.965985 Z-0.125000 I-1.073927 J5.871582
G02 X70.333161 Y220.947726 Z-0.125000 I3.250990 J-4.405382
G02 X70.877830 Y220.832756 Z-0.125000 I0.131836 J-0.723098
G02 X71.296243 Y220.188372 Z-0.125000 I-0.556045 J-0.819087
G02 X71.324368 Y217.554519 Z-0.125000 I-7.651326 J-1.398778
G03 X71.415306 Y208.988574 Z-0.125000 I24.984504 J-4.018223
G03 X72.477459 Y207.162678 Z-0.125000 I3.057834 J0.556907
G03 X73.677490 Y206.845452 Z-0.125000 I0.938004 J1.119958
G03 X74.656661 Y207.389060 Z-0.125000 I-0.310553 J1.713050
G03 X75.468717 Y208.483221 Z-0.125000 I-5.155520 J4.674707
G02 X75.914129 Y209.063026 Z-0.125000 I2.831540 J-1.714230
G02 X76.265112 Y209.253157 Z-0.125000 I0.473688 J-0.455406
G02 X76.910837 Y209.042927 Z-0.125000 I0.128185 J-0.703073
G02 X77.164694 Y208.544075 Z-0.125000 I-0.708208 J-0.674412
G02 X77.113940 Y207.666538 Z-0.125000 I-1.825921 J-0.334631
G02 X76.664632 Y206.459161 Z-0.125000 I-10.366084 J3.170299
G02 X74.918133 Y203.755717 Z-0.125000 I-9.642128 J4.313218
G02 X70.362265 Y201.193959 Z-0.125000 I-5.992765 J5.325631
G01 X70.364911 Y201.193959 Z-0.125000
G00 Z5.000000

(End cutting path id: path925)


(Start cutting path id: path925)
(Change tool to Default tool)

G00 Z5.000000
G00 X62.099338 Y216.015899

G01 Z-0.125000 F100.0(Penetrate)
G03 X60.029141 Y213.890208 Z-0.125000 I0.460399 J-2.519301 F400.000000
G03 X60.133487 Y205.993494 Z-0.125000 I23.401119 J-3.639828
G03 X60.877364 Y204.348957 Z-0.125000 I3.659007 J0.664580
G03 X61.818880 Y203.995893 Z-0.125000 I0.763851 J0.605058
G03 X63.964834 Y206.524616 Z-0.125000 I-0.471121 J2.574732
G03 X63.268795 Y215.044879 Z-0.125000 I-43.199970 J0.759460
G03 X62.825953 Y215.818899 Z-0.125000 I-1.318340 J-0.240573
G03 X62.101984 Y216.015899 Z-0.125000 I-0.567856 J-0.658074
G01 X62.101984 Y216.015899 Z-0.125000
G01 X62.099338 Y216.015899 Z-0.125000
G00 Z5.000000

(End cutting path id: path925)


(Start cutting path id: path925)
(Change tool to Default tool)

G00 Z5.000000
G00 X62.099338 Y216.015899

G01 Z-0.125000 F100.0(Penetrate)
G03 X60.029141 Y213.890208 Z-0.125000 I0.460399 J-2.519301 F400.000000
G03 X60.133487 Y205.993494 Z-0.125000 I23.401119 J-3.639828
G03 X60.877364 Y204.348957 Z-0.125000 I3.659007 J0.664580
G03 X61.818880 Y203.995893 Z-0.125000 I0.763851 J0.605058
G03 X63.964834 Y206.524616 Z-0.125000 I-0.471121 J2.574732
G03 X63.268795 Y215.044879 Z-0.125000 I-43.199970 J0.759460
G03 X62.825953 Y215.818899 Z-0.125000 I-1.318340 J-0.240573
G03 X62.101984 Y216.015899 Z-0.125000 I-0.567856 J-0.658074
G01 X62.101984 Y216.015899 Z-0.125000
G01 X62.099338 Y216.015899 Z-0.125000
G00 Z5.000000

(End cutting path id: path925)


(Start cutting path id: path923)
(Change tool to Default tool)

G00 Z5.000000
G00 X49.589854 Y209.470115

G01 Z-0.125000 F100.0(Penetrate)
G02 X49.321516 Y200.550820 Z-0.125000 I-13.757160 J-4.049798 F400.000000
G02 X42.927654 Y194.531759 Z-0.125000 I-9.134230 J3.297479
G02 X36.693218 Y195.047143 Z-0.125000 I-2.451042 J8.316208
G02 X32.608917 Y199.868398 Z-0.125000 I3.408724 J7.028306
G02 X33.152027 Y208.086134 Z-0.125000 I11.448102 J3.370211
G02 X40.620490 Y214.629484 Z-0.125000 I10.811172 J-4.805820
G02 X46.291108 Y213.838850 Z-0.125000 I1.962173 J-6.657662
G02 X49.589854 Y209.470115 Z-0.125000 I-4.147290 J-6.561314
G01 X49.589854 Y209.470115 Z-0.125000
G00 Z5.000000

(End cutting path id: path923)


(Start cutting path id: path923)
(Change tool to Default tool)

G00 Z5.000000
G00 X49.589854 Y209.470115

G01 Z-0.125000 F100.0(Penetrate)
G02 X49.321516 Y200.550820 Z-0.125000 I-13.757160 J-4.049798 F400.000000
G02 X42.927654 Y194.531759 Z-0.125000 I-9.134230 J3.297479
G02 X36.693218 Y195.047143 Z-0.125000 I-2.451042 J8.316208
G02 X32.608917 Y199.868398 Z-0.125000 I3.408724 J7.028306
G02 X33.152027 Y208.086134 Z-0.125000 I11.448102 J3.370211
G02 X40.620490 Y214.629484 Z-0.125000 I10.811172 J-4.805820
G02 X46.291108 Y213.838850 Z-0.125000 I1.962173 J-6.657662
G02 X49.589854 Y209.470115 Z-0.125000 I-4.147290 J-6.561314
G01 X49.589854 Y209.470115 Z-0.125000
G00 Z5.000000

(End cutting path id: path923)


(Start cutting path id: path923)
(Change tool to Default tool)

G00 Z5.000000
G00 X44.258507 Y206.877202

G01 Z-0.125000 F100.0(Penetrate)
G02 X42.272988 Y207.637825 Z-0.125000 I0.571891 J4.464651 F400.000000
G02 X41.625906 Y208.530845 Z-0.125000 I0.940858 J1.362693
G02 X41.717623 Y210.566412 Z-0.125000 I2.994657 J0.884918
G03 X41.747614 Y211.187259 Z-0.125000 I-0.893932 J0.354331
G03 X41.577319 Y211.400486 Z-0.125000 I-0.344738 J-0.100710
G03 X41.279302 Y211.433321 Z-0.125000 I-0.188119 J-0.338547
G03 X40.993435 Y211.273808 Z-0.125000 I0.204493 J-0.702387
G03 X40.051637 Y210.049552 Z-0.125000 I2.884381 J-3.193284
G03 X39.489946 Y207.900931 Z-0.125000 I4.282687 J-2.267305
G03 X40.123074 Y203.101602 Z-0.125000 I15.608205 J-0.382389
G03 X41.930808 Y200.210692 Z-0.125000 I6.087067 J1.795685
G03 X44.054778 Y199.720232 Z-0.125000 I1.497260 J1.639753
G03 X45.987872 Y201.689265 Z-0.125000 I-0.801992 J2.720777
G03 X45.957129 Y204.948392 Z-0.125000 I-5.732663 J1.575633
G03 X45.261394 Y206.289033 Z-0.125000 I-3.776412 J-1.108946
G03 X44.261152 Y206.877202 Z-0.125000 I-1.264103 J-1.005146
G01 X44.258507 Y206.877202 Z-0.125000
G00 Z5.000000

(End cutting path id: path923)


(Start cutting path id: path923)
(Change tool to Default tool)

G00 Z5.000000
G00 X44.258507 Y206.877202

G01 Z-0.125000 F100.0(Penetrate)
G02 X42.272988 Y207.637825 Z-0.125000 I0.571891 J4.464651 F400.000000
G02 X41.625906 Y208.530845 Z-0.125000 I0.940858 J1.362693
G02 X41.717623 Y210.566412 Z-0.125000 I2.994657 J0.884918
G03 X41.747614 Y211.187259 Z-0.125000 I-0.893932 J0.354331
G03 X41.577319 Y211.400486 Z-0.125000 I-0.344738 J-0.100710
G03 X41.279302 Y211.433321 Z-0.125000 I-0.188119 J-0.338547
G03 X40.993435 Y211.273808 Z-0.125000 I0.204493 J-0.702387
G03 X40.051637 Y210.049552 Z-0.125000 I2.884381 J-3.193284
G03 X39.489946 Y207.900931 Z-0.125000 I4.282687 J-2.267305
G03 X40.123074 Y203.101602 Z-0.125000 I15.608205 J-0.382389
G03 X41.930808 Y200.210692 Z-0.125000 I6.087067 J1.795685
G03 X44.054778 Y199.720232 Z-0.125000 I1.497260 J1.639753
G03 X45.987872 Y201.689265 Z-0.125000 I-0.801992 J2.720777
G03 X45.957129 Y204.948392 Z-0.125000 I-5.732663 J1.575633
G03 X45.261394 Y206.289033 Z-0.125000 I-3.776412 J-1.108946
G03 X44.261152 Y206.877202 Z-0.125000 I-1.264103 J-1.005146
G01 X44.258507 Y206.877202 Z-0.125000
G00 Z5.000000

(End cutting path id: path923)


(Start cutting path id: path921)
(Change tool to Default tool)

G00 Z5.000000
G00 X26.288029 Y204.363663

G01 Z-0.125000 F100.0(Penetrate)
G03 X26.746797 Y201.043302 Z-0.125000 I117.153156 J14.494932 F400.000000
G03 X27.682382 Y197.481859 Z-0.125000 I17.300496 J2.641202
G03 X29.049840 Y196.035347 Z-0.125000 I2.415681 J0.914041
G03 X30.505482 Y195.994903 Z-0.125000 I0.776999 J1.749770
G03 X31.728777 Y197.006527 Z-0.125000 I-0.871885 J2.299756
G03 X32.600980 Y198.561358 Z-0.125000 I-18.981851 J11.670175
G03 X33.046379 Y199.412293 Z-0.125000 I-82.997182 J43.984682
G02 X33.381499 Y199.709648 Z-0.125000 I0.553239 J-0.285984
G02 X33.964488 Y199.663679 Z-0.125000 I0.242803 J-0.640498
G02 X34.299602 Y199.270440 Z-0.125000 I-0.379030 J-0.662417
G02 X34.380930 Y198.748788 Z-0.125000 I-1.208794 J-0.455622
G02 X34.214936 Y197.664422 Z-0.125000 I-5.445514 J0.278710
G02 X32.502364 Y193.486869 Z-0.125000 I-14.715748 J3.592858
G02 X27.753819 Y189.507328 Z-0.125000 I-8.096623 J4.838363
G02 X23.085374 Y189.908132 Z-0.125000 I-1.916965 J5.060493
G02 X20.451328 Y193.034219 Z-0.125000 I3.141037 J5.319411
G02 X19.329918 Y198.648701 Z-0.125000 I16.263103 J6.167551
G03 X18.453727 Y203.032811 Z-0.125000 I-13.565703 J-0.431578
G03 X17.670612 Y203.368691 Z-0.125000 I-0.553696 J-0.210090
G02 X16.585771 Y203.834497 Z-0.125000 I-0.317744 J0.756165
G02 X16.312850 Y205.018715 Z-0.125000 I4.229934 J1.598408
G02 X16.815958 Y205.824161 Z-0.125000 I0.781244 J0.071862
G03 X19.950534 Y208.667125 Z-0.125000 I-2.056914 J5.417430
G03 X21.758368 Y213.862193 Z-0.125000 I-19.688158 J9.763381
G02 X22.337895 Y215.297608 Z-0.125000 I4.418250 J-0.949105
G02 X22.848450 Y215.719566 Z-0.125000 I0.882921 J-0.548449
G02 X23.556253 Y215.659728 Z-0.125000 I0.291698 J-0.765707
G02 X24.099928 Y215.013129 Z-0.125000 I-0.645044 J-1.094233
G02 X24.656465 Y212.336860 Z-0.125000 I-8.139848 J-3.088705
G03 X25.086822 Y210.271802 Z-0.125000 I6.692862 J0.317417
G03 X25.650464 Y209.713756 Z-0.125000 I0.893871 J0.339164
G03 X27.089716 Y209.721469 Z-0.125000 I0.709318 J1.927168
G02 X27.620374 Y209.743783 Z-0.125000 I0.298961 J-0.788638
G02 X28.036923 Y209.358990 Z-0.125000 I-0.172846 J-0.604969
G02 X28.167127 Y207.612681 Z-0.125000 I-2.886351 J-1.093214
G02 X27.610944 Y206.967160 Z-0.125000 I-0.871750 J0.188737
G03 X26.559888 Y206.001714 Z-0.125000 I0.679580 J-1.794693
G03 X26.282738 Y204.363663 Z-0.125000 I2.717989 J-1.302343
G01 X26.288029 Y204.363663 Z-0.125000
G00 Z5.000000

(End cutting path id: path921)


(Start cutting path id: path921)
(Change tool to Default tool)

G00 Z5.000000
G00 X26.288029 Y204.363663

G01 Z-0.125000 F100.0(Penetrate)
G03 X26.746797 Y201.043302 Z-0.125000 I117.153156 J14.494932 F400.000000
G03 X27.682382 Y197.481859 Z-0.125000 I17.300496 J2.641202
G03 X29.049840 Y196.035347 Z-0.125000 I2.415681 J0.914041
G03 X30.505482 Y195.994903 Z-0.125000 I0.776999 J1.749770
G03 X31.728777 Y197.006527 Z-0.125000 I-0.871885 J2.299756
G03 X32.600980 Y198.561358 Z-0.125000 I-18.981851 J11.670175
G03 X33.046379 Y199.412293 Z-0.125000 I-82.997182 J43.984682
G02 X33.381499 Y199.709648 Z-0.125000 I0.553239 J-0.285984
G02 X33.964488 Y199.663679 Z-0.125000 I0.242803 J-0.640498
G02 X34.299602 Y199.270440 Z-0.125000 I-0.379030 J-0.662417
G02 X34.380930 Y198.748788 Z-0.125000 I-1.208794 J-0.455622
G02 X34.214936 Y197.664422 Z-0.125000 I-5.445514 J0.278710
G02 X32.502364 Y193.486869 Z-0.125000 I-14.715748 J3.592858
G02 X27.753819 Y189.507328 Z-0.125000 I-8.096623 J4.838363
G02 X23.085374 Y189.908132 Z-0.125000 I-1.916965 J5.060493
G02 X20.451328 Y193.034219 Z-0.125000 I3.141037 J5.319411
G02 X19.329918 Y198.648701 Z-0.125000 I16.263103 J6.167551
G03 X18.453727 Y203.032811 Z-0.125000 I-13.565703 J-0.431578
G03 X17.670612 Y203.368691 Z-0.125000 I-0.553696 J-0.210090
G02 X16.585771 Y203.834497 Z-0.125000 I-0.317744 J0.756165
G02 X16.312850 Y205.018715 Z-0.125000 I4.229934 J1.598408
G02 X16.815958 Y205.824161 Z-0.125000 I0.781244 J0.071862
G03 X19.950534 Y208.667125 Z-0.125000 I-2.056914 J5.417430
G03 X21.758368 Y213.862193 Z-0.125000 I-19.688158 J9.763381
G02 X22.337895 Y215.297608 Z-0.125000 I4.418250 J-0.949105
G02 X22.848450 Y215.719566 Z-0.125000 I0.882921 J-0.548449
G02 X23.556253 Y215.659728 Z-0.125000 I0.291698 J-0.765707
G02 X24.099928 Y215.013129 Z-0.125000 I-0.645044 J-1.094233
G02 X24.656465 Y212.336860 Z-0.125000 I-8.139848 J-3.088705
G03 X25.086822 Y210.271802 Z-0.125000 I6.692862 J0.317417
G03 X25.650464 Y209.713756 Z-0.125000 I0.893871 J0.339164
G03 X27.089716 Y209.721469 Z-0.125000 I0.709318 J1.927168
G02 X27.620374 Y209.743783 Z-0.125000 I0.298961 J-0.788638
G02 X28.036923 Y209.358990 Z-0.125000 I-0.172846 J-0.604969
G02 X28.167127 Y207.612681 Z-0.125000 I-2.886351 J-1.093214
G02 X27.610944 Y206.967160 Z-0.125000 I-0.871750 J0.188737
G03 X26.559888 Y206.001714 Z-0.125000 I0.679580 J-1.794693
G03 X26.282738 Y204.363663 Z-0.125000 I2.717989 J-1.302343
G01 X26.288029 Y204.363663 Z-0.125000
G00 Z5.000000

(End cutting path id: path921)


(Start cutting path id: path927)
(Change tool to Default tool)

G00 Z5.000000
G00 X100.397728 Y239.825723

G01 Z-0.125000 F100.0(Penetrate)
G03 X102.894125 Y239.593599 Z-0.125000 I3.112738 J19.936348 F400.000000
G03 X105.345430 Y239.629931 Z-0.125000 I0.825536 J27.013935
G03 X112.836407 Y243.374030 Z-0.125000 I-0.633935 J10.634147
G03 X114.619064 Y248.721003 Z-0.125000 I-5.772519 J4.895183
G03 X113.129305 Y251.884435 Z-0.125000 I-4.700425 J-0.281074
G03 X110.189944 Y252.941102 Z-0.125000 I-2.701500 J-2.898257
G03 X105.615402 Y250.519243 Z-0.125000 I0.371735 J-6.233410
G03 X100.395082 Y239.825723 Z-0.125000 I23.444253 J-18.065899
G01 X100.395082 Y239.825723 Z-0.125000
G01 X100.397728 Y239.825723 Z-0.125000
G00 Z5.000000

(End cutting path id: path927)


(Start cutting path id: path927)
(Change tool to Default tool)

G00 Z5.000000
G00 X100.397728 Y239.825723

G01 Z-0.125000 F100.0(Penetrate)
G03 X102.894125 Y239.593599 Z-0.125000 I3.112738 J19.936348 F400.000000
G03 X105.345430 Y239.629931 Z-0.125000 I0.825536 J27.013935
G03 X112.836407 Y243.374030 Z-0.125000 I-0.633935 J10.634147
G03 X114.619064 Y248.721003 Z-0.125000 I-5.772519 J4.895183
G03 X113.129305 Y251.884435 Z-0.125000 I-4.700425 J-0.281074
G03 X110.189944 Y252.941102 Z-0.125000 I-2.701500 J-2.898257
G03 X105.615402 Y250.519243 Z-0.125000 I0.371735 J-6.233410
G03 X100.395082 Y239.825723 Z-0.125000 I23.444253 J-18.065899
G01 X100.395082 Y239.825723 Z-0.125000
G01 X100.397728 Y239.825723 Z-0.125000
G00 Z5.000000

(End cutting path id: path927)


(Footer)
M5
G00 X0.0000 Y0.0000
M2
(Using default footer. To add your own footer create file "footer" in the output dir.)
(end)
%