%
(Header)
(Generated by gcodetools from Inkscape.)
(Using default header. To add your own header create file "header" in the output dir.)
M3
(Header end.)
G21 (All units in mm)

(Start cutting path id: path842)
(Change tool to Cylindrical cutter)

G00 Z255.000000
G00 X586.325014 Y-264.838936

G01 Z-6.375000 F100.0(Penetrate)
G03 X589.263423 Y-265.332293 Z-6.375000 I2.515286 J5.983732 F200.000000
G03 X591.883207 Y-264.838936 Z-6.375000 I-0.720403 J11.027793
G01 X595.177295 Y-264.356422 Z-6.375000
G01 X596.188719 Y-267.344298 Z-6.375000
G02 X594.749082 Y-269.346238 Z-6.375000 I-5.094827 J2.145190
G02 X592.013115 Y-271.417832 Z-6.375000 I-15.272423 J17.327884
G02 X581.547117 Y-275.786979 Z-6.375000 I-17.040001 J26.098302
G02 X567.664704 Y-274.498500 Z-6.375000 I-4.895295 J22.687418
G02 X556.262187 Y-262.610452 Z-6.375000 I8.004524 J19.090035
G02 X556.566876 Y-247.923100 Z-6.375000 I18.749258 J6.957883
G02 X573.063021 Y-222.573661 Z-6.375000 I78.032730 J-32.737638
G03 X601.153048 Y-179.396799 Z-6.375000 I-104.736511 J98.865378
G03 X602.153733 Y-170.818001 Z-6.375000 I-14.339023 J6.020356
G03 X599.278666 Y-167.185477 Z-6.375000 I-4.728782 J-0.788693
G02 X597.843786 Y-165.778833 Z-6.375000 I1.044292 J2.500417
G02 X597.821844 Y-163.780040 Z-6.375000 I2.323338 J1.025022
G02 X603.505931 Y-159.289750 Z-6.375000 I6.896953 J-2.887811
G02 X622.448628 Y-161.515935 Z-6.375000 I5.599223 J-34.061169
G02 X631.471271 Y-170.207503 Z-6.375000 I-6.694209 J-15.978148
G02 X631.718469 Y-183.590961 Z-6.375000 I-15.037814 J-6.971767
G02 X624.597530 Y-196.356700 Z-6.375000 I-60.403258 J25.324974
G02 X609.077416 Y-217.710285 Z-6.375000 I-1367.644396 J977.708006
G03 X593.724723 Y-239.042766 Z-6.375000 I843.416287 J-623.185923
G03 X585.684755 Y-253.611201 Z-6.375000 I63.795316 J-44.709848
G03 X584.533470 Y-262.512162 Z-6.375000 I15.593098 J-6.541809
G03 X586.334293 Y-264.838936 Z-6.375000 I2.938508 J0.414013
G01 X586.334293 Y-264.838936 Z-6.375000
G01 X586.325014 Y-264.838936 Z-6.375000
G00 Z255.000000

(End cutting path id: path842)


(Start cutting path id: path840)
(Change tool to Cylindrical cutter)

G00 Z255.000000
G00 X560.297083 Y-225.096465

G01 Z-6.375000 F100.0(Penetrate)
G02 X552.420219 Y-241.154645 Z-6.375000 I-61.467290 J20.189986 F200.000000
G02 X541.985899 Y-251.566315 Z-6.375000 I-32.028526 J21.663857
G02 X528.905222 Y-256.558695 Z-6.375000 I-17.301331 J25.698990
G02 X511.321887 Y-254.965952 Z-6.375000 I-5.343860 J38.858991
G02 X494.344917 Y-241.063732 Z-6.375000 I9.497535 J28.915094
G02 X492.151225 Y-219.018641 Z-6.375000 I23.808060 J13.500815
G02 X510.076310 Y-196.370978 Z-6.375000 I39.753430 J-13.046421
G02 X544.671044 Y-192.350451 Z-6.375000 I21.644314 J-35.393153
G02 X559.471265 Y-205.924896 Z-6.375000 I-7.593543 J-23.134806
G02 X560.297083 Y-225.096465 Z-6.375000 I-25.019362 J-10.681283
G01 X560.297083 Y-225.096465 Z-6.375000
G00 Z255.000000

(End cutting path id: path840)


(Start cutting path id: path840)
(Change tool to Cylindrical cutter)

G00 Z255.000000
G00 X539.743832 Y-221.969402

G01 Z-6.375000 F100.0(Penetrate)
G02 X535.524603 Y-215.825274 Z-6.375000 I10.509133 J11.737473 F200.000000
G02 X535.438320 Y-211.957231 Z-6.375000 I5.413141 J2.055732
G02 X539.760345 Y-206.259377 Z-6.375000 I10.426062 J-3.420408
G03 X541.080025 Y-204.524656 Z-6.375000 I-1.867954 J2.790366
G01 X540.217067 Y-202.882252 Z-6.375000
G03 X539.076174 Y-202.778980 Z-6.375000 I-0.801469 J-2.500584
G03 X533.916544 Y-204.431865 Z-6.375000 I1.951635 J-14.971772
G03 X528.016085 Y-209.517866 Z-6.375000 I7.824876 J-15.043600
G03 X520.285517 Y-224.632509 Z-6.375000 I44.546790 J-32.318267
G03 X519.750579 Y-236.581345 Z-6.375000 I21.139698 J-6.932797
G03 X524.906519 Y-242.216441 Z-6.375000 I7.572745 J1.752518
G03 X534.411100 Y-240.380165 Z-6.375000 I3.103152 J9.454094
G03 X540.810931 Y-230.914473 Z-6.375000 I-13.419341 J15.969259
G03 X541.470556 Y-225.659741 Z-6.375000 I-13.124185 J4.316243
G03 X539.753111 Y-221.969402 Z-6.375000 I-5.650121 J-0.384696
G01 X539.743832 Y-221.969402 Z-6.375000
G00 Z255.000000

(End cutting path id: path840)


(Start cutting path id: path838)
(Change tool to Cylindrical cutter)

G00 Z255.000000
G00 X491.501687 Y-203.225579

G01 Z-6.375000 F100.0(Penetrate)
G02 X485.272112 Y-219.992875 Z-6.375000 I-63.176967 J13.931331 F200.000000
G02 X475.932483 Y-231.395828 Z-6.375000 I-34.024509 J18.341590
G02 X463.416668 Y-237.671061 Z-6.375000 I-19.783051 J23.837984
G02 X445.755625 Y-237.845976 Z-6.375000 I-9.209330 J38.160668
G02 X427.472943 Y-225.713330 Z-6.375000 I6.561252 J29.728558
G02 X423.077456 Y-203.995746 Z-6.375000 I22.345097 J15.826091
G02 X438.646805 Y-179.675153 Z-6.375000 I40.850694 J-9.007625
G02 X472.674352 Y-172.205481 Z-6.375000 I25.096223 J-33.084172
G02 X488.758138 Y-184.231074 Z-6.375000 I-5.239552 J-23.776239
G02 X491.501687 Y-203.225579 Z-6.375000 I-23.843236 J-13.139285
G01 X491.501687 Y-203.225579 Z-6.375000
G00 Z255.000000

(End cutting path id: path838)


(Start cutting path id: path838)
(Change tool to Cylindrical cutter)

G00 Z255.000000
G00 X470.735016 Y-202.167759

G01 Z-6.375000 F100.0(Penetrate)
G02 X465.920426 Y-196.477996 Z-6.375000 I9.274750 J12.730048 F200.000000
G02 X465.445918 Y-192.638103 Z-6.375000 I5.182623 J2.589698
G02 X469.171873 Y-186.538129 Z-6.375000 I10.735904 J-2.369729
G03 X470.308177 Y-184.676618 Z-6.375000 I-2.137040 J2.582058
G01 X469.287474 Y-183.127005 Z-6.375000
G03 X468.141414 Y-183.132644 Z-6.375000 I-0.560781 J-2.492359
G03 X463.172533 Y-185.298319 Z-6.375000 I3.470679 J-14.746140
G03 X457.813988 Y-190.951996 Z-6.375000 I9.366625 J-14.243921
G03 X451.638587 Y-206.760924 Z-6.375000 I47.267889 J-27.574738
G03 X452.298406 Y-218.704120 Z-6.375000 I21.698242 J-4.791074
G03 X457.994785 Y-223.797388 Z-6.375000 I7.363386 J2.503222
G03 X467.269505 Y-221.019172 Z-6.375000 I2.143051 J9.716041
G03 X472.683631 Y-210.964365 Z-6.375000 I-14.930209 J14.524396
G03 X472.812796 Y-205.665818 Z-6.375000 I-13.497062 J2.979871
G03 X470.735016 Y-202.167759 Z-6.375000 I-5.582844 J-0.949992
G01 X470.735016 Y-202.167759 Z-6.375000
G00 Z255.000000

(End cutting path id: path838)


(Start cutting path id: path836)
(Change tool to Cylindrical cutter)

G00 Z255.000000
G00 X403.377884 Y-202.399737

G01 Z-6.375000 F100.0(Penetrate)
G03 X405.512542 Y-209.044596 Z-6.375000 I9.053908 J-0.756745 F200.000000
G03 X410.049571 Y-211.381926 Z-6.375000 I5.111372 J4.349653
G03 X415.442793 Y-210.039656 Z-6.375000 I0.730765 J8.569879
G03 X420.562814 Y-206.436155 Z-6.375000 I-42.057570 J65.196469
G01 X424.775535 Y-203.986467 Z-6.375000
G01 X427.021082 Y-206.760924 Z-6.375000
G02 X426.484421 Y-208.542810 Z-6.375000 I-4.523066 J0.390481
G02 X424.320858 Y-211.715974 Z-6.375000 I-16.978709 J9.252443
G02 X412.573287 Y-222.340123 Z-6.375000 I-41.125499 J33.667234
G02 X391.528448 Y-227.731735 Z-6.375000 I-18.269846 J27.544378
G02 X377.368971 Y-219.398098 Z-6.375000 I1.597279 J18.909726
G02 X373.777491 Y-205.517522 Z-6.375000 I17.952696 J12.050026
G02 X378.625542 Y-186.057867 Z-6.375000 I62.796253 J-5.310913
G03 X382.416352 Y-170.850729 Z-6.375000 I-45.324684 J19.374512
G03 X380.225426 Y-167.204043 Z-6.375000 I-3.623847 J0.304293
G02 X377.906700 Y-163.343921 Z-6.375000 I1.516541 J3.537443
G02 X379.069026 Y-161.039813 Z-6.375000 I3.423028 J-0.281548
G02 X381.488440 Y-159.326062 Z-6.375000 I9.568872 J-10.944307
G03 X387.584856 Y-154.054358 Z-6.375000 I-10.441581 J18.236000
G03 X391.788263 Y-143.356697 Z-6.375000 I-15.792665 J12.380023
G03 X390.714059 Y-139.070642 Z-6.375000 I-6.807112 J0.571590
G03 X387.547705 Y-137.167524 Z-6.375000 I-3.529653 J-2.286933
G03 X379.201824 Y-140.349228 Z-6.375000 I-0.863235 J-10.272493
G03 X372.023738 Y-156.366023 Z-6.375000 I19.254094 J-18.245777
G03 X371.982302 Y-164.335224 Z-6.375000 I49.973484 J-4.244541
G02 X371.949505 Y-170.822892 Z-6.375000 I-40.790485 J-3.037708
G02 X368.755994 Y-177.948640 Z-6.375000 I-11.779021 J1.000462
G02 X362.382732 Y-180.380386 Z-6.375000 I-5.714187 J5.408494
G02 X357.975851 Y-178.511722 Z-6.375000 I0.652255 J7.668933
G02 X356.072930 Y-173.810769 Z-6.375000 I3.688317 J4.228634
G02 X357.355412 Y-169.875669 Z-6.375000 I8.990483 J-0.753538
G03 X358.123616 Y-167.510246 Z-6.375000 I-4.611533 J2.805112
G03 X357.288992 Y-165.370239 Z-6.375000 I-2.587133 J0.223752
G03 X354.588271 Y-164.188321 Z-6.375000 I-3.085417 J-3.373705
G03 X351.267856 Y-165.378148 Z-6.375000 I-0.352384 J-4.244620
G03 X348.696030 Y-170.813613 Z-6.375000 I5.981508 J-6.156361
G03 X357.252439 Y-185.531227 Z-6.375000 I14.785877 J-1.249940
G02 X367.170758 Y-202.585320 Z-6.375000 I-7.220676 J-15.610595
G02 X358.233317 Y-217.916406 Z-6.375000 I-20.581697 J1.727711
G02 X336.818756 Y-223.556131 Z-6.375000 I-18.642628 J27.311390
G02 X318.781023 Y-216.283540 Z-6.375000 I2.774634 J32.886946
G02 X313.036372 Y-202.780181 Z-6.375000 I9.901402 J12.185928
G02 X317.160649 Y-194.429897 Z-6.375000 I12.667087 J-1.062733
G02 X323.642406 Y-192.239101 Z-6.375000 I5.754068 J-6.340202
G02 X328.443453 Y-194.604921 Z-6.375000 I-0.605662 J-7.283476
G02 X330.694537 Y-201.249127 Z-6.375000 I-6.488807 J-5.901875
G03 X331.689400 Y-206.762705 Z-6.375000 I10.742703 J-0.908146
G03 X334.814467 Y-208.932238 Z-6.375000 I3.445840 J1.628010
G03 X337.383887 Y-207.890626 Z-6.375000 I0.258827 J3.051429
G03 X338.804488 Y-204.524656 Z-6.375000 I-4.427999 J3.851594
G03 X332.102381 Y-191.315016 Z-6.375000 I-14.039030 J1.182115
G02 X322.788727 Y-172.957090 Z-6.375000 I10.195910 J16.714305
G02 X330.854976 Y-159.591960 Z-6.375000 I17.556461 J-1.479166
G02 X352.955146 Y-154.129755 Z-6.375000 I19.114764 J-29.898723
G02 X357.343241 Y-154.813939 Z-6.375000 I-2.743910 J-32.012286
G02 X362.113638 Y-156.198999 Z-6.375000 I-9.391944 J-41.255127
G02 X374.600575 Y-130.579274 Z-6.375000 I39.327220 J-3.315007
G02 X395.954588 Y-123.221007 Z-6.375000 I19.004434 J-20.487423
G02 X410.860016 Y-131.096546 Z-6.375000 I-1.802244 J-21.453916
G02 X416.145953 Y-148.228235 Z-6.375000 I-18.607992 J-15.122772
G02 X415.480699 Y-152.919430 Z-6.375000 I-40.464838 J3.345518
G03 X414.744806 Y-158.036265 Z-6.375000 I44.936503 J-9.074009
G03 X415.652969 Y-160.612711 Z-6.375000 I3.323117 J-0.276926
G03 X420.794792 Y-163.074827 Z-6.375000 I5.809037 J5.531365
G01 X423.040339 Y-165.858563 Z-6.375000
G02 X421.863551 Y-168.462938 Z-6.375000 I-4.247472 J0.351169
G02 X418.669874 Y-170.238308 Z-6.375000 I-4.495829 J4.327251
G03 X413.227603 Y-172.883117 Z-6.375000 I2.227621 J-11.505550
G03 X409.400033 Y-178.524562 Z-6.375000 I8.639400 J-9.980777
G03 X405.820924 Y-189.720809 Z-6.375000 I393.119961 J-131.839011
G03 X403.387163 Y-202.409017 Z-6.375000 I58.568976 J-17.811797
G01 X403.377884 Y-202.409017 Z-6.375000
G01 X403.377884 Y-202.399737 Z-6.375000
G00 Z255.000000

(End cutting path id: path836)


(Start cutting path id: path834)
(Change tool to Cylindrical cutter)

G00 Z255.000000
G00 X300.296140 Y-196.990011

G01 Z-6.375000 F100.0(Penetrate)
G03 X302.703888 Y-203.746626 Z-6.375000 I12.838535 J0.767753 F200.000000
G03 X306.318289 Y-205.461847 Z-6.375000 I3.366673 J2.428588
G03 X309.961907 Y-203.978925 Z-6.375000 I-0.370927 J6.129132
G03 X313.249792 Y-200.525355 Z-6.375000 I-16.032889 J18.555567
G01 X316.339739 Y-198.187017 Z-6.375000
G01 X319.169870 Y-201.035707 Z-6.375000
G02 X318.623777 Y-204.064652 Z-6.375000 I-6.533208 J-0.385819
G02 X316.543879 Y-208.087838 Z-6.375000 I-33.760577 J14.904248
G02 X309.317453 Y-216.754187 Z-6.375000 I-31.832491 J19.197441
G02 X292.371772 Y-223.750993 Z-6.375000 I-18.626223 J21.092246
G02 X282.117246 Y-220.746828 Z-6.375000 I-0.938394 J15.800522
G02 X276.949874 Y-213.896567 Z-6.375000 I8.678555 J11.920600
G02 X267.071171 Y-222.215654 Z-6.375000 I-26.837548 J21.844004
G02 X254.086123 Y-226.033656 Z-6.375000 I-14.786798 J26.299877
G02 X239.183729 Y-220.328175 Z-6.375000 I-1.148150 J19.315940
G02 X231.185254 Y-202.409017 Z-6.375000 I19.781033 J19.574246
G02 X240.751838 Y-170.437379 Z-6.375000 I48.529115 J2.896152
G02 X265.573673 Y-157.052678 Z-6.375000 I26.806486 J-20.004131
G02 X275.987584 Y-158.413321 Z-6.375000 I1.669275 J-27.756553
G02 X279.056234 Y-159.910647 Z-6.375000 I-4.017252 J-12.126180
G02 X283.196203 Y-134.033384 Z-6.375000 I637.168046 J-88.667398
G02 X288.734357 Y-108.485764 Z-6.375000 I373.260061 J-67.540365
G02 X253.265766 Y-95.677524 Z-6.375000 I174.496506 J538.729836
G03 X222.741255 Y-84.706859 Z-6.375000 I-172.751072 J-432.707724
G03 X191.758740 Y-77.195996 Z-6.375000 I-67.286620 J-209.901856
G03 X153.602532 Y-75.173723 Z-6.375000 I-28.027585 J-167.847505
G03 X129.145385 Y-88.190843 Z-6.375000 I1.975809 J-33.196388
G03 X123.361880 Y-107.140292 Z-6.375000 I22.604032 J-17.256217
G03 X126.878699 Y-118.591847 Z-6.375000 I25.301549 J1.504417
G02 X127.843695 Y-121.736347 Z-6.375000 I-5.976582 J-3.554436
G01 X125.941475 Y-124.863411 Z-6.375000
G02 X112.555155 Y-120.634204 Z-6.375000 I-1.161406 J19.623756
G02 X92.369619 Y-81.836131 Z-6.375000 I33.355680 J42.004031
G02 X105.954434 Y-43.019722 Z-6.375000 I53.173995 J3.175758
G02 X145.594651 Y-23.934423 Z-6.375000 I43.092832 J-38.794858
G02 X181.813863 Y-29.461501 Z-6.375000 I5.208029 J-87.308188
G02 X221.098851 Y-47.764363 Z-6.375000 I-104.554918 J-275.726896
G02 X259.604781 Y-70.577126 Z-6.375000 I-431.507505 J-772.250254
G03 X293.012031 Y-87.969630 Z-6.375000 I124.984821 J199.288581
G02 X304.782313 Y-52.340050 Z-6.375000 I196.761213 J-45.241392
G02 X317.761764 Y-30.971475 Z-6.375000 I85.911892 J-37.557399
G02 X336.137113 Y-15.468938 Z-6.375000 I49.399927 J-39.912812
G02 X355.887348 Y-9.681694 Z-6.375000 I22.498403 J-40.186103
G02 X373.409805 Y-12.021586 Z-6.375000 I2.748973 J-46.193179
G02 X385.513258 Y-19.280944 Z-6.375000 I-10.544758 J-31.300829
G02 X393.680477 Y-30.999346 Z-6.375000 I-23.878871 J-25.347837
G02 X397.754737 Y-48.338508 Z-6.375000 I-48.064518 J-20.442191
G02 X392.792158 Y-77.584332 Z-6.375000 I-65.630482 J-3.907438
G02 X379.578101 Y-96.391591 Z-6.375000 I-49.292536 J20.587382
G02 X358.945027 Y-109.062317 Z-6.375000 I-43.122650 J47.086279
G02 X333.793763 Y-114.415122 Z-6.375000 I-30.253397 J80.386242
G02 X324.155897 Y-114.181780 Z-6.375000 I-3.413894 J58.149986
G02 X313.528165 Y-112.605693 Z-6.375000 I14.291861 J132.991670
G03 X310.662508 Y-124.440283 Z-6.375000 I260.114689 J-69.249076
G03 X305.078367 Y-152.723969 Z-6.375000 I703.386860 J-153.565069
G03 X300.827910 Y-180.844187 Z-6.375000 I562.745045 J-99.441977
G03 X300.296140 Y-196.990011 Z-6.375000 I87.036759 J-10.948261
G01 X300.296140 Y-196.990011 Z-6.375000
G00 Z255.000000

(End cutting path id: path834)


(Start cutting path id: path834)
(Change tool to Cylindrical cutter)

G00 Z255.000000
G00 X270.834934 Y-168.586624

G01 Z-6.375000 F100.0(Penetrate)
G03 X267.038631 Y-170.808720 Z-6.375000 I0.286095 J-4.842688 F200.000000
G03 X262.554479 Y-180.443020 Z-6.375000 I33.207222 J-21.316536
G03 X260.152059 Y-191.351287 Z-6.375000 I63.749142 J-19.758700
G03 X259.737107 Y-202.640995 Z-6.375000 I58.251806 J-7.793522
G03 X261.634081 Y-208.682646 Z-6.375000 I13.049464 J0.778672
G03 X264.757111 Y-210.314827 Z-6.375000 I2.921908 J1.786897
G03 X268.442149 Y-207.825716 Z-6.375000 I-0.262245 J4.360582
G03 X272.406585 Y-196.230283 Z-6.375000 I-48.974675 J23.219693
G03 X274.349991 Y-183.378968 Z-6.375000 I-96.153074 J21.113091
G03 X274.481628 Y-172.465296 Z-6.375000 I-75.633178 J6.369897
G03 X273.265797 Y-169.584158 Z-6.375000 I-4.703137 J-0.287602
G03 X270.825655 Y-168.586624 Z-6.375000 I-2.265508 J-2.058554
G01 X270.834934 Y-168.586624 Z-6.375000
G00 Z255.000000

(End cutting path id: path834)


(Start cutting path id: path832)
(Change tool to Cylindrical cutter)

G00 Z255.000000
G00 X212.534223 Y-231.461941

G01 Z-6.375000 F100.0(Penetrate)
G02 X196.387554 Y-225.068538 Z-6.375000 I-2.952901 J16.128462 F200.000000
G02 X195.210106 Y-223.259199 Z-6.375000 I14.786629 J10.910354
G03 X194.690650 Y-224.145225 Z-6.375000 I34.021447 J-20.541251
G02 X174.619739 Y-238.393444 Z-6.375000 I-25.321799 J14.409167
G02 X159.713048 Y-235.248048 Z-6.375000 I-3.615547 J19.760833
G02 X148.239201 Y-217.636053 Z-6.375000 I15.295686 J22.508303
G02 X151.733586 Y-189.238104 Z-6.375000 I47.167079 J8.610029
G02 X178.424178 Y-168.391763 Z-6.375000 I33.254403 J-15.067434
G02 X191.760577 Y-169.148038 Z-6.375000 I5.105459 J-27.936022
G03 X195.785412 Y-169.375349 Z-6.375000 I2.481656 J8.194783
G03 X204.449090 Y-165.627069 Z-6.375000 I-3.766342 J20.592068
G02 X212.422874 Y-162.184031 Z-6.375000 I11.401462 J-15.449998
G02 X214.333069 Y-162.587239 Z-6.375000 I0.462357 J-2.535959
G02 X215.800473 Y-164.847139 Z-6.375000 I-1.950090 J-2.872598
G02 X215.899110 Y-174.084256 Z-6.375000 I-26.833763 J-4.905614
G03 X216.218034 Y-204.125654 Z-6.375000 I87.622488 J-14.092213
G03 X219.943082 Y-210.529205 Z-6.375000 I10.724049 J1.953115
G03 X224.151681 Y-211.641741 Z-6.375000 I3.289648 J3.927773
G03 X227.585706 Y-209.735269 Z-6.375000 I-1.089132 J6.007791
G03 X230.433646 Y-205.897966 Z-6.375000 I-18.080788 J16.394539
G01 X233.226661 Y-203.197742 Z-6.375000
G01 X236.381562 Y-205.684546 Z-6.375000
G02 X236.203564 Y-208.762133 Z-6.375000 I-6.403639 J-1.173575
G02 X234.627808 Y-212.996493 Z-6.375000 I-36.354618 J11.118471
G02 X228.502705 Y-222.477668 Z-6.375000 I-33.815651 J15.126770
G02 X212.524944 Y-231.461941 Z-6.375000 I-21.017068 J18.677380
G01 X212.534223 Y-231.461941 Z-6.375000
G00 Z255.000000

(End cutting path id: path832)


(Start cutting path id: path832)
(Change tool to Cylindrical cutter)

G00 Z255.000000
G00 X183.546252 Y-179.480311

G01 Z-6.375000 F100.0(Penetrate)
G03 X180.046575 Y-182.147029 Z-6.375000 I0.872614 J-4.774944 F200.000000
G03 X176.762056 Y-192.253020 Z-6.375000 I35.545461 J-17.139272
G03 X175.697872 Y-203.371337 Z-6.375000 I65.679807 J-11.896595
G03 X176.651866 Y-214.629618 Z-6.375000 I58.814235 J-0.685812
G03 X179.260700 Y-220.397130 Z-6.375000 I12.832406 J2.330729
G03 X182.562666 Y-221.635353 Z-6.375000 I2.678881 J2.121981
G03 X185.921735 Y-218.718296 Z-6.375000 I-0.786482 J4.298213
G03 X188.456067 Y-206.728447 Z-6.375000 I-51.421550 J17.131900
G03 X188.832856 Y-193.734609 Z-6.375000 I-98.070018 J9.346173
G03 X187.647623 Y-182.885748 Z-6.375000 I-76.030078 J-2.817076
G03 X186.094543 Y-180.171202 Z-6.375000 I-4.623517 J-0.843707
G03 X183.555531 Y-179.480311 Z-6.375000 I-1.991511 J-2.307915
G01 X183.555531 Y-179.480311 Z-6.375000
G01 X183.546252 Y-179.480311 Z-6.375000
G00 Z255.000000

(End cutting path id: path832)


(Start cutting path id: path830)
(Change tool to Cylindrical cutter)

G00 Z255.000000
G00 X139.674573 Y-202.436854

G01 Z-6.375000 F100.0(Penetrate)
G02 X142.306598 Y-220.128940 Z-6.375000 I-62.096597 J-18.279842 F200.000000
G02 X139.628177 Y-234.623801 Z-6.375000 I-38.660495 J-0.351049
G02 X131.694083 Y-246.157763 Z-6.375000 I-28.818089 J11.327798
G02 X116.309749 Y-254.826765 Z-6.375000 I-26.451518 J28.956539
G02 X94.445122 Y-253.019275 Z-6.375000 I-8.595985 J29.165552
G02 X80.121181 Y-236.110780 Z-6.375000 I11.954644 J24.648787
G02 X82.025906 Y-207.290577 Z-6.375000 I40.149334 J11.819577
G02 X108.218356 Y-184.342570 Z-6.375000 I37.915573 J-16.854362
G02 X128.105628 Y-187.115379 Z-6.375000 I6.881485 J-23.348908
G02 X139.674573 Y-202.436854 Z-6.375000 I-14.544850 J-23.011010
G01 X139.674573 Y-202.436854 Z-6.375000
G00 Z255.000000

(End cutting path id: path830)


(Start cutting path id: path830)
(Change tool to Cylindrical cutter)

G00 Z255.000000
G00 X120.977146 Y-211.530392

G01 Z-6.375000 F100.0(Penetrate)
G02 X114.013786 Y-208.862830 Z-6.375000 I2.005665 J15.657858 F200.000000
G02 X111.744422 Y-205.730942 Z-6.375000 I3.299659 J4.779064
G02 X112.066080 Y-198.592060 Z-6.375000 I10.502483 J3.103474
G03 X112.171261 Y-196.414705 Z-6.375000 I-3.135084 J1.242664
G01 X110.528857 Y-195.551747 Z-6.375000
G03 X109.526301 Y-196.111170 Z-6.375000 I0.717170 J-2.463324
G03 X106.223345 Y-200.404727 Z-6.375000 I10.115734 J-11.199081
G03 X104.253455 Y-207.940099 Z-6.375000 I15.019697 J-7.951604
G03 X106.473882 Y-224.771696 Z-6.375000 I54.739120 J-1.341067
G03 X112.813735 Y-234.910330 Z-6.375000 I21.347791 J6.297598
G03 X120.262654 Y-236.630411 Z-6.375000 I5.250999 J5.750733
G03 X127.042159 Y-229.724867 Z-6.375000 I-2.812645 J9.541964
G03 X126.934341 Y-218.294870 Z-6.375000 I-20.104871 J5.525861
G03 X124.494346 Y-213.593141 Z-6.375000 I-13.244152 J-3.889156
G03 X120.986425 Y-211.530392 Z-6.375000 I-4.433300 J-3.525122
G01 X120.977146 Y-211.530392 Z-6.375000
G00 Z255.000000

(End cutting path id: path830)


(Start cutting path id: path828)
(Change tool to Cylindrical cutter)

G00 Z255.000000
G00 X57.953363 Y-220.345556

G01 Z-6.375000 F100.0(Penetrate)
G03 X59.562294 Y-231.990305 Z-6.375000 I410.864716 J50.834790 F200.000000
G03 X62.843459 Y-244.480547 Z-6.375000 I60.674109 J9.262888
G03 X67.639238 Y-249.553573 Z-6.375000 I8.471969 J3.205610
G03 X72.744280 Y-249.695412 Z-6.375000 I2.724991 J6.136572
G03 X77.034463 Y-246.147571 Z-6.375000 I-3.057766 J8.065411
G03 X80.093343 Y-240.694666 Z-6.375000 I-66.570746 J40.928162
G01 X82.830684 Y-236.667528 Z-6.375000
G01 X86.050538 Y-238.207862 Z-6.375000
G02 X86.335762 Y-240.037337 Z-6.375000 I-4.239330 J-1.597901
G02 X85.753607 Y-243.840287 Z-6.375000 I-19.097817 J0.977456
G02 X79.747490 Y-258.491272 Z-6.375000 I-51.609208 J12.600417
G02 X63.093996 Y-272.447814 Z-6.375000 I-28.395451 J16.968496
G02 X46.721415 Y-271.042164 Z-6.375000 I-6.722936 J17.747522
G02 X37.483624 Y-260.078747 Z-6.375000 I11.015847 J18.655565
G02 X33.550755 Y-240.388348 Z-6.375000 I57.035897 J21.630056
G03 X30.477889 Y-225.012953 Z-6.375000 I-47.575917 J-1.513577
G01 X23.926830 Y-222.201380 Z-6.375000
G02 X22.969679 Y-218.048241 Z-6.375000 I14.834688 J5.605735
G02 X24.734113 Y-215.223481 Z-6.375000 I2.739879 J0.252025
G03 X35.727301 Y-205.252998 Z-6.375000 I-7.213747 J18.999324
G03 X42.067510 Y-187.033515 Z-6.375000 I-69.047814 J34.240895
G02 X44.099952 Y-181.999410 Z-6.375000 I15.495126 J-3.328583
G02 X45.890507 Y-180.519573 Z-6.375000 I3.096468 J-1.923449
G02 X48.372824 Y-180.729428 Z-6.375000 I1.023006 J-2.685389
G02 X50.279531 Y-182.997098 Z-6.375000 I-2.262215 J-3.837556
G02 X52.231349 Y-192.382971 Z-6.375000 I-28.547044 J-10.832317
G03 X53.740643 Y-199.625281 Z-6.375000 I23.472357 J1.113203
G03 X55.717374 Y-201.582389 Z-6.375000 I3.134870 J1.189472
G03 X60.764936 Y-201.555338 Z-6.375000 I2.487632 J6.758721
G01 X64.086861 Y-202.826577 Z-6.375000
G02 X64.543497 Y-208.951011 Z-6.375000 I-10.122643 J-3.833980
G02 X62.592923 Y-211.214901 Z-6.375000 I-3.057291 J0.661915
G03 X58.906793 Y-214.600792 Z-6.375000 I2.383338 J-6.294119
G03 X57.934805 Y-220.345556 Z-6.375000 I9.532185 J-4.567413
G01 X57.953363 Y-220.345556 Z-6.375000
G00 Z255.000000

(End cutting path id: path828)


(Start cutting path id: path834)
(Change tool to Cylindrical cutter)

G00 Z255.000000
G00 X317.861514 Y-95.977510

G01 Z-6.375000 F100.0(Penetrate)
G03 X326.616563 Y-96.791584 Z-6.375000 I10.916602 J69.918235 F200.000000
G03 X335.213469 Y-96.664165 Z-6.375000 I2.895215 J94.739852
G03 X351.553344 Y-92.657927 Z-6.375000 I-2.782330 J46.673131
G03 X360.640577 Y-86.074369 Z-6.375000 I-11.237948 J25.074949
G03 X366.337602 Y-76.155517 Z-6.375000 I-19.663777 J17.889660
G03 X367.736784 Y-64.781109 Z-6.375000 I-30.181471 J9.485927
G03 X362.512089 Y-53.686720 Z-6.375000 I-16.484737 J-0.985748
G03 X352.203537 Y-49.980912 Z-6.375000 I-9.474360 J-10.164399
G03 X342.382160 Y-52.981871 Z-6.375000 I1.302041 J-21.833170
G03 X332.439012 Y-61.823389 Z-6.375000 I17.613148 J-29.819478
G03 X325.396861 Y-73.883089 Z-6.375000 I45.596860 J-34.711816
G03 X317.852235 Y-95.977510 Z-6.375000 I138.821771 J-59.739095
G01 X317.852235 Y-95.977510 Z-6.375000
G01 X317.861514 Y-95.977510 Z-6.375000
G00 Z255.000000

(End cutting path id: path834)


(Footer)
M5
G00 X0.0000 Y0.0000
M2
(Using default footer. To add your own footer create file "footer" in the output dir.)
(end)
%