%
(Header)
(Generated by gcodetools from Inkscape.)
(Using default header. To add your own header create file "header" in the output dir.)
M3
(Header end.)
G21 (All units in mm)

(Start cutting path id: path842-7)
(Change tool to Cylindrical cutter)

G00 Z5.000000
G00 X51.722107 Y156.700180

G01 Z-0.300000 F50.0(Penetrate)
G03 X55.395120 Y156.083488 Z-0.300000 I3.144102 J7.479687 F200.000000
G03 X58.669847 Y156.700180 Z-0.300000 I-0.900525 J13.784917
G02 X61.330145 Y157.418056 Z-0.300000 I17.511854 J-59.607080
G02 X62.787457 Y157.303330 Z-0.300000 I0.555531 J-2.256492
G02 X64.188284 Y155.719701 Z-0.300000 I-0.931342 J-2.235212
G02 X64.051737 Y153.568480 Z-0.300000 I-3.149781 J-0.880015
G02 X62.252192 Y151.066054 Z-0.300000 I-6.368544 J2.681492
G02 X58.832237 Y148.476560 Z-0.300000 I-19.090637 J21.659951
G02 X45.749736 Y143.015128 Z-0.300000 I-21.300024 J32.622957
G02 X28.396717 Y144.625730 Z-0.300000 I-6.119118 J28.359263
G02 X14.143574 Y159.485790 Z-0.300000 I10.005660 J23.862545
G02 X14.524437 Y177.844975 Z-0.300000 I23.436561 J8.697349
G02 X23.732024 Y193.754280 Z-0.300000 I66.695629 J-27.981296
G02 X39.898478 Y214.723678 Z-0.300000 I2234.499814 J-1705.981534
G03 X55.378575 Y236.022735 Z-0.300000 I-314.839117 J245.099188
G03 X70.257147 Y263.502855 Z-0.300000 I-130.553836 J88.453727
G03 X71.508006 Y274.226346 Z-0.300000 I-17.923735 J7.525442
G03 X67.914167 Y278.767005 Z-0.300000 I-5.910983 J-0.985868
G02 X66.120571 Y280.525305 Z-0.300000 I1.305362 J3.125516
G02 X66.093147 Y283.023793 Z-0.300000 I2.904152 J1.281271
G02 X68.926197 Y285.931745 Z-0.300000 I5.101414 J-2.136000
G02 X77.622451 Y288.353492 Z-0.300000 I12.305014 J-27.361524
G02 X86.769338 Y288.434040 Z-0.300000 I4.932259 J-40.706172
G02 X96.876627 Y285.853933 Z-0.300000 I-3.660948 J-35.428533
G02 X108.154928 Y274.989473 Z-0.300000 I-8.367767 J-19.972689
G02 X108.463927 Y258.260145 Z-0.300000 I-18.797271 J-8.714712
G02 X99.562754 Y242.302975 Z-0.300000 I-75.504045 J31.656207
G02 X80.162612 Y215.610994 Z-0.300000 I-1709.558334 J1222.137144
G03 X60.971746 Y188.945395 Z-0.300000 I1054.268727 J-778.981221
G03 X50.921787 Y170.734850 Z-0.300000 I79.744106 J-55.887280
G03 X49.482677 Y159.608649 Z-0.300000 I19.491351 J-8.177265
G03 X51.733707 Y156.700180 Z-0.300000 I3.673137 J0.517516
G01 X51.733707 Y156.700180 Z-0.300000
G01 X51.722107 Y156.700180 Z-0.300000
G00 Z5.000000

(End cutting path id: path842-7)


(Start cutting path id: path842-7)
(Change tool to Cylindrical cutter)

G00 Z5.000000
G00 X51.722107 Y156.700180

G01 Z-0.600000 F50.0(Penetrate)
G03 X55.395120 Y156.083488 Z-0.600000 I3.144102 J7.479687 F200.000000
G03 X58.669847 Y156.700180 Z-0.600000 I-0.900525 J13.784917
G02 X61.330145 Y157.418056 Z-0.600000 I17.511854 J-59.607080
G02 X62.787457 Y157.303330 Z-0.600000 I0.555531 J-2.256492
G02 X64.188284 Y155.719701 Z-0.600000 I-0.931342 J-2.235212
G02 X64.051737 Y153.568480 Z-0.600000 I-3.149781 J-0.880015
G02 X62.252192 Y151.066054 Z-0.600000 I-6.368544 J2.681492
G02 X58.832237 Y148.476560 Z-0.600000 I-19.090637 J21.659951
G02 X45.749736 Y143.015128 Z-0.600000 I-21.300024 J32.622957
G02 X28.396717 Y144.625730 Z-0.600000 I-6.119118 J28.359263
G02 X14.143574 Y159.485790 Z-0.600000 I10.005660 J23.862545
G02 X14.524437 Y177.844975 Z-0.600000 I23.436561 J8.697349
G02 X23.732024 Y193.754280 Z-0.600000 I66.695629 J-27.981296
G02 X39.898478 Y214.723678 Z-0.600000 I2234.499814 J-1705.981534
G03 X55.378575 Y236.022735 Z-0.600000 I-314.839117 J245.099188
G03 X70.257147 Y263.502855 Z-0.600000 I-130.553836 J88.453727
G03 X71.508006 Y274.226346 Z-0.600000 I-17.923735 J7.525442
G03 X67.914167 Y278.767005 Z-0.600000 I-5.910983 J-0.985868
G02 X66.120571 Y280.525305 Z-0.600000 I1.305362 J3.125516
G02 X66.093147 Y283.023793 Z-0.600000 I2.904152 J1.281271
G02 X68.926197 Y285.931745 Z-0.600000 I5.101414 J-2.136000
G02 X77.622451 Y288.353492 Z-0.600000 I12.305014 J-27.361524
G02 X86.769338 Y288.434040 Z-0.600000 I4.932259 J-40.706172
G02 X96.876627 Y285.853933 Z-0.600000 I-3.660948 J-35.428533
G02 X108.154928 Y274.989473 Z-0.600000 I-8.367767 J-19.972689
G02 X108.463927 Y258.260145 Z-0.600000 I-18.797271 J-8.714712
G02 X99.562754 Y242.302975 Z-0.600000 I-75.504045 J31.656207
G02 X80.162612 Y215.610994 Z-0.600000 I-1709.558334 J1222.137144
G03 X60.971746 Y188.945395 Z-0.600000 I1054.268727 J-778.981221
G03 X50.921787 Y170.734850 Z-0.600000 I79.744106 J-55.887280
G03 X49.482677 Y159.608649 Z-0.600000 I19.491351 J-8.177265
G03 X51.733707 Y156.700180 Z-0.600000 I3.673137 J0.517516
G01 X51.733707 Y156.700180 Z-0.600000
G01 X51.722107 Y156.700180 Z-0.600000
G00 Z5.000000

(End cutting path id: path842-7)


(Start cutting path id: path842-7)
(Change tool to Cylindrical cutter)

G00 Z5.000000
G00 X51.722107 Y156.700180

G01 Z-0.900000 F50.0(Penetrate)
G03 X55.395120 Y156.083488 Z-0.900000 I3.144102 J7.479687 F200.000000
G03 X58.669847 Y156.700180 Z-0.900000 I-0.900525 J13.784917
G02 X61.330145 Y157.418056 Z-0.900000 I17.511854 J-59.607080
G02 X62.787457 Y157.303330 Z-0.900000 I0.555531 J-2.256492
G02 X64.188284 Y155.719701 Z-0.900000 I-0.931342 J-2.235212
G02 X64.051737 Y153.568480 Z-0.900000 I-3.149781 J-0.880015
G02 X62.252192 Y151.066054 Z-0.900000 I-6.368544 J2.681492
G02 X58.832237 Y148.476560 Z-0.900000 I-19.090637 J21.659951
G02 X45.749736 Y143.015128 Z-0.900000 I-21.300024 J32.622957
G02 X28.396717 Y144.625730 Z-0.900000 I-6.119118 J28.359263
G02 X14.143574 Y159.485790 Z-0.900000 I10.005660 J23.862545
G02 X14.524437 Y177.844975 Z-0.900000 I23.436561 J8.697349
G02 X23.732024 Y193.754280 Z-0.900000 I66.695629 J-27.981296
G02 X39.898478 Y214.723678 Z-0.900000 I2234.499814 J-1705.981534
G03 X55.378575 Y236.022735 Z-0.900000 I-314.839117 J245.099188
G03 X70.257147 Y263.502855 Z-0.900000 I-130.553836 J88.453727
G03 X71.508006 Y274.226346 Z-0.900000 I-17.923735 J7.525442
G03 X67.914167 Y278.767005 Z-0.900000 I-5.910983 J-0.985868
G02 X66.120571 Y280.525305 Z-0.900000 I1.305362 J3.125516
G02 X66.093147 Y283.023793 Z-0.900000 I2.904152 J1.281271
G02 X68.926197 Y285.931745 Z-0.900000 I5.101414 J-2.136000
G02 X77.622451 Y288.353492 Z-0.900000 I12.305014 J-27.361524
G02 X86.769338 Y288.434040 Z-0.900000 I4.932259 J-40.706172
G02 X96.876627 Y285.853933 Z-0.900000 I-3.660948 J-35.428533
G02 X108.154928 Y274.989473 Z-0.900000 I-8.367767 J-19.972689
G02 X108.463927 Y258.260145 Z-0.900000 I-18.797271 J-8.714712
G02 X99.562754 Y242.302975 Z-0.900000 I-75.504045 J31.656207
G02 X80.162612 Y215.610994 Z-0.900000 I-1709.558334 J1222.137144
G03 X60.971746 Y188.945395 Z-0.900000 I1054.268727 J-778.981221
G03 X50.921787 Y170.734850 Z-0.900000 I79.744106 J-55.887280
G03 X49.482677 Y159.608649 Z-0.900000 I19.491351 J-8.177265
G03 X51.733707 Y156.700180 Z-0.900000 I3.673137 J0.517516
G01 X51.733707 Y156.700180 Z-0.900000
G01 X51.722107 Y156.700180 Z-0.900000
G00 Z5.000000

(End cutting path id: path842-7)


(Start cutting path id: path842-7)
(Change tool to Cylindrical cutter)

G00 Z5.000000
G00 X51.722107 Y156.700180

G01 Z-1.200000 F50.0(Penetrate)
G03 X55.395120 Y156.083488 Z-1.200000 I3.144102 J7.479687 F200.000000
G03 X58.669847 Y156.700180 Z-1.200000 I-0.900525 J13.784917
G02 X61.330145 Y157.418056 Z-1.200000 I17.511854 J-59.607080
G02 X62.787457 Y157.303330 Z-1.200000 I0.555531 J-2.256492
G02 X64.188284 Y155.719701 Z-1.200000 I-0.931342 J-2.235212
G02 X64.051737 Y153.568480 Z-1.200000 I-3.149781 J-0.880015
G02 X62.252192 Y151.066054 Z-1.200000 I-6.368544 J2.681492
G02 X58.832237 Y148.476560 Z-1.200000 I-19.090637 J21.659951
G02 X45.749736 Y143.015128 Z-1.200000 I-21.300024 J32.622957
G02 X28.396717 Y144.625730 Z-1.200000 I-6.119118 J28.359263
G02 X14.143574 Y159.485790 Z-1.200000 I10.005660 J23.862545
G02 X14.524437 Y177.844975 Z-1.200000 I23.436561 J8.697349
G02 X23.732024 Y193.754280 Z-1.200000 I66.695629 J-27.981296
G02 X39.898478 Y214.723678 Z-1.200000 I2234.499814 J-1705.981534
G03 X55.378575 Y236.022735 Z-1.200000 I-314.839117 J245.099188
G03 X70.257147 Y263.502855 Z-1.200000 I-130.553836 J88.453727
G03 X71.508006 Y274.226346 Z-1.200000 I-17.923735 J7.525442
G03 X67.914167 Y278.767005 Z-1.200000 I-5.910983 J-0.985868
G02 X66.120571 Y280.525305 Z-1.200000 I1.305362 J3.125516
G02 X66.093147 Y283.023793 Z-1.200000 I2.904152 J1.281271
G02 X68.926197 Y285.931745 Z-1.200000 I5.101414 J-2.136000
G02 X77.622451 Y288.353492 Z-1.200000 I12.305014 J-27.361524
G02 X86.769338 Y288.434040 Z-1.200000 I4.932259 J-40.706172
G02 X96.876627 Y285.853933 Z-1.200000 I-3.660948 J-35.428533
G02 X108.154928 Y274.989473 Z-1.200000 I-8.367767 J-19.972689
G02 X108.463927 Y258.260145 Z-1.200000 I-18.797271 J-8.714712
G02 X99.562754 Y242.302975 Z-1.200000 I-75.504045 J31.656207
G02 X80.162612 Y215.610994 Z-1.200000 I-1709.558334 J1222.137144
G03 X60.971746 Y188.945395 Z-1.200000 I1054.268727 J-778.981221
G03 X50.921787 Y170.734850 Z-1.200000 I79.744106 J-55.887280
G03 X49.482677 Y159.608649 Z-1.200000 I19.491351 J-8.177265
G03 X51.733707 Y156.700180 Z-1.200000 I3.673137 J0.517516
G01 X51.733707 Y156.700180 Z-1.200000
G01 X51.722107 Y156.700180 Z-1.200000
G00 Z5.000000

(End cutting path id: path842-7)


(Start cutting path id: path842-7)
(Change tool to Cylindrical cutter)

G00 Z5.000000
G00 X51.722107 Y156.700180

G01 Z-1.500000 F50.0(Penetrate)
G03 X55.395120 Y156.083488 Z-1.500000 I3.144102 J7.479687 F200.000000
G03 X58.669847 Y156.700180 Z-1.500000 I-0.900525 J13.784917
G02 X61.330145 Y157.418056 Z-1.500000 I17.511854 J-59.607080
G02 X62.787457 Y157.303330 Z-1.500000 I0.555531 J-2.256492
G02 X64.188284 Y155.719701 Z-1.500000 I-0.931342 J-2.235212
G02 X64.051737 Y153.568480 Z-1.500000 I-3.149781 J-0.880015
G02 X62.252192 Y151.066054 Z-1.500000 I-6.368544 J2.681492
G02 X58.832237 Y148.476560 Z-1.500000 I-19.090637 J21.659951
G02 X45.749736 Y143.015128 Z-1.500000 I-21.300024 J32.622957
G02 X28.396717 Y144.625730 Z-1.500000 I-6.119118 J28.359263
G02 X14.143574 Y159.485790 Z-1.500000 I10.005660 J23.862545
G02 X14.524437 Y177.844975 Z-1.500000 I23.436561 J8.697349
G02 X23.732024 Y193.754280 Z-1.500000 I66.695629 J-27.981296
G02 X39.898478 Y214.723678 Z-1.500000 I2234.499814 J-1705.981534
G03 X55.378575 Y236.022735 Z-1.500000 I-314.839117 J245.099188
G03 X70.257147 Y263.502855 Z-1.500000 I-130.553836 J88.453727
G03 X71.508006 Y274.226346 Z-1.500000 I-17.923735 J7.525442
G03 X67.914167 Y278.767005 Z-1.500000 I-5.910983 J-0.985868
G02 X66.120571 Y280.525305 Z-1.500000 I1.305362 J3.125516
G02 X66.093147 Y283.023793 Z-1.500000 I2.904152 J1.281271
G02 X68.926197 Y285.931745 Z-1.500000 I5.101414 J-2.136000
G02 X77.622451 Y288.353492 Z-1.500000 I12.305014 J-27.361524
G02 X86.769338 Y288.434040 Z-1.500000 I4.932259 J-40.706172
G02 X96.876627 Y285.853933 Z-1.500000 I-3.660948 J-35.428533
G02 X108.154928 Y274.989473 Z-1.500000 I-8.367767 J-19.972689
G02 X108.463927 Y258.260145 Z-1.500000 I-18.797271 J-8.714712
G02 X99.562754 Y242.302975 Z-1.500000 I-75.504045 J31.656207
G02 X80.162612 Y215.610994 Z-1.500000 I-1709.558334 J1222.137144
G03 X60.971746 Y188.945395 Z-1.500000 I1054.268727 J-778.981221
G03 X50.921787 Y170.734850 Z-1.500000 I79.744106 J-55.887280
G03 X49.482677 Y159.608649 Z-1.500000 I19.491351 J-8.177265
G03 X51.733707 Y156.700180 Z-1.500000 I3.673137 J0.517516
G01 X51.733707 Y156.700180 Z-1.500000
G01 X51.722107 Y156.700180 Z-1.500000
G00 Z5.000000

(End cutting path id: path842-7)


(Start cutting path id: path842-7)
(Change tool to Cylindrical cutter)

G00 Z5.000000
G00 X51.722107 Y156.700180

G01 Z-1.800000 F50.0(Penetrate)
G03 X55.395120 Y156.083488 Z-1.800000 I3.144102 J7.479687 F200.000000
G03 X58.669847 Y156.700180 Z-1.800000 I-0.900525 J13.784917
G02 X61.330145 Y157.418056 Z-1.800000 I17.511854 J-59.607080
G02 X62.787457 Y157.303330 Z-1.800000 I0.555531 J-2.256492
G02 X64.188284 Y155.719701 Z-1.800000 I-0.931342 J-2.235212
G02 X64.051737 Y153.568480 Z-1.800000 I-3.149781 J-0.880015
G02 X62.252192 Y151.066054 Z-1.800000 I-6.368544 J2.681492
G02 X58.832237 Y148.476560 Z-1.800000 I-19.090637 J21.659951
G02 X45.749736 Y143.015128 Z-1.800000 I-21.300024 J32.622957
G02 X28.396717 Y144.625730 Z-1.800000 I-6.119118 J28.359263
G02 X14.143574 Y159.485790 Z-1.800000 I10.005660 J23.862545
G02 X14.524437 Y177.844975 Z-1.800000 I23.436561 J8.697349
G02 X23.732024 Y193.754280 Z-1.800000 I66.695629 J-27.981296
G02 X39.898478 Y214.723678 Z-1.800000 I2234.499814 J-1705.981534
G03 X55.378575 Y236.022735 Z-1.800000 I-314.839117 J245.099188
G03 X70.257147 Y263.502855 Z-1.800000 I-130.553836 J88.453727
G03 X71.508006 Y274.226346 Z-1.800000 I-17.923735 J7.525442
G03 X67.914167 Y278.767005 Z-1.800000 I-5.910983 J-0.985868
G02 X66.120571 Y280.525305 Z-1.800000 I1.305362 J3.125516
G02 X66.093147 Y283.023793 Z-1.800000 I2.904152 J1.281271
G02 X68.926197 Y285.931745 Z-1.800000 I5.101414 J-2.136000
G02 X77.622451 Y288.353492 Z-1.800000 I12.305014 J-27.361524
G02 X86.769338 Y288.434040 Z-1.800000 I4.932259 J-40.706172
G02 X96.876627 Y285.853933 Z-1.800000 I-3.660948 J-35.428533
G02 X108.154928 Y274.989473 Z-1.800000 I-8.367767 J-19.972689
G02 X108.463927 Y258.260145 Z-1.800000 I-18.797271 J-8.714712
G02 X99.562754 Y242.302975 Z-1.800000 I-75.504045 J31.656207
G02 X80.162612 Y215.610994 Z-1.800000 I-1709.558334 J1222.137144
G03 X60.971746 Y188.945395 Z-1.800000 I1054.268727 J-778.981221
G03 X50.921787 Y170.734850 Z-1.800000 I79.744106 J-55.887280
G03 X49.482677 Y159.608649 Z-1.800000 I19.491351 J-8.177265
G03 X51.733707 Y156.700180 Z-1.800000 I3.673137 J0.517516
G01 X51.733707 Y156.700180 Z-1.800000
G01 X51.722107 Y156.700180 Z-1.800000
G00 Z5.000000

(End cutting path id: path842-7)


(Start cutting path id: path842-7)
(Change tool to Cylindrical cutter)

G00 Z5.000000
G00 X51.722107 Y156.700180

G01 Z-2.100000 F50.0(Penetrate)
G03 X55.395120 Y156.083488 Z-2.100000 I3.144102 J7.479687 F200.000000
G03 X58.669847 Y156.700180 Z-2.100000 I-0.900525 J13.784917
G02 X61.330145 Y157.418056 Z-2.100000 I17.511854 J-59.607080
G02 X62.787457 Y157.303330 Z-2.100000 I0.555531 J-2.256492
G02 X64.188284 Y155.719701 Z-2.100000 I-0.931342 J-2.235212
G02 X64.051737 Y153.568480 Z-2.100000 I-3.149781 J-0.880015
G02 X62.252192 Y151.066054 Z-2.100000 I-6.368544 J2.681492
G02 X58.832237 Y148.476560 Z-2.100000 I-19.090637 J21.659951
G02 X45.749736 Y143.015128 Z-2.100000 I-21.300024 J32.622957
G02 X28.396717 Y144.625730 Z-2.100000 I-6.119118 J28.359263
G02 X14.143574 Y159.485790 Z-2.100000 I10.005660 J23.862545
G02 X14.524437 Y177.844975 Z-2.100000 I23.436561 J8.697349
G02 X23.732024 Y193.754280 Z-2.100000 I66.695629 J-27.981296
G02 X39.898478 Y214.723678 Z-2.100000 I2234.499814 J-1705.981534
G03 X55.378575 Y236.022735 Z-2.100000 I-314.839117 J245.099188
G03 X70.257147 Y263.502855 Z-2.100000 I-130.553836 J88.453727
G03 X71.508006 Y274.226346 Z-2.100000 I-17.923735 J7.525442
G03 X67.914167 Y278.767005 Z-2.100000 I-5.910983 J-0.985868
G02 X66.120571 Y280.525305 Z-2.100000 I1.305362 J3.125516
G02 X66.093147 Y283.023793 Z-2.100000 I2.904152 J1.281271
G02 X68.926197 Y285.931745 Z-2.100000 I5.101414 J-2.136000
G02 X77.622451 Y288.353492 Z-2.100000 I12.305014 J-27.361524
G02 X86.769338 Y288.434040 Z-2.100000 I4.932259 J-40.706172
G02 X96.876627 Y285.853933 Z-2.100000 I-3.660948 J-35.428533
G02 X108.154928 Y274.989473 Z-2.100000 I-8.367767 J-19.972689
G02 X108.463927 Y258.260145 Z-2.100000 I-18.797271 J-8.714712
G02 X99.562754 Y242.302975 Z-2.100000 I-75.504045 J31.656207
G02 X80.162612 Y215.610994 Z-2.100000 I-1709.558334 J1222.137144
G03 X60.971746 Y188.945395 Z-2.100000 I1054.268727 J-778.981221
G03 X50.921787 Y170.734850 Z-2.100000 I79.744106 J-55.887280
G03 X49.482677 Y159.608649 Z-2.100000 I19.491351 J-8.177265
G03 X51.733707 Y156.700180 Z-2.100000 I3.673137 J0.517516
G01 X51.733707 Y156.700180 Z-2.100000
G01 X51.722107 Y156.700180 Z-2.100000
G00 Z5.000000

(End cutting path id: path842-7)


(Start cutting path id: path842-7)
(Change tool to Cylindrical cutter)

G00 Z5.000000
G00 X51.722107 Y156.700180

G01 Z-2.400000 F50.0(Penetrate)
G03 X55.395120 Y156.083488 Z-2.400000 I3.144102 J7.479687 F200.000000
G03 X58.669847 Y156.700180 Z-2.400000 I-0.900525 J13.784917
G02 X61.330145 Y157.418056 Z-2.400000 I17.511854 J-59.607080
G02 X62.787457 Y157.303330 Z-2.400000 I0.555531 J-2.256492
G02 X64.188284 Y155.719701 Z-2.400000 I-0.931342 J-2.235212
G02 X64.051737 Y153.568480 Z-2.400000 I-3.149781 J-0.880015
G02 X62.252192 Y151.066054 Z-2.400000 I-6.368544 J2.681492
G02 X58.832237 Y148.476560 Z-2.400000 I-19.090637 J21.659951
G02 X45.749736 Y143.015128 Z-2.400000 I-21.300024 J32.622957
G02 X28.396717 Y144.625730 Z-2.400000 I-6.119118 J28.359263
G02 X14.143574 Y159.485790 Z-2.400000 I10.005660 J23.862545
G02 X14.524437 Y177.844975 Z-2.400000 I23.436561 J8.697349
G02 X23.732024 Y193.754280 Z-2.400000 I66.695629 J-27.981296
G02 X39.898478 Y214.723678 Z-2.400000 I2234.499814 J-1705.981534
G03 X55.378575 Y236.022735 Z-2.400000 I-314.839117 J245.099188
G03 X70.257147 Y263.502855 Z-2.400000 I-130.553836 J88.453727
G03 X71.508006 Y274.226346 Z-2.400000 I-17.923735 J7.525442
G03 X67.914167 Y278.767005 Z-2.400000 I-5.910983 J-0.985868
G02 X66.120571 Y280.525305 Z-2.400000 I1.305362 J3.125516
G02 X66.093147 Y283.023793 Z-2.400000 I2.904152 J1.281271
G02 X68.926197 Y285.931745 Z-2.400000 I5.101414 J-2.136000
G02 X77.622451 Y288.353492 Z-2.400000 I12.305014 J-27.361524
G02 X86.769338 Y288.434040 Z-2.400000 I4.932259 J-40.706172
G02 X96.876627 Y285.853933 Z-2.400000 I-3.660948 J-35.428533
G02 X108.154928 Y274.989473 Z-2.400000 I-8.367767 J-19.972689
G02 X108.463927 Y258.260145 Z-2.400000 I-18.797271 J-8.714712
G02 X99.562754 Y242.302975 Z-2.400000 I-75.504045 J31.656207
G02 X80.162612 Y215.610994 Z-2.400000 I-1709.558334 J1222.137144
G03 X60.971746 Y188.945395 Z-2.400000 I1054.268727 J-778.981221
G03 X50.921787 Y170.734850 Z-2.400000 I79.744106 J-55.887280
G03 X49.482677 Y159.608649 Z-2.400000 I19.491351 J-8.177265
G03 X51.733707 Y156.700180 Z-2.400000 I3.673137 J0.517516
G01 X51.733707 Y156.700180 Z-2.400000
G01 X51.722107 Y156.700180 Z-2.400000
G00 Z5.000000

(End cutting path id: path842-7)


(Start cutting path id: path842-7)
(Change tool to Cylindrical cutter)

G00 Z5.000000
G00 X51.722107 Y156.700180

G01 Z-2.700000 F50.0(Penetrate)
G03 X55.395120 Y156.083488 Z-2.700000 I3.144102 J7.479687 F200.000000
G03 X58.669847 Y156.700180 Z-2.700000 I-0.900525 J13.784917
G02 X61.330145 Y157.418056 Z-2.700000 I17.511854 J-59.607080
G02 X62.787457 Y157.303330 Z-2.700000 I0.555531 J-2.256492
G02 X64.188284 Y155.719701 Z-2.700000 I-0.931342 J-2.235212
G02 X64.051737 Y153.568480 Z-2.700000 I-3.149781 J-0.880015
G02 X62.252192 Y151.066054 Z-2.700000 I-6.368544 J2.681492
G02 X58.832237 Y148.476560 Z-2.700000 I-19.090637 J21.659951
G02 X45.749736 Y143.015128 Z-2.700000 I-21.300024 J32.622957
G02 X28.396717 Y144.625730 Z-2.700000 I-6.119118 J28.359263
G02 X14.143574 Y159.485790 Z-2.700000 I10.005660 J23.862545
G02 X14.524437 Y177.844975 Z-2.700000 I23.436561 J8.697349
G02 X23.732024 Y193.754280 Z-2.700000 I66.695629 J-27.981296
G02 X39.898478 Y214.723678 Z-2.700000 I2234.499814 J-1705.981534
G03 X55.378575 Y236.022735 Z-2.700000 I-314.839117 J245.099188
G03 X70.257147 Y263.502855 Z-2.700000 I-130.553836 J88.453727
G03 X71.508006 Y274.226346 Z-2.700000 I-17.923735 J7.525442
G03 X67.914167 Y278.767005 Z-2.700000 I-5.910983 J-0.985868
G02 X66.120571 Y280.525305 Z-2.700000 I1.305362 J3.125516
G02 X66.093147 Y283.023793 Z-2.700000 I2.904152 J1.281271
G02 X68.926197 Y285.931745 Z-2.700000 I5.101414 J-2.136000
G02 X77.622451 Y288.353492 Z-2.700000 I12.305014 J-27.361524
G02 X86.769338 Y288.434040 Z-2.700000 I4.932259 J-40.706172
G02 X96.876627 Y285.853933 Z-2.700000 I-3.660948 J-35.428533
G02 X108.154928 Y274.989473 Z-2.700000 I-8.367767 J-19.972689
G02 X108.463927 Y258.260145 Z-2.700000 I-18.797271 J-8.714712
G02 X99.562754 Y242.302975 Z-2.700000 I-75.504045 J31.656207
G02 X80.162612 Y215.610994 Z-2.700000 I-1709.558334 J1222.137144
G03 X60.971746 Y188.945395 Z-2.700000 I1054.268727 J-778.981221
G03 X50.921787 Y170.734850 Z-2.700000 I79.744106 J-55.887280
G03 X49.482677 Y159.608649 Z-2.700000 I19.491351 J-8.177265
G03 X51.733707 Y156.700180 Z-2.700000 I3.673137 J0.517516
G01 X51.733707 Y156.700180 Z-2.700000
G01 X51.722107 Y156.700180 Z-2.700000
G00 Z5.000000

(End cutting path id: path842-7)


(Start cutting path id: path842-7)
(Change tool to Cylindrical cutter)

G00 Z5.000000
G00 X51.722107 Y156.700180

G01 Z-3.000000 F50.0(Penetrate)
G03 X55.395120 Y156.083488 Z-3.000000 I3.144102 J7.479687 F200.000000
G03 X58.669847 Y156.700180 Z-3.000000 I-0.900525 J13.784917
G02 X61.330145 Y157.418056 Z-3.000000 I17.511854 J-59.607080
G02 X62.787457 Y157.303330 Z-3.000000 I0.555531 J-2.256492
G02 X64.188284 Y155.719701 Z-3.000000 I-0.931342 J-2.235212
G02 X64.051737 Y153.568480 Z-3.000000 I-3.149781 J-0.880015
G02 X62.252192 Y151.066054 Z-3.000000 I-6.368544 J2.681492
G02 X58.832237 Y148.476560 Z-3.000000 I-19.090637 J21.659951
G02 X45.749736 Y143.015128 Z-3.000000 I-21.300024 J32.622957
G02 X28.396717 Y144.625730 Z-3.000000 I-6.119118 J28.359263
G02 X14.143574 Y159.485790 Z-3.000000 I10.005660 J23.862545
G02 X14.524437 Y177.844975 Z-3.000000 I23.436561 J8.697349
G02 X23.732024 Y193.754280 Z-3.000000 I66.695629 J-27.981296
G02 X39.898478 Y214.723678 Z-3.000000 I2234.499814 J-1705.981534
G03 X55.378575 Y236.022735 Z-3.000000 I-314.839117 J245.099188
G03 X70.257147 Y263.502855 Z-3.000000 I-130.553836 J88.453727
G03 X71.508006 Y274.226346 Z-3.000000 I-17.923735 J7.525442
G03 X67.914167 Y278.767005 Z-3.000000 I-5.910983 J-0.985868
G02 X66.120571 Y280.525305 Z-3.000000 I1.305362 J3.125516
G02 X66.093147 Y283.023793 Z-3.000000 I2.904152 J1.281271
G02 X68.926197 Y285.931745 Z-3.000000 I5.101414 J-2.136000
G02 X77.622451 Y288.353492 Z-3.000000 I12.305014 J-27.361524
G02 X86.769338 Y288.434040 Z-3.000000 I4.932259 J-40.706172
G02 X96.876627 Y285.853933 Z-3.000000 I-3.660948 J-35.428533
G02 X108.154928 Y274.989473 Z-3.000000 I-8.367767 J-19.972689
G02 X108.463927 Y258.260145 Z-3.000000 I-18.797271 J-8.714712
G02 X99.562754 Y242.302975 Z-3.000000 I-75.504045 J31.656207
G02 X80.162612 Y215.610994 Z-3.000000 I-1709.558334 J1222.137144
G03 X60.971746 Y188.945395 Z-3.000000 I1054.268727 J-778.981221
G03 X50.921787 Y170.734850 Z-3.000000 I79.744106 J-55.887280
G03 X49.482677 Y159.608649 Z-3.000000 I19.491351 J-8.177265
G03 X51.733707 Y156.700180 Z-3.000000 I3.673137 J0.517516
G01 X51.733707 Y156.700180 Z-3.000000
G01 X51.722107 Y156.700180 Z-3.000000
G00 Z5.000000

(End cutting path id: path842-7)


(Start cutting path id: path842-7)
(Change tool to Cylindrical cutter)

G00 Z5.000000
G00 X51.722107 Y156.700180

G01 Z-3.300000 F50.0(Penetrate)
G03 X55.395120 Y156.083488 Z-3.300000 I3.144102 J7.479687 F200.000000
G03 X58.669847 Y156.700180 Z-3.300000 I-0.900525 J13.784917
G02 X61.330145 Y157.418056 Z-3.300000 I17.511854 J-59.607080
G02 X62.787457 Y157.303330 Z-3.300000 I0.555531 J-2.256492
G02 X64.188284 Y155.719701 Z-3.300000 I-0.931342 J-2.235212
G02 X64.051737 Y153.568480 Z-3.300000 I-3.149781 J-0.880015
G02 X62.252192 Y151.066054 Z-3.300000 I-6.368544 J2.681492
G02 X58.832237 Y148.476560 Z-3.300000 I-19.090637 J21.659951
G02 X45.749736 Y143.015128 Z-3.300000 I-21.300024 J32.622957
G02 X28.396717 Y144.625730 Z-3.300000 I-6.119118 J28.359263
G02 X14.143574 Y159.485790 Z-3.300000 I10.005660 J23.862545
G02 X14.524437 Y177.844975 Z-3.300000 I23.436561 J8.697349
G02 X23.732024 Y193.754280 Z-3.300000 I66.695629 J-27.981296
G02 X39.898478 Y214.723678 Z-3.300000 I2234.499814 J-1705.981534
G03 X55.378575 Y236.022735 Z-3.300000 I-314.839117 J245.099188
G03 X70.257147 Y263.502855 Z-3.300000 I-130.553836 J88.453727
G03 X71.508006 Y274.226346 Z-3.300000 I-17.923735 J7.525442
G03 X67.914167 Y278.767005 Z-3.300000 I-5.910983 J-0.985868
G02 X66.120571 Y280.525305 Z-3.300000 I1.305362 J3.125516
G02 X66.093147 Y283.023793 Z-3.300000 I2.904152 J1.281271
G02 X68.926197 Y285.931745 Z-3.300000 I5.101414 J-2.136000
G02 X77.622451 Y288.353492 Z-3.300000 I12.305014 J-27.361524
G02 X86.769338 Y288.434040 Z-3.300000 I4.932259 J-40.706172
G02 X96.876627 Y285.853933 Z-3.300000 I-3.660948 J-35.428533
G02 X108.154928 Y274.989473 Z-3.300000 I-8.367767 J-19.972689
G02 X108.463927 Y258.260145 Z-3.300000 I-18.797271 J-8.714712
G02 X99.562754 Y242.302975 Z-3.300000 I-75.504045 J31.656207
G02 X80.162612 Y215.610994 Z-3.300000 I-1709.558334 J1222.137144
G03 X60.971746 Y188.945395 Z-3.300000 I1054.268727 J-778.981221
G03 X50.921787 Y170.734850 Z-3.300000 I79.744106 J-55.887280
G03 X49.482677 Y159.608649 Z-3.300000 I19.491351 J-8.177265
G03 X51.733707 Y156.700180 Z-3.300000 I3.673137 J0.517516
G01 X51.733707 Y156.700180 Z-3.300000
G01 X51.722107 Y156.700180 Z-3.300000
G00 Z5.000000

(End cutting path id: path842-7)


(Start cutting path id: path842-7)
(Change tool to Cylindrical cutter)

G00 Z5.000000
G00 X51.722107 Y156.700180

G01 Z-3.600000 F50.0(Penetrate)
G03 X55.395120 Y156.083488 Z-3.600000 I3.144102 J7.479687 F200.000000
G03 X58.669847 Y156.700180 Z-3.600000 I-0.900525 J13.784917
G02 X61.330145 Y157.418056 Z-3.600000 I17.511854 J-59.607080
G02 X62.787457 Y157.303330 Z-3.600000 I0.555531 J-2.256492
G02 X64.188284 Y155.719701 Z-3.600000 I-0.931342 J-2.235212
G02 X64.051737 Y153.568480 Z-3.600000 I-3.149781 J-0.880015
G02 X62.252192 Y151.066054 Z-3.600000 I-6.368544 J2.681492
G02 X58.832237 Y148.476560 Z-3.600000 I-19.090637 J21.659951
G02 X45.749736 Y143.015128 Z-3.600000 I-21.300024 J32.622957
G02 X28.396717 Y144.625730 Z-3.600000 I-6.119118 J28.359263
G02 X14.143574 Y159.485790 Z-3.600000 I10.005660 J23.862545
G02 X14.524437 Y177.844975 Z-3.600000 I23.436561 J8.697349
G02 X23.732024 Y193.754280 Z-3.600000 I66.695629 J-27.981296
G02 X39.898478 Y214.723678 Z-3.600000 I2234.499814 J-1705.981534
G03 X55.378575 Y236.022735 Z-3.600000 I-314.839117 J245.099188
G03 X70.257147 Y263.502855 Z-3.600000 I-130.553836 J88.453727
G03 X71.508006 Y274.226346 Z-3.600000 I-17.923735 J7.525442
G03 X67.914167 Y278.767005 Z-3.600000 I-5.910983 J-0.985868
G02 X66.120571 Y280.525305 Z-3.600000 I1.305362 J3.125516
G02 X66.093147 Y283.023793 Z-3.600000 I2.904152 J1.281271
G02 X68.926197 Y285.931745 Z-3.600000 I5.101414 J-2.136000
G02 X77.622451 Y288.353492 Z-3.600000 I12.305014 J-27.361524
G02 X86.769338 Y288.434040 Z-3.600000 I4.932259 J-40.706172
G02 X96.876627 Y285.853933 Z-3.600000 I-3.660948 J-35.428533
G02 X108.154928 Y274.989473 Z-3.600000 I-8.367767 J-19.972689
G02 X108.463927 Y258.260145 Z-3.600000 I-18.797271 J-8.714712
G02 X99.562754 Y242.302975 Z-3.600000 I-75.504045 J31.656207
G02 X80.162612 Y215.610994 Z-3.600000 I-1709.558334 J1222.137144
G03 X60.971746 Y188.945395 Z-3.600000 I1054.268727 J-778.981221
G03 X50.921787 Y170.734850 Z-3.600000 I79.744106 J-55.887280
G03 X49.482677 Y159.608649 Z-3.600000 I19.491351 J-8.177265
G03 X51.733707 Y156.700180 Z-3.600000 I3.673137 J0.517516
G01 X51.733707 Y156.700180 Z-3.600000
G01 X51.722107 Y156.700180 Z-3.600000
G00 Z5.000000

(End cutting path id: path842-7)


(Start cutting path id: path842-7)
(Change tool to Cylindrical cutter)

G00 Z5.000000
G00 X51.722107 Y156.700180

G01 Z-3.900000 F50.0(Penetrate)
G03 X55.395120 Y156.083488 Z-3.900000 I3.144102 J7.479687 F200.000000
G03 X58.669847 Y156.700180 Z-3.900000 I-0.900525 J13.784917
G02 X61.330145 Y157.418056 Z-3.900000 I17.511854 J-59.607080
G02 X62.787457 Y157.303330 Z-3.900000 I0.555531 J-2.256492
G02 X64.188284 Y155.719701 Z-3.900000 I-0.931342 J-2.235212
G02 X64.051737 Y153.568480 Z-3.900000 I-3.149781 J-0.880015
G02 X62.252192 Y151.066054 Z-3.900000 I-6.368544 J2.681492
G02 X58.832237 Y148.476560 Z-3.900000 I-19.090637 J21.659951
G02 X45.749736 Y143.015128 Z-3.900000 I-21.300024 J32.622957
G02 X28.396717 Y144.625730 Z-3.900000 I-6.119118 J28.359263
G02 X14.143574 Y159.485790 Z-3.900000 I10.005660 J23.862545
G02 X14.524437 Y177.844975 Z-3.900000 I23.436561 J8.697349
G02 X23.732024 Y193.754280 Z-3.900000 I66.695629 J-27.981296
G02 X39.898478 Y214.723678 Z-3.900000 I2234.499814 J-1705.981534
G03 X55.378575 Y236.022735 Z-3.900000 I-314.839117 J245.099188
G03 X70.257147 Y263.502855 Z-3.900000 I-130.553836 J88.453727
G03 X71.508006 Y274.226346 Z-3.900000 I-17.923735 J7.525442
G03 X67.914167 Y278.767005 Z-3.900000 I-5.910983 J-0.985868
G02 X66.120571 Y280.525305 Z-3.900000 I1.305362 J3.125516
G02 X66.093147 Y283.023793 Z-3.900000 I2.904152 J1.281271
G02 X68.926197 Y285.931745 Z-3.900000 I5.101414 J-2.136000
G02 X77.622451 Y288.353492 Z-3.900000 I12.305014 J-27.361524
G02 X86.769338 Y288.434040 Z-3.900000 I4.932259 J-40.706172
G02 X96.876627 Y285.853933 Z-3.900000 I-3.660948 J-35.428533
G02 X108.154928 Y274.989473 Z-3.900000 I-8.367767 J-19.972689
G02 X108.463927 Y258.260145 Z-3.900000 I-18.797271 J-8.714712
G02 X99.562754 Y242.302975 Z-3.900000 I-75.504045 J31.656207
G02 X80.162612 Y215.610994 Z-3.900000 I-1709.558334 J1222.137144
G03 X60.971746 Y188.945395 Z-3.900000 I1054.268727 J-778.981221
G03 X50.921787 Y170.734850 Z-3.900000 I79.744106 J-55.887280
G03 X49.482677 Y159.608649 Z-3.900000 I19.491351 J-8.177265
G03 X51.733707 Y156.700180 Z-3.900000 I3.673137 J0.517516
G01 X51.733707 Y156.700180 Z-3.900000
G01 X51.722107 Y156.700180 Z-3.900000
G00 Z5.000000

(End cutting path id: path842-7)


(Start cutting path id: path842-7)
(Change tool to Cylindrical cutter)

G00 Z5.000000
G00 X51.722107 Y156.700180

G01 Z-4.200000 F50.0(Penetrate)
G03 X55.395120 Y156.083488 Z-4.200000 I3.144102 J7.479687 F200.000000
G03 X58.669847 Y156.700180 Z-4.200000 I-0.900525 J13.784917
G02 X61.330145 Y157.418056 Z-4.200000 I17.511854 J-59.607080
G02 X62.787457 Y157.303330 Z-4.200000 I0.555531 J-2.256492
G02 X64.188284 Y155.719701 Z-4.200000 I-0.931342 J-2.235212
G02 X64.051737 Y153.568480 Z-4.200000 I-3.149781 J-0.880015
G02 X62.252192 Y151.066054 Z-4.200000 I-6.368544 J2.681492
G02 X58.832237 Y148.476560 Z-4.200000 I-19.090637 J21.659951
G02 X45.749736 Y143.015128 Z-4.200000 I-21.300024 J32.622957
G02 X28.396717 Y144.625730 Z-4.200000 I-6.119118 J28.359263
G02 X14.143574 Y159.485790 Z-4.200000 I10.005660 J23.862545
G02 X14.524437 Y177.844975 Z-4.200000 I23.436561 J8.697349
G02 X23.732024 Y193.754280 Z-4.200000 I66.695629 J-27.981296
G02 X39.898478 Y214.723678 Z-4.200000 I2234.499814 J-1705.981534
G03 X55.378575 Y236.022735 Z-4.200000 I-314.839117 J245.099188
G03 X70.257147 Y263.502855 Z-4.200000 I-130.553836 J88.453727
G03 X71.508006 Y274.226346 Z-4.200000 I-17.923735 J7.525442
G03 X67.914167 Y278.767005 Z-4.200000 I-5.910983 J-0.985868
G02 X66.120571 Y280.525305 Z-4.200000 I1.305362 J3.125516
G02 X66.093147 Y283.023793 Z-4.200000 I2.904152 J1.281271
G02 X68.926197 Y285.931745 Z-4.200000 I5.101414 J-2.136000
G02 X77.622451 Y288.353492 Z-4.200000 I12.305014 J-27.361524
G02 X86.769338 Y288.434040 Z-4.200000 I4.932259 J-40.706172
G02 X96.876627 Y285.853933 Z-4.200000 I-3.660948 J-35.428533
G02 X108.154928 Y274.989473 Z-4.200000 I-8.367767 J-19.972689
G02 X108.463927 Y258.260145 Z-4.200000 I-18.797271 J-8.714712
G02 X99.562754 Y242.302975 Z-4.200000 I-75.504045 J31.656207
G02 X80.162612 Y215.610994 Z-4.200000 I-1709.558334 J1222.137144
G03 X60.971746 Y188.945395 Z-4.200000 I1054.268727 J-778.981221
G03 X50.921787 Y170.734850 Z-4.200000 I79.744106 J-55.887280
G03 X49.482677 Y159.608649 Z-4.200000 I19.491351 J-8.177265
G03 X51.733707 Y156.700180 Z-4.200000 I3.673137 J0.517516
G01 X51.733707 Y156.700180 Z-4.200000
G01 X51.722107 Y156.700180 Z-4.200000
G00 Z5.000000

(End cutting path id: path842-7)


(Start cutting path id: path842-7)
(Change tool to Cylindrical cutter)

G00 Z5.000000
G00 X51.722107 Y156.700180

G01 Z-4.500000 F50.0(Penetrate)
G03 X55.395120 Y156.083488 Z-4.500000 I3.144102 J7.479687 F200.000000
G03 X58.669847 Y156.700180 Z-4.500000 I-0.900525 J13.784917
G02 X61.330145 Y157.418056 Z-4.500000 I17.511854 J-59.607080
G02 X62.787457 Y157.303330 Z-4.500000 I0.555531 J-2.256492
G02 X64.188284 Y155.719701 Z-4.500000 I-0.931342 J-2.235212
G02 X64.051737 Y153.568480 Z-4.500000 I-3.149781 J-0.880015
G02 X62.252192 Y151.066054 Z-4.500000 I-6.368544 J2.681492
G02 X58.832237 Y148.476560 Z-4.500000 I-19.090637 J21.659951
G02 X45.749736 Y143.015128 Z-4.500000 I-21.300024 J32.622957
G02 X28.396717 Y144.625730 Z-4.500000 I-6.119118 J28.359263
G02 X14.143574 Y159.485790 Z-4.500000 I10.005660 J23.862545
G02 X14.524437 Y177.844975 Z-4.500000 I23.436561 J8.697349
G02 X23.732024 Y193.754280 Z-4.500000 I66.695629 J-27.981296
G02 X39.898478 Y214.723678 Z-4.500000 I2234.499814 J-1705.981534
G03 X55.378575 Y236.022735 Z-4.500000 I-314.839117 J245.099188
G03 X70.257147 Y263.502855 Z-4.500000 I-130.553836 J88.453727
G03 X71.508006 Y274.226346 Z-4.500000 I-17.923735 J7.525442
G03 X67.914167 Y278.767005 Z-4.500000 I-5.910983 J-0.985868
G02 X66.120571 Y280.525305 Z-4.500000 I1.305362 J3.125516
G02 X66.093147 Y283.023793 Z-4.500000 I2.904152 J1.281271
G02 X68.926197 Y285.931745 Z-4.500000 I5.101414 J-2.136000
G02 X77.622451 Y288.353492 Z-4.500000 I12.305014 J-27.361524
G02 X86.769338 Y288.434040 Z-4.500000 I4.932259 J-40.706172
G02 X96.876627 Y285.853933 Z-4.500000 I-3.660948 J-35.428533
G02 X108.154928 Y274.989473 Z-4.500000 I-8.367767 J-19.972689
G02 X108.463927 Y258.260145 Z-4.500000 I-18.797271 J-8.714712
G02 X99.562754 Y242.302975 Z-4.500000 I-75.504045 J31.656207
G02 X80.162612 Y215.610994 Z-4.500000 I-1709.558334 J1222.137144
G03 X60.971746 Y188.945395 Z-4.500000 I1054.268727 J-778.981221
G03 X50.921787 Y170.734850 Z-4.500000 I79.744106 J-55.887280
G03 X49.482677 Y159.608649 Z-4.500000 I19.491351 J-8.177265
G03 X51.733707 Y156.700180 Z-4.500000 I3.673137 J0.517516
G01 X51.733707 Y156.700180 Z-4.500000
G01 X51.722107 Y156.700180 Z-4.500000
G00 Z5.000000

(End cutting path id: path842-7)


(Start cutting path id: path842-7)
(Change tool to Cylindrical cutter)

G00 Z5.000000
G00 X51.722107 Y156.700180

G01 Z-4.800000 F50.0(Penetrate)
G03 X55.395120 Y156.083488 Z-4.800000 I3.144102 J7.479687 F200.000000
G03 X58.669847 Y156.700180 Z-4.800000 I-0.900525 J13.784917
G02 X61.330145 Y157.418056 Z-4.800000 I17.511854 J-59.607080
G02 X62.787457 Y157.303330 Z-4.800000 I0.555531 J-2.256492
G02 X64.188284 Y155.719701 Z-4.800000 I-0.931342 J-2.235212
G02 X64.051737 Y153.568480 Z-4.800000 I-3.149781 J-0.880015
G02 X62.252192 Y151.066054 Z-4.800000 I-6.368544 J2.681492
G02 X58.832237 Y148.476560 Z-4.800000 I-19.090637 J21.659951
G02 X45.749736 Y143.015128 Z-4.800000 I-21.300024 J32.622957
G02 X28.396717 Y144.625730 Z-4.800000 I-6.119118 J28.359263
G02 X14.143574 Y159.485790 Z-4.800000 I10.005660 J23.862545
G02 X14.524437 Y177.844975 Z-4.800000 I23.436561 J8.697349
G02 X23.732024 Y193.754280 Z-4.800000 I66.695629 J-27.981296
G02 X39.898478 Y214.723678 Z-4.800000 I2234.499814 J-1705.981534
G03 X55.378575 Y236.022735 Z-4.800000 I-314.839117 J245.099188
G03 X70.257147 Y263.502855 Z-4.800000 I-130.553836 J88.453727
G03 X71.508006 Y274.226346 Z-4.800000 I-17.923735 J7.525442
G03 X67.914167 Y278.767005 Z-4.800000 I-5.910983 J-0.985868
G02 X66.120571 Y280.525305 Z-4.800000 I1.305362 J3.125516
G02 X66.093147 Y283.023793 Z-4.800000 I2.904152 J1.281271
G02 X68.926197 Y285.931745 Z-4.800000 I5.101414 J-2.136000
G02 X77.622451 Y288.353492 Z-4.800000 I12.305014 J-27.361524
G02 X86.769338 Y288.434040 Z-4.800000 I4.932259 J-40.706172
G02 X96.876627 Y285.853933 Z-4.800000 I-3.660948 J-35.428533
G02 X108.154928 Y274.989473 Z-4.800000 I-8.367767 J-19.972689
G02 X108.463927 Y258.260145 Z-4.800000 I-18.797271 J-8.714712
G02 X99.562754 Y242.302975 Z-4.800000 I-75.504045 J31.656207
G02 X80.162612 Y215.610994 Z-4.800000 I-1709.558334 J1222.137144
G03 X60.971746 Y188.945395 Z-4.800000 I1054.268727 J-778.981221
G03 X50.921787 Y170.734850 Z-4.800000 I79.744106 J-55.887280
G03 X49.482677 Y159.608649 Z-4.800000 I19.491351 J-8.177265
G03 X51.733707 Y156.700180 Z-4.800000 I3.673137 J0.517516
G01 X51.733707 Y156.700180 Z-4.800000
G01 X51.722107 Y156.700180 Z-4.800000
G00 Z5.000000

(End cutting path id: path842-7)


(Start cutting path id: path842-7)
(Change tool to Cylindrical cutter)

G00 Z5.000000
G00 X51.722107 Y156.700180

G01 Z-5.100000 F50.0(Penetrate)
G03 X55.395120 Y156.083488 Z-5.100000 I3.144102 J7.479687 F200.000000
G03 X58.669847 Y156.700180 Z-5.100000 I-0.900525 J13.784917
G02 X61.330145 Y157.418056 Z-5.100000 I17.511854 J-59.607080
G02 X62.787457 Y157.303330 Z-5.100000 I0.555531 J-2.256492
G02 X64.188284 Y155.719701 Z-5.100000 I-0.931342 J-2.235212
G02 X64.051737 Y153.568480 Z-5.100000 I-3.149781 J-0.880015
G02 X62.252192 Y151.066054 Z-5.100000 I-6.368544 J2.681492
G02 X58.832237 Y148.476560 Z-5.100000 I-19.090637 J21.659951
G02 X45.749736 Y143.015128 Z-5.100000 I-21.300024 J32.622957
G02 X28.396717 Y144.625730 Z-5.100000 I-6.119118 J28.359263
G02 X14.143574 Y159.485790 Z-5.100000 I10.005660 J23.862545
G02 X14.524437 Y177.844975 Z-5.100000 I23.436561 J8.697349
G02 X23.732024 Y193.754280 Z-5.100000 I66.695629 J-27.981296
G02 X39.898478 Y214.723678 Z-5.100000 I2234.499814 J-1705.981534
G03 X55.378575 Y236.022735 Z-5.100000 I-314.839117 J245.099188
G03 X70.257147 Y263.502855 Z-5.100000 I-130.553836 J88.453727
G03 X71.508006 Y274.226346 Z-5.100000 I-17.923735 J7.525442
G03 X67.914167 Y278.767005 Z-5.100000 I-5.910983 J-0.985868
G02 X66.120571 Y280.525305 Z-5.100000 I1.305362 J3.125516
G02 X66.093147 Y283.023793 Z-5.100000 I2.904152 J1.281271
G02 X68.926197 Y285.931745 Z-5.100000 I5.101414 J-2.136000
G02 X77.622451 Y288.353492 Z-5.100000 I12.305014 J-27.361524
G02 X86.769338 Y288.434040 Z-5.100000 I4.932259 J-40.706172
G02 X96.876627 Y285.853933 Z-5.100000 I-3.660948 J-35.428533
G02 X108.154928 Y274.989473 Z-5.100000 I-8.367767 J-19.972689
G02 X108.463927 Y258.260145 Z-5.100000 I-18.797271 J-8.714712
G02 X99.562754 Y242.302975 Z-5.100000 I-75.504045 J31.656207
G02 X80.162612 Y215.610994 Z-5.100000 I-1709.558334 J1222.137144
G03 X60.971746 Y188.945395 Z-5.100000 I1054.268727 J-778.981221
G03 X50.921787 Y170.734850 Z-5.100000 I79.744106 J-55.887280
G03 X49.482677 Y159.608649 Z-5.100000 I19.491351 J-8.177265
G03 X51.733707 Y156.700180 Z-5.100000 I3.673137 J0.517516
G01 X51.733707 Y156.700180 Z-5.100000
G01 X51.722107 Y156.700180 Z-5.100000
G00 Z5.000000

(End cutting path id: path842-7)


(Start cutting path id: path842-7)
(Change tool to Cylindrical cutter)

G00 Z5.000000
G00 X51.722107 Y156.700180

G01 Z-5.300000 F50.0(Penetrate)
G03 X55.395120 Y156.083488 Z-5.300000 I3.144102 J7.479687 F200.000000
G03 X58.669847 Y156.700180 Z-5.300000 I-0.900525 J13.784917
G02 X61.330145 Y157.418056 Z-5.300000 I17.511854 J-59.607080
G02 X62.787457 Y157.303330 Z-5.300000 I0.555531 J-2.256492
G02 X64.188284 Y155.719701 Z-5.300000 I-0.931342 J-2.235212
G02 X64.051737 Y153.568480 Z-5.300000 I-3.149781 J-0.880015
G02 X62.252192 Y151.066054 Z-5.300000 I-6.368544 J2.681492
G02 X58.832237 Y148.476560 Z-5.300000 I-19.090637 J21.659951
G02 X45.749736 Y143.015128 Z-5.300000 I-21.300024 J32.622957
G02 X28.396717 Y144.625730 Z-5.300000 I-6.119118 J28.359263
G02 X14.143574 Y159.485790 Z-5.300000 I10.005660 J23.862545
G02 X14.524437 Y177.844975 Z-5.300000 I23.436561 J8.697349
G02 X23.732024 Y193.754280 Z-5.300000 I66.695629 J-27.981296
G02 X39.898478 Y214.723678 Z-5.300000 I2234.499814 J-1705.981534
G03 X55.378575 Y236.022735 Z-5.300000 I-314.839117 J245.099188
G03 X70.257147 Y263.502855 Z-5.300000 I-130.553836 J88.453727
G03 X71.508006 Y274.226346 Z-5.300000 I-17.923735 J7.525442
G03 X67.914167 Y278.767005 Z-5.300000 I-5.910983 J-0.985868
G02 X66.120571 Y280.525305 Z-5.300000 I1.305362 J3.125516
G02 X66.093147 Y283.023793 Z-5.300000 I2.904152 J1.281271
G02 X68.926197 Y285.931745 Z-5.300000 I5.101414 J-2.136000
G02 X77.622451 Y288.353492 Z-5.300000 I12.305014 J-27.361524
G02 X86.769338 Y288.434040 Z-5.300000 I4.932259 J-40.706172
G02 X96.876627 Y285.853933 Z-5.300000 I-3.660948 J-35.428533
G02 X108.154928 Y274.989473 Z-5.300000 I-8.367767 J-19.972689
G02 X108.463927 Y258.260145 Z-5.300000 I-18.797271 J-8.714712
G02 X99.562754 Y242.302975 Z-5.300000 I-75.504045 J31.656207
G02 X80.162612 Y215.610994 Z-5.300000 I-1709.558334 J1222.137144
G03 X60.971746 Y188.945395 Z-5.300000 I1054.268727 J-778.981221
G03 X50.921787 Y170.734850 Z-5.300000 I79.744106 J-55.887280
G03 X49.482677 Y159.608649 Z-5.300000 I19.491351 J-8.177265
G03 X51.733707 Y156.700180 Z-5.300000 I3.673137 J0.517516
G01 X51.733707 Y156.700180 Z-5.300000
G01 X51.722107 Y156.700180 Z-5.300000
G00 Z5.000000

(End cutting path id: path842-7)


(Footer)
M5
G00 X0.0000 Y0.0000
M2
(Using default footer. To add your own footer create file "footer" in the output dir.)
(end)
%