%
(Header)
(Generated by gcodetools from Inkscape.)
(Using default header. To add your own header create file "header" in the output dir.)
M3
(Header end.)
G21 (All units in mm)

(Start cutting path id: path842)
(Change tool to Cylindrical cutter)

G00 Z5.000000
G00 X242.205389 Y11.506217

G01 Z-1.000000 F100.0(Penetrate)
G03 X245.143795 Y11.012857 Z-1.000000 I2.515290 J5.983714 F200.000000
G03 X247.763579 Y11.506217 Z-1.000000 I-0.720381 J11.027602
G01 X251.057669 Y11.988727 Z-1.000000
G01 X252.069089 Y9.000847 Z-1.000000
G02 X250.629454 Y6.998914 Z-1.000000 I-5.094866 J2.145230
G02 X247.893489 Y4.927317 Z-1.000000 I-15.272397 J17.327803
G02 X237.427481 Y0.558170 Z-1.000000 I-17.039995 J26.098303
G02 X223.545069 Y1.846647 Z-1.000000 I-4.895294 J22.687467
G02 X212.142559 Y13.734696 Z-1.000000 I8.004542 J19.090040
G02 X212.447249 Y28.422047 Z-1.000000 I18.749256 J6.957882
G02 X228.943393 Y53.771489 Z-1.000000 I78.032717 J-32.737627
G03 X257.033419 Y96.948347 Z-1.000000 I-104.736549 J98.865419
G03 X258.034105 Y105.527151 Z-1.000000 I-14.339031 J6.020360
G03 X255.159039 Y109.159677 Z-1.000000 I-4.728788 J-0.788694
G02 X253.724157 Y110.566315 Z-1.000000 I1.044278 J2.500411
G02 X253.702209 Y112.565107 Z-1.000000 I2.323341 J1.025029
G02 X259.386308 Y117.055402 Z-1.000000 I6.896965 J-2.887822
G02 X278.328999 Y114.829217 Z-1.000000 I5.599218 J-34.061183
G02 X287.351643 Y106.137645 Z-1.000000 I-6.694211 J-15.978151
G02 X287.598839 Y92.754187 Z-1.000000 I-15.037810 J-6.971764
G02 X280.477898 Y79.988448 Z-1.000000 I-60.403287 J25.324995
G02 X264.957786 Y58.634864 Z-1.000000 I-1367.648672 J977.711103
G03 X249.605096 Y37.302385 Z-1.000000 I843.414014 J-623.184202
G03 X241.565129 Y22.733947 Z-1.000000 I63.795297 J-44.709825
G03 X240.413840 Y13.832984 Z-1.000000 I15.593057 J-6.541811
G03 X242.214659 Y11.506217 Z-1.000000 I2.938501 J0.414013
G01 X242.214659 Y11.506217 Z-1.000000
G01 X242.205389 Y11.506217 Z-1.000000
G00 Z5.000000

(End cutting path id: path842)


(Start cutting path id: path842)
(Change tool to Cylindrical cutter)

G00 Z5.000000
G00 X242.205389 Y11.506217

G01 Z-2.000000 F100.0(Penetrate)
G03 X245.143795 Y11.012857 Z-2.000000 I2.515290 J5.983714 F200.000000
G03 X247.763579 Y11.506217 Z-2.000000 I-0.720381 J11.027602
G01 X251.057669 Y11.988727 Z-2.000000
G01 X252.069089 Y9.000847 Z-2.000000
G02 X250.629454 Y6.998914 Z-2.000000 I-5.094866 J2.145230
G02 X247.893489 Y4.927317 Z-2.000000 I-15.272397 J17.327803
G02 X237.427481 Y0.558170 Z-2.000000 I-17.039995 J26.098303
G02 X223.545069 Y1.846647 Z-2.000000 I-4.895294 J22.687467
G02 X212.142559 Y13.734696 Z-2.000000 I8.004542 J19.090040
G02 X212.447249 Y28.422047 Z-2.000000 I18.749256 J6.957882
G02 X228.943393 Y53.771489 Z-2.000000 I78.032717 J-32.737627
G03 X257.033419 Y96.948347 Z-2.000000 I-104.736549 J98.865419
G03 X258.034105 Y105.527151 Z-2.000000 I-14.339031 J6.020360
G03 X255.159039 Y109.159677 Z-2.000000 I-4.728788 J-0.788694
G02 X253.724157 Y110.566315 Z-2.000000 I1.044278 J2.500411
G02 X253.702209 Y112.565107 Z-2.000000 I2.323341 J1.025029
G02 X259.386308 Y117.055402 Z-2.000000 I6.896965 J-2.887822
G02 X278.328999 Y114.829217 Z-2.000000 I5.599218 J-34.061183
G02 X287.351643 Y106.137645 Z-2.000000 I-6.694211 J-15.978151
G02 X287.598839 Y92.754187 Z-2.000000 I-15.037810 J-6.971764
G02 X280.477898 Y79.988448 Z-2.000000 I-60.403287 J25.324995
G02 X264.957786 Y58.634864 Z-2.000000 I-1367.648672 J977.711103
G03 X249.605096 Y37.302385 Z-2.000000 I843.414014 J-623.184202
G03 X241.565129 Y22.733947 Z-2.000000 I63.795297 J-44.709825
G03 X240.413840 Y13.832984 Z-2.000000 I15.593057 J-6.541811
G03 X242.214659 Y11.506217 Z-2.000000 I2.938501 J0.414013
G01 X242.214659 Y11.506217 Z-2.000000
G01 X242.205389 Y11.506217 Z-2.000000
G00 Z5.000000

(End cutting path id: path842)


(Start cutting path id: path842)
(Change tool to Cylindrical cutter)

G00 Z5.000000
G00 X242.205389 Y11.506217

G01 Z-3.000000 F100.0(Penetrate)
G03 X245.143795 Y11.012857 Z-3.000000 I2.515290 J5.983714 F200.000000
G03 X247.763579 Y11.506217 Z-3.000000 I-0.720381 J11.027602
G01 X251.057669 Y11.988727 Z-3.000000
G01 X252.069089 Y9.000847 Z-3.000000
G02 X250.629454 Y6.998914 Z-3.000000 I-5.094866 J2.145230
G02 X247.893489 Y4.927317 Z-3.000000 I-15.272397 J17.327803
G02 X237.427481 Y0.558170 Z-3.000000 I-17.039995 J26.098303
G02 X223.545069 Y1.846647 Z-3.000000 I-4.895294 J22.687467
G02 X212.142559 Y13.734696 Z-3.000000 I8.004542 J19.090040
G02 X212.447249 Y28.422047 Z-3.000000 I18.749256 J6.957882
G02 X228.943393 Y53.771489 Z-3.000000 I78.032717 J-32.737627
G03 X257.033419 Y96.948347 Z-3.000000 I-104.736549 J98.865419
G03 X258.034105 Y105.527151 Z-3.000000 I-14.339031 J6.020360
G03 X255.159039 Y109.159677 Z-3.000000 I-4.728788 J-0.788694
G02 X253.724157 Y110.566315 Z-3.000000 I1.044278 J2.500411
G02 X253.702209 Y112.565107 Z-3.000000 I2.323341 J1.025029
G02 X259.386308 Y117.055402 Z-3.000000 I6.896965 J-2.887822
G02 X278.328999 Y114.829217 Z-3.000000 I5.599218 J-34.061183
G02 X287.351643 Y106.137645 Z-3.000000 I-6.694211 J-15.978151
G02 X287.598839 Y92.754187 Z-3.000000 I-15.037810 J-6.971764
G02 X280.477898 Y79.988448 Z-3.000000 I-60.403287 J25.324995
G02 X264.957786 Y58.634864 Z-3.000000 I-1367.648672 J977.711103
G03 X249.605096 Y37.302385 Z-3.000000 I843.414014 J-623.184202
G03 X241.565129 Y22.733947 Z-3.000000 I63.795297 J-44.709825
G03 X240.413840 Y13.832984 Z-3.000000 I15.593057 J-6.541811
G03 X242.214659 Y11.506217 Z-3.000000 I2.938501 J0.414013
G01 X242.214659 Y11.506217 Z-3.000000
G01 X242.205389 Y11.506217 Z-3.000000
G00 Z5.000000

(End cutting path id: path842)


(Start cutting path id: path842)
(Change tool to Cylindrical cutter)

G00 Z5.000000
G00 X242.205389 Y11.506217

G01 Z-4.000000 F100.0(Penetrate)
G03 X245.143795 Y11.012857 Z-4.000000 I2.515290 J5.983714 F200.000000
G03 X247.763579 Y11.506217 Z-4.000000 I-0.720381 J11.027602
G01 X251.057669 Y11.988727 Z-4.000000
G01 X252.069089 Y9.000847 Z-4.000000
G02 X250.629454 Y6.998914 Z-4.000000 I-5.094866 J2.145230
G02 X247.893489 Y4.927317 Z-4.000000 I-15.272397 J17.327803
G02 X237.427481 Y0.558170 Z-4.000000 I-17.039995 J26.098303
G02 X223.545069 Y1.846647 Z-4.000000 I-4.895294 J22.687467
G02 X212.142559 Y13.734696 Z-4.000000 I8.004542 J19.090040
G02 X212.447249 Y28.422047 Z-4.000000 I18.749256 J6.957882
G02 X228.943393 Y53.771489 Z-4.000000 I78.032717 J-32.737627
G03 X257.033419 Y96.948347 Z-4.000000 I-104.736549 J98.865419
G03 X258.034105 Y105.527151 Z-4.000000 I-14.339031 J6.020360
G03 X255.159039 Y109.159677 Z-4.000000 I-4.728788 J-0.788694
G02 X253.724157 Y110.566315 Z-4.000000 I1.044278 J2.500411
G02 X253.702209 Y112.565107 Z-4.000000 I2.323341 J1.025029
G02 X259.386308 Y117.055402 Z-4.000000 I6.896965 J-2.887822
G02 X278.328999 Y114.829217 Z-4.000000 I5.599218 J-34.061183
G02 X287.351643 Y106.137645 Z-4.000000 I-6.694211 J-15.978151
G02 X287.598839 Y92.754187 Z-4.000000 I-15.037810 J-6.971764
G02 X280.477898 Y79.988448 Z-4.000000 I-60.403287 J25.324995
G02 X264.957786 Y58.634864 Z-4.000000 I-1367.648672 J977.711103
G03 X249.605096 Y37.302385 Z-4.000000 I843.414014 J-623.184202
G03 X241.565129 Y22.733947 Z-4.000000 I63.795297 J-44.709825
G03 X240.413840 Y13.832984 Z-4.000000 I15.593057 J-6.541811
G03 X242.214659 Y11.506217 Z-4.000000 I2.938501 J0.414013
G01 X242.214659 Y11.506217 Z-4.000000
G01 X242.205389 Y11.506217 Z-4.000000
G00 Z5.000000

(End cutting path id: path842)


(Start cutting path id: path842)
(Change tool to Cylindrical cutter)

G00 Z5.000000
G00 X242.205389 Y11.506217

G01 Z-5.000000 F100.0(Penetrate)
G03 X245.143795 Y11.012857 Z-5.000000 I2.515290 J5.983714 F200.000000
G03 X247.763579 Y11.506217 Z-5.000000 I-0.720381 J11.027602
G01 X251.057669 Y11.988727 Z-5.000000
G01 X252.069089 Y9.000847 Z-5.000000
G02 X250.629454 Y6.998914 Z-5.000000 I-5.094866 J2.145230
G02 X247.893489 Y4.927317 Z-5.000000 I-15.272397 J17.327803
G02 X237.427481 Y0.558170 Z-5.000000 I-17.039995 J26.098303
G02 X223.545069 Y1.846647 Z-5.000000 I-4.895294 J22.687467
G02 X212.142559 Y13.734696 Z-5.000000 I8.004542 J19.090040
G02 X212.447249 Y28.422047 Z-5.000000 I18.749256 J6.957882
G02 X228.943393 Y53.771489 Z-5.000000 I78.032717 J-32.737627
G03 X257.033419 Y96.948347 Z-5.000000 I-104.736549 J98.865419
G03 X258.034105 Y105.527151 Z-5.000000 I-14.339031 J6.020360
G03 X255.159039 Y109.159677 Z-5.000000 I-4.728788 J-0.788694
G02 X253.724157 Y110.566315 Z-5.000000 I1.044278 J2.500411
G02 X253.702209 Y112.565107 Z-5.000000 I2.323341 J1.025029
G02 X259.386308 Y117.055402 Z-5.000000 I6.896965 J-2.887822
G02 X278.328999 Y114.829217 Z-5.000000 I5.599218 J-34.061183
G02 X287.351643 Y106.137645 Z-5.000000 I-6.694211 J-15.978151
G02 X287.598839 Y92.754187 Z-5.000000 I-15.037810 J-6.971764
G02 X280.477898 Y79.988448 Z-5.000000 I-60.403287 J25.324995
G02 X264.957786 Y58.634864 Z-5.000000 I-1367.648672 J977.711103
G03 X249.605096 Y37.302385 Z-5.000000 I843.414014 J-623.184202
G03 X241.565129 Y22.733947 Z-5.000000 I63.795297 J-44.709825
G03 X240.413840 Y13.832984 Z-5.000000 I15.593057 J-6.541811
G03 X242.214659 Y11.506217 Z-5.000000 I2.938501 J0.414013
G01 X242.214659 Y11.506217 Z-5.000000
G01 X242.205389 Y11.506217 Z-5.000000
G00 Z5.000000

(End cutting path id: path842)


(Start cutting path id: path842)
(Change tool to Cylindrical cutter)

G00 Z5.000000
G00 X242.205389 Y11.506217

G01 Z-6.000000 F100.0(Penetrate)
G03 X245.143795 Y11.012857 Z-6.000000 I2.515290 J5.983714 F200.000000
G03 X247.763579 Y11.506217 Z-6.000000 I-0.720381 J11.027602
G01 X251.057669 Y11.988727 Z-6.000000
G01 X252.069089 Y9.000847 Z-6.000000
G02 X250.629454 Y6.998914 Z-6.000000 I-5.094866 J2.145230
G02 X247.893489 Y4.927317 Z-6.000000 I-15.272397 J17.327803
G02 X237.427481 Y0.558170 Z-6.000000 I-17.039995 J26.098303
G02 X223.545069 Y1.846647 Z-6.000000 I-4.895294 J22.687467
G02 X212.142559 Y13.734696 Z-6.000000 I8.004542 J19.090040
G02 X212.447249 Y28.422047 Z-6.000000 I18.749256 J6.957882
G02 X228.943393 Y53.771489 Z-6.000000 I78.032717 J-32.737627
G03 X257.033419 Y96.948347 Z-6.000000 I-104.736549 J98.865419
G03 X258.034105 Y105.527151 Z-6.000000 I-14.339031 J6.020360
G03 X255.159039 Y109.159677 Z-6.000000 I-4.728788 J-0.788694
G02 X253.724157 Y110.566315 Z-6.000000 I1.044278 J2.500411
G02 X253.702209 Y112.565107 Z-6.000000 I2.323341 J1.025029
G02 X259.386308 Y117.055402 Z-6.000000 I6.896965 J-2.887822
G02 X278.328999 Y114.829217 Z-6.000000 I5.599218 J-34.061183
G02 X287.351643 Y106.137645 Z-6.000000 I-6.694211 J-15.978151
G02 X287.598839 Y92.754187 Z-6.000000 I-15.037810 J-6.971764
G02 X280.477898 Y79.988448 Z-6.000000 I-60.403287 J25.324995
G02 X264.957786 Y58.634864 Z-6.000000 I-1367.648672 J977.711103
G03 X249.605096 Y37.302385 Z-6.000000 I843.414014 J-623.184202
G03 X241.565129 Y22.733947 Z-6.000000 I63.795297 J-44.709825
G03 X240.413840 Y13.832984 Z-6.000000 I15.593057 J-6.541811
G03 X242.214659 Y11.506217 Z-6.000000 I2.938501 J0.414013
G01 X242.214659 Y11.506217 Z-6.000000
G01 X242.205389 Y11.506217 Z-6.000000
G00 Z5.000000

(End cutting path id: path842)


(Start cutting path id: path842)
(Change tool to Cylindrical cutter)

G00 Z5.000000
G00 X242.205389 Y11.506217

G01 Z-6.350000 F100.0(Penetrate)
G03 X245.143795 Y11.012857 Z-6.350000 I2.515290 J5.983714 F200.000000
G03 X247.763579 Y11.506217 Z-6.350000 I-0.720381 J11.027602
G01 X251.057669 Y11.988727 Z-6.350000
G01 X252.069089 Y9.000847 Z-6.350000
G02 X250.629454 Y6.998914 Z-6.350000 I-5.094866 J2.145230
G02 X247.893489 Y4.927317 Z-6.350000 I-15.272397 J17.327803
G02 X237.427481 Y0.558170 Z-6.350000 I-17.039995 J26.098303
G02 X223.545069 Y1.846647 Z-6.350000 I-4.895294 J22.687467
G02 X212.142559 Y13.734696 Z-6.350000 I8.004542 J19.090040
G02 X212.447249 Y28.422047 Z-6.350000 I18.749256 J6.957882
G02 X228.943393 Y53.771489 Z-6.350000 I78.032717 J-32.737627
G03 X257.033419 Y96.948347 Z-6.350000 I-104.736549 J98.865419
G03 X258.034105 Y105.527151 Z-6.350000 I-14.339031 J6.020360
G03 X255.159039 Y109.159677 Z-6.350000 I-4.728788 J-0.788694
G02 X253.724157 Y110.566315 Z-6.350000 I1.044278 J2.500411
G02 X253.702209 Y112.565107 Z-6.350000 I2.323341 J1.025029
G02 X259.386308 Y117.055402 Z-6.350000 I6.896965 J-2.887822
G02 X278.328999 Y114.829217 Z-6.350000 I5.599218 J-34.061183
G02 X287.351643 Y106.137645 Z-6.350000 I-6.694211 J-15.978151
G02 X287.598839 Y92.754187 Z-6.350000 I-15.037810 J-6.971764
G02 X280.477898 Y79.988448 Z-6.350000 I-60.403287 J25.324995
G02 X264.957786 Y58.634864 Z-6.350000 I-1367.648672 J977.711103
G03 X249.605096 Y37.302385 Z-6.350000 I843.414014 J-623.184202
G03 X241.565129 Y22.733947 Z-6.350000 I63.795297 J-44.709825
G03 X240.413840 Y13.832984 Z-6.350000 I15.593057 J-6.541811
G03 X242.214659 Y11.506217 Z-6.350000 I2.938501 J0.414013
G01 X242.214659 Y11.506217 Z-6.350000
G01 X242.205389 Y11.506217 Z-6.350000
G00 Z5.000000

(End cutting path id: path842)


(Start cutting path id: path840)
(Change tool to Cylindrical cutter)

G00 Z5.000000
G00 X207.665049 Y61.536477

G01 Z-1.000000 F100.0(Penetrate)
G02 X199.788184 Y45.478297 Z-1.000000 I-61.467308 J20.189999 F200.000000
G02 X189.353864 Y35.066628 Z-1.000000 I-32.028519 J21.663853
G02 X176.273188 Y30.074250 Z-1.000000 I-17.301323 J25.698983
G02 X158.689849 Y31.666997 Z-1.000000 I-5.343853 J38.859000
G02 X141.712881 Y45.569212 Z-1.000000 I9.497523 J28.915080
G02 X139.519189 Y67.614307 Z-1.000000 I23.808066 J13.500818
G02 X157.444281 Y90.261972 Z-1.000000 I39.753450 J-13.046441
G02 X192.039009 Y94.282497 Z-1.000000 I21.644308 J-35.393144
G02 X206.839228 Y80.708053 Z-1.000000 I-7.593548 J-23.134810
G02 X207.665049 Y61.536477 Z-1.000000 I-25.019372 J-10.681291
G01 X207.665049 Y61.536477 Z-1.000000
G00 Z5.000000

(End cutting path id: path840)


(Start cutting path id: path840)
(Change tool to Cylindrical cutter)

G00 Z5.000000
G00 X207.665049 Y61.536477

G01 Z-2.000000 F100.0(Penetrate)
G02 X199.788184 Y45.478297 Z-2.000000 I-61.467308 J20.189999 F200.000000
G02 X189.353864 Y35.066628 Z-2.000000 I-32.028519 J21.663853
G02 X176.273188 Y30.074250 Z-2.000000 I-17.301323 J25.698983
G02 X158.689849 Y31.666997 Z-2.000000 I-5.343853 J38.859000
G02 X141.712881 Y45.569212 Z-2.000000 I9.497523 J28.915080
G02 X139.519189 Y67.614307 Z-2.000000 I23.808066 J13.500818
G02 X157.444281 Y90.261972 Z-2.000000 I39.753450 J-13.046441
G02 X192.039009 Y94.282497 Z-2.000000 I21.644308 J-35.393144
G02 X206.839228 Y80.708053 Z-2.000000 I-7.593548 J-23.134810
G02 X207.665049 Y61.536477 Z-2.000000 I-25.019372 J-10.681291
G01 X207.665049 Y61.536477 Z-2.000000
G00 Z5.000000

(End cutting path id: path840)


(Start cutting path id: path840)
(Change tool to Cylindrical cutter)

G00 Z5.000000
G00 X207.665049 Y61.536477

G01 Z-3.000000 F100.0(Penetrate)
G02 X199.788184 Y45.478297 Z-3.000000 I-61.467308 J20.189999 F200.000000
G02 X189.353864 Y35.066628 Z-3.000000 I-32.028519 J21.663853
G02 X176.273188 Y30.074250 Z-3.000000 I-17.301323 J25.698983
G02 X158.689849 Y31.666997 Z-3.000000 I-5.343853 J38.859000
G02 X141.712881 Y45.569212 Z-3.000000 I9.497523 J28.915080
G02 X139.519189 Y67.614307 Z-3.000000 I23.808066 J13.500818
G02 X157.444281 Y90.261972 Z-3.000000 I39.753450 J-13.046441
G02 X192.039009 Y94.282497 Z-3.000000 I21.644308 J-35.393144
G02 X206.839228 Y80.708053 Z-3.000000 I-7.593548 J-23.134810
G02 X207.665049 Y61.536477 Z-3.000000 I-25.019372 J-10.681291
G01 X207.665049 Y61.536477 Z-3.000000
G00 Z5.000000

(End cutting path id: path840)


(Start cutting path id: path840)
(Change tool to Cylindrical cutter)

G00 Z5.000000
G00 X207.665049 Y61.536477

G01 Z-4.000000 F100.0(Penetrate)
G02 X199.788184 Y45.478297 Z-4.000000 I-61.467308 J20.189999 F200.000000
G02 X189.353864 Y35.066628 Z-4.000000 I-32.028519 J21.663853
G02 X176.273188 Y30.074250 Z-4.000000 I-17.301323 J25.698983
G02 X158.689849 Y31.666997 Z-4.000000 I-5.343853 J38.859000
G02 X141.712881 Y45.569212 Z-4.000000 I9.497523 J28.915080
G02 X139.519189 Y67.614307 Z-4.000000 I23.808066 J13.500818
G02 X157.444281 Y90.261972 Z-4.000000 I39.753450 J-13.046441
G02 X192.039009 Y94.282497 Z-4.000000 I21.644308 J-35.393144
G02 X206.839228 Y80.708053 Z-4.000000 I-7.593548 J-23.134810
G02 X207.665049 Y61.536477 Z-4.000000 I-25.019372 J-10.681291
G01 X207.665049 Y61.536477 Z-4.000000
G00 Z5.000000

(End cutting path id: path840)


(Start cutting path id: path840)
(Change tool to Cylindrical cutter)

G00 Z5.000000
G00 X207.665049 Y61.536477

G01 Z-5.000000 F100.0(Penetrate)
G02 X199.788184 Y45.478297 Z-5.000000 I-61.467308 J20.189999 F200.000000
G02 X189.353864 Y35.066628 Z-5.000000 I-32.028519 J21.663853
G02 X176.273188 Y30.074250 Z-5.000000 I-17.301323 J25.698983
G02 X158.689849 Y31.666997 Z-5.000000 I-5.343853 J38.859000
G02 X141.712881 Y45.569212 Z-5.000000 I9.497523 J28.915080
G02 X139.519189 Y67.614307 Z-5.000000 I23.808066 J13.500818
G02 X157.444281 Y90.261972 Z-5.000000 I39.753450 J-13.046441
G02 X192.039009 Y94.282497 Z-5.000000 I21.644308 J-35.393144
G02 X206.839228 Y80.708053 Z-5.000000 I-7.593548 J-23.134810
G02 X207.665049 Y61.536477 Z-5.000000 I-25.019372 J-10.681291
G01 X207.665049 Y61.536477 Z-5.000000
G00 Z5.000000

(End cutting path id: path840)


(Start cutting path id: path840)
(Change tool to Cylindrical cutter)

G00 Z5.000000
G00 X207.665049 Y61.536477

G01 Z-6.000000 F100.0(Penetrate)
G02 X199.788184 Y45.478297 Z-6.000000 I-61.467308 J20.189999 F200.000000
G02 X189.353864 Y35.066628 Z-6.000000 I-32.028519 J21.663853
G02 X176.273188 Y30.074250 Z-6.000000 I-17.301323 J25.698983
G02 X158.689849 Y31.666997 Z-6.000000 I-5.343853 J38.859000
G02 X141.712881 Y45.569212 Z-6.000000 I9.497523 J28.915080
G02 X139.519189 Y67.614307 Z-6.000000 I23.808066 J13.500818
G02 X157.444281 Y90.261972 Z-6.000000 I39.753450 J-13.046441
G02 X192.039009 Y94.282497 Z-6.000000 I21.644308 J-35.393144
G02 X206.839228 Y80.708053 Z-6.000000 I-7.593548 J-23.134810
G02 X207.665049 Y61.536477 Z-6.000000 I-25.019372 J-10.681291
G01 X207.665049 Y61.536477 Z-6.000000
G00 Z5.000000

(End cutting path id: path840)


(Start cutting path id: path840)
(Change tool to Cylindrical cutter)

G00 Z5.000000
G00 X207.665049 Y61.536477

G01 Z-6.350000 F100.0(Penetrate)
G02 X199.788184 Y45.478297 Z-6.350000 I-61.467308 J20.189999 F200.000000
G02 X189.353864 Y35.066628 Z-6.350000 I-32.028519 J21.663853
G02 X176.273188 Y30.074250 Z-6.350000 I-17.301323 J25.698983
G02 X158.689849 Y31.666997 Z-6.350000 I-5.343853 J38.859000
G02 X141.712881 Y45.569212 Z-6.350000 I9.497523 J28.915080
G02 X139.519189 Y67.614307 Z-6.350000 I23.808066 J13.500818
G02 X157.444281 Y90.261972 Z-6.350000 I39.753450 J-13.046441
G02 X192.039009 Y94.282497 Z-6.350000 I21.644308 J-35.393144
G02 X206.839228 Y80.708053 Z-6.350000 I-7.593548 J-23.134810
G02 X207.665049 Y61.536477 Z-6.350000 I-25.019372 J-10.681291
G01 X207.665049 Y61.536477 Z-6.350000
G00 Z5.000000

(End cutting path id: path840)


(Start cutting path id: path840)
(Change tool to Cylindrical cutter)

G00 Z5.000000
G00 X187.111799 Y64.663547

G01 Z-1.000000 F100.0(Penetrate)
G02 X182.892570 Y70.807674 Z-1.000000 I10.509093 J11.737448 F200.000000
G02 X182.806289 Y74.675717 Z-1.000000 I5.413143 J2.055729
G02 X187.128315 Y80.373570 Z-1.000000 I10.426046 J-3.420397
G03 X188.447989 Y82.108287 Z-1.000000 I-1.867938 J2.790347
G01 X187.585029 Y83.750697 Z-1.000000
G03 X186.444138 Y83.853970 Z-1.000000 I-0.801469 J-2.500558
G03 X181.284509 Y82.201077 Z-1.000000 I1.951631 J-14.971692
G03 X175.384051 Y77.115078 Z-1.000000 I7.824877 J-15.043604
G03 X167.653479 Y62.000437 Z-1.000000 I44.546759 J-32.318265
G03 X167.118546 Y50.051605 Z-1.000000 I21.139699 J-6.932787
G03 X172.274489 Y44.416507 Z-1.000000 I7.572750 J1.752521
G03 X181.779060 Y46.252779 Z-1.000000 I3.103150 J9.454088
G03 X188.178899 Y55.718477 Z-1.000000 I-13.419330 J15.969264
G03 X188.838523 Y60.973204 Z-1.000000 I-13.124196 J4.316241
G03 X187.121079 Y64.663547 Z-1.000000 I-5.650129 J-0.384695
G01 X187.111799 Y64.663547 Z-1.000000
G00 Z5.000000

(End cutting path id: path840)


(Start cutting path id: path840)
(Change tool to Cylindrical cutter)

G00 Z5.000000
G00 X187.111799 Y64.663547

G01 Z-2.000000 F100.0(Penetrate)
G02 X182.892570 Y70.807674 Z-2.000000 I10.509093 J11.737448 F200.000000
G02 X182.806289 Y74.675717 Z-2.000000 I5.413143 J2.055729
G02 X187.128315 Y80.373570 Z-2.000000 I10.426046 J-3.420397
G03 X188.447989 Y82.108287 Z-2.000000 I-1.867938 J2.790347
G01 X187.585029 Y83.750697 Z-2.000000
G03 X186.444138 Y83.853970 Z-2.000000 I-0.801469 J-2.500558
G03 X181.284509 Y82.201077 Z-2.000000 I1.951631 J-14.971692
G03 X175.384051 Y77.115078 Z-2.000000 I7.824877 J-15.043604
G03 X167.653479 Y62.000437 Z-2.000000 I44.546759 J-32.318265
G03 X167.118546 Y50.051605 Z-2.000000 I21.139699 J-6.932787
G03 X172.274489 Y44.416507 Z-2.000000 I7.572750 J1.752521
G03 X181.779060 Y46.252779 Z-2.000000 I3.103150 J9.454088
G03 X188.178899 Y55.718477 Z-2.000000 I-13.419330 J15.969264
G03 X188.838523 Y60.973204 Z-2.000000 I-13.124196 J4.316241
G03 X187.121079 Y64.663547 Z-2.000000 I-5.650129 J-0.384695
G01 X187.111799 Y64.663547 Z-2.000000
G00 Z5.000000

(End cutting path id: path840)


(Start cutting path id: path840)
(Change tool to Cylindrical cutter)

G00 Z5.000000
G00 X187.111799 Y64.663547

G01 Z-3.000000 F100.0(Penetrate)
G02 X182.892570 Y70.807674 Z-3.000000 I10.509093 J11.737448 F200.000000
G02 X182.806289 Y74.675717 Z-3.000000 I5.413143 J2.055729
G02 X187.128315 Y80.373570 Z-3.000000 I10.426046 J-3.420397
G03 X188.447989 Y82.108287 Z-3.000000 I-1.867938 J2.790347
G01 X187.585029 Y83.750697 Z-3.000000
G03 X186.444138 Y83.853970 Z-3.000000 I-0.801469 J-2.500558
G03 X181.284509 Y82.201077 Z-3.000000 I1.951631 J-14.971692
G03 X175.384051 Y77.115078 Z-3.000000 I7.824877 J-15.043604
G03 X167.653479 Y62.000437 Z-3.000000 I44.546759 J-32.318265
G03 X167.118546 Y50.051605 Z-3.000000 I21.139699 J-6.932787
G03 X172.274489 Y44.416507 Z-3.000000 I7.572750 J1.752521
G03 X181.779060 Y46.252779 Z-3.000000 I3.103150 J9.454088
G03 X188.178899 Y55.718477 Z-3.000000 I-13.419330 J15.969264
G03 X188.838523 Y60.973204 Z-3.000000 I-13.124196 J4.316241
G03 X187.121079 Y64.663547 Z-3.000000 I-5.650129 J-0.384695
G01 X187.111799 Y64.663547 Z-3.000000
G00 Z5.000000

(End cutting path id: path840)


(Start cutting path id: path840)
(Change tool to Cylindrical cutter)

G00 Z5.000000
G00 X187.111799 Y64.663547

G01 Z-4.000000 F100.0(Penetrate)
G02 X182.892570 Y70.807674 Z-4.000000 I10.509093 J11.737448 F200.000000
G02 X182.806289 Y74.675717 Z-4.000000 I5.413143 J2.055729
G02 X187.128315 Y80.373570 Z-4.000000 I10.426046 J-3.420397
G03 X188.447989 Y82.108287 Z-4.000000 I-1.867938 J2.790347
G01 X187.585029 Y83.750697 Z-4.000000
G03 X186.444138 Y83.853970 Z-4.000000 I-0.801469 J-2.500558
G03 X181.284509 Y82.201077 Z-4.000000 I1.951631 J-14.971692
G03 X175.384051 Y77.115078 Z-4.000000 I7.824877 J-15.043604
G03 X167.653479 Y62.000437 Z-4.000000 I44.546759 J-32.318265
G03 X167.118546 Y50.051605 Z-4.000000 I21.139699 J-6.932787
G03 X172.274489 Y44.416507 Z-4.000000 I7.572750 J1.752521
G03 X181.779060 Y46.252779 Z-4.000000 I3.103150 J9.454088
G03 X188.178899 Y55.718477 Z-4.000000 I-13.419330 J15.969264
G03 X188.838523 Y60.973204 Z-4.000000 I-13.124196 J4.316241
G03 X187.121079 Y64.663547 Z-4.000000 I-5.650129 J-0.384695
G01 X187.111799 Y64.663547 Z-4.000000
G00 Z5.000000

(End cutting path id: path840)


(Start cutting path id: path840)
(Change tool to Cylindrical cutter)

G00 Z5.000000
G00 X187.111799 Y64.663547

G01 Z-5.000000 F100.0(Penetrate)
G02 X182.892570 Y70.807674 Z-5.000000 I10.509093 J11.737448 F200.000000
G02 X182.806289 Y74.675717 Z-5.000000 I5.413143 J2.055729
G02 X187.128315 Y80.373570 Z-5.000000 I10.426046 J-3.420397
G03 X188.447989 Y82.108287 Z-5.000000 I-1.867938 J2.790347
G01 X187.585029 Y83.750697 Z-5.000000
G03 X186.444138 Y83.853970 Z-5.000000 I-0.801469 J-2.500558
G03 X181.284509 Y82.201077 Z-5.000000 I1.951631 J-14.971692
G03 X175.384051 Y77.115078 Z-5.000000 I7.824877 J-15.043604
G03 X167.653479 Y62.000437 Z-5.000000 I44.546759 J-32.318265
G03 X167.118546 Y50.051605 Z-5.000000 I21.139699 J-6.932787
G03 X172.274489 Y44.416507 Z-5.000000 I7.572750 J1.752521
G03 X181.779060 Y46.252779 Z-5.000000 I3.103150 J9.454088
G03 X188.178899 Y55.718477 Z-5.000000 I-13.419330 J15.969264
G03 X188.838523 Y60.973204 Z-5.000000 I-13.124196 J4.316241
G03 X187.121079 Y64.663547 Z-5.000000 I-5.650129 J-0.384695
G01 X187.111799 Y64.663547 Z-5.000000
G00 Z5.000000

(End cutting path id: path840)


(Start cutting path id: path840)
(Change tool to Cylindrical cutter)

G00 Z5.000000
G00 X187.111799 Y64.663547

G01 Z-6.000000 F100.0(Penetrate)
G02 X182.892570 Y70.807674 Z-6.000000 I10.509093 J11.737448 F200.000000
G02 X182.806289 Y74.675717 Z-6.000000 I5.413143 J2.055729
G02 X187.128315 Y80.373570 Z-6.000000 I10.426046 J-3.420397
G03 X188.447989 Y82.108287 Z-6.000000 I-1.867938 J2.790347
G01 X187.585029 Y83.750697 Z-6.000000
G03 X186.444138 Y83.853970 Z-6.000000 I-0.801469 J-2.500558
G03 X181.284509 Y82.201077 Z-6.000000 I1.951631 J-14.971692
G03 X175.384051 Y77.115078 Z-6.000000 I7.824877 J-15.043604
G03 X167.653479 Y62.000437 Z-6.000000 I44.546759 J-32.318265
G03 X167.118546 Y50.051605 Z-6.000000 I21.139699 J-6.932787
G03 X172.274489 Y44.416507 Z-6.000000 I7.572750 J1.752521
G03 X181.779060 Y46.252779 Z-6.000000 I3.103150 J9.454088
G03 X188.178899 Y55.718477 Z-6.000000 I-13.419330 J15.969264
G03 X188.838523 Y60.973204 Z-6.000000 I-13.124196 J4.316241
G03 X187.121079 Y64.663547 Z-6.000000 I-5.650129 J-0.384695
G01 X187.111799 Y64.663547 Z-6.000000
G00 Z5.000000

(End cutting path id: path840)


(Start cutting path id: path840)
(Change tool to Cylindrical cutter)

G00 Z5.000000
G00 X187.111799 Y64.663547

G01 Z-6.350000 F100.0(Penetrate)
G02 X182.892570 Y70.807674 Z-6.350000 I10.509093 J11.737448 F200.000000
G02 X182.806289 Y74.675717 Z-6.350000 I5.413143 J2.055729
G02 X187.128315 Y80.373570 Z-6.350000 I10.426046 J-3.420397
G03 X188.447989 Y82.108287 Z-6.350000 I-1.867938 J2.790347
G01 X187.585029 Y83.750697 Z-6.350000
G03 X186.444138 Y83.853970 Z-6.350000 I-0.801469 J-2.500558
G03 X181.284509 Y82.201077 Z-6.350000 I1.951631 J-14.971692
G03 X175.384051 Y77.115078 Z-6.350000 I7.824877 J-15.043604
G03 X167.653479 Y62.000437 Z-6.350000 I44.546759 J-32.318265
G03 X167.118546 Y50.051605 Z-6.350000 I21.139699 J-6.932787
G03 X172.274489 Y44.416507 Z-6.350000 I7.572750 J1.752521
G03 X181.779060 Y46.252779 Z-6.350000 I3.103150 J9.454088
G03 X188.178899 Y55.718477 Z-6.350000 I-13.419330 J15.969264
G03 X188.838523 Y60.973204 Z-6.350000 I-13.124196 J4.316241
G03 X187.121079 Y64.663547 Z-6.350000 I-5.650129 J-0.384695
G01 X187.111799 Y64.663547 Z-6.350000
G00 Z5.000000

(End cutting path id: path840)


(Start cutting path id: path830)
(Change tool to Cylindrical cutter)

G00 Z5.000000
G00 X116.369769 Y73.869147

G01 Z-1.000000 F100.0(Penetrate)
G02 X119.001797 Y56.177060 Z-1.000000 I-62.096573 J-18.279847 F200.000000
G02 X116.323376 Y41.682198 Z-1.000000 I-38.660489 J-0.351052
G02 X108.389282 Y30.148237 Z-1.000000 I-28.818085 J11.327796
G02 X93.004949 Y21.479237 Z-1.000000 I-26.451508 J28.956532
G02 X71.140322 Y23.286727 Z-1.000000 I-8.595985 J29.165564
G02 X56.816381 Y40.195217 Z-1.000000 I11.954638 J24.648782
G02 X58.721105 Y69.015419 Z-1.000000 I40.149334 J11.819577
G02 X84.913559 Y91.963427 Z-1.000000 I37.915569 J-16.854359
G02 X104.800829 Y89.190621 Z-1.000000 I6.881490 J-23.348886
G02 X116.369769 Y73.869147 Z-1.000000 I-14.544852 J-23.011003
G01 X116.369769 Y73.869147 Z-1.000000
G00 Z5.000000

(End cutting path id: path830)


(Start cutting path id: path830)
(Change tool to Cylindrical cutter)

G00 Z5.000000
G00 X116.369769 Y73.869147

G01 Z-2.000000 F100.0(Penetrate)
G02 X119.001797 Y56.177060 Z-2.000000 I-62.096573 J-18.279847 F200.000000
G02 X116.323376 Y41.682198 Z-2.000000 I-38.660489 J-0.351052
G02 X108.389282 Y30.148237 Z-2.000000 I-28.818085 J11.327796
G02 X93.004949 Y21.479237 Z-2.000000 I-26.451508 J28.956532
G02 X71.140322 Y23.286727 Z-2.000000 I-8.595985 J29.165564
G02 X56.816381 Y40.195217 Z-2.000000 I11.954638 J24.648782
G02 X58.721105 Y69.015419 Z-2.000000 I40.149334 J11.819577
G02 X84.913559 Y91.963427 Z-2.000000 I37.915569 J-16.854359
G02 X104.800829 Y89.190621 Z-2.000000 I6.881490 J-23.348886
G02 X116.369769 Y73.869147 Z-2.000000 I-14.544852 J-23.011003
G01 X116.369769 Y73.869147 Z-2.000000
G00 Z5.000000

(End cutting path id: path830)


(Start cutting path id: path830)
(Change tool to Cylindrical cutter)

G00 Z5.000000
G00 X116.369769 Y73.869147

G01 Z-3.000000 F100.0(Penetrate)
G02 X119.001797 Y56.177060 Z-3.000000 I-62.096573 J-18.279847 F200.000000
G02 X116.323376 Y41.682198 Z-3.000000 I-38.660489 J-0.351052
G02 X108.389282 Y30.148237 Z-3.000000 I-28.818085 J11.327796
G02 X93.004949 Y21.479237 Z-3.000000 I-26.451508 J28.956532
G02 X71.140322 Y23.286727 Z-3.000000 I-8.595985 J29.165564
G02 X56.816381 Y40.195217 Z-3.000000 I11.954638 J24.648782
G02 X58.721105 Y69.015419 Z-3.000000 I40.149334 J11.819577
G02 X84.913559 Y91.963427 Z-3.000000 I37.915569 J-16.854359
G02 X104.800829 Y89.190621 Z-3.000000 I6.881490 J-23.348886
G02 X116.369769 Y73.869147 Z-3.000000 I-14.544852 J-23.011003
G01 X116.369769 Y73.869147 Z-3.000000
G00 Z5.000000

(End cutting path id: path830)


(Start cutting path id: path830)
(Change tool to Cylindrical cutter)

G00 Z5.000000
G00 X116.369769 Y73.869147

G01 Z-4.000000 F100.0(Penetrate)
G02 X119.001797 Y56.177060 Z-4.000000 I-62.096573 J-18.279847 F200.000000
G02 X116.323376 Y41.682198 Z-4.000000 I-38.660489 J-0.351052
G02 X108.389282 Y30.148237 Z-4.000000 I-28.818085 J11.327796
G02 X93.004949 Y21.479237 Z-4.000000 I-26.451508 J28.956532
G02 X71.140322 Y23.286727 Z-4.000000 I-8.595985 J29.165564
G02 X56.816381 Y40.195217 Z-4.000000 I11.954638 J24.648782
G02 X58.721105 Y69.015419 Z-4.000000 I40.149334 J11.819577
G02 X84.913559 Y91.963427 Z-4.000000 I37.915569 J-16.854359
G02 X104.800829 Y89.190621 Z-4.000000 I6.881490 J-23.348886
G02 X116.369769 Y73.869147 Z-4.000000 I-14.544852 J-23.011003
G01 X116.369769 Y73.869147 Z-4.000000
G00 Z5.000000

(End cutting path id: path830)


(Start cutting path id: path830)
(Change tool to Cylindrical cutter)

G00 Z5.000000
G00 X116.369769 Y73.869147

G01 Z-5.000000 F100.0(Penetrate)
G02 X119.001797 Y56.177060 Z-5.000000 I-62.096573 J-18.279847 F200.000000
G02 X116.323376 Y41.682198 Z-5.000000 I-38.660489 J-0.351052
G02 X108.389282 Y30.148237 Z-5.000000 I-28.818085 J11.327796
G02 X93.004949 Y21.479237 Z-5.000000 I-26.451508 J28.956532
G02 X71.140322 Y23.286727 Z-5.000000 I-8.595985 J29.165564
G02 X56.816381 Y40.195217 Z-5.000000 I11.954638 J24.648782
G02 X58.721105 Y69.015419 Z-5.000000 I40.149334 J11.819577
G02 X84.913559 Y91.963427 Z-5.000000 I37.915569 J-16.854359
G02 X104.800829 Y89.190621 Z-5.000000 I6.881490 J-23.348886
G02 X116.369769 Y73.869147 Z-5.000000 I-14.544852 J-23.011003
G01 X116.369769 Y73.869147 Z-5.000000
G00 Z5.000000

(End cutting path id: path830)


(Start cutting path id: path830)
(Change tool to Cylindrical cutter)

G00 Z5.000000
G00 X116.369769 Y73.869147

G01 Z-6.000000 F100.0(Penetrate)
G02 X119.001797 Y56.177060 Z-6.000000 I-62.096573 J-18.279847 F200.000000
G02 X116.323376 Y41.682198 Z-6.000000 I-38.660489 J-0.351052
G02 X108.389282 Y30.148237 Z-6.000000 I-28.818085 J11.327796
G02 X93.004949 Y21.479237 Z-6.000000 I-26.451508 J28.956532
G02 X71.140322 Y23.286727 Z-6.000000 I-8.595985 J29.165564
G02 X56.816381 Y40.195217 Z-6.000000 I11.954638 J24.648782
G02 X58.721105 Y69.015419 Z-6.000000 I40.149334 J11.819577
G02 X84.913559 Y91.963427 Z-6.000000 I37.915569 J-16.854359
G02 X104.800829 Y89.190621 Z-6.000000 I6.881490 J-23.348886
G02 X116.369769 Y73.869147 Z-6.000000 I-14.544852 J-23.011003
G01 X116.369769 Y73.869147 Z-6.000000
G00 Z5.000000

(End cutting path id: path830)


(Start cutting path id: path830)
(Change tool to Cylindrical cutter)

G00 Z5.000000
G00 X116.369769 Y73.869147

G01 Z-6.350000 F100.0(Penetrate)
G02 X119.001797 Y56.177060 Z-6.350000 I-62.096573 J-18.279847 F200.000000
G02 X116.323376 Y41.682198 Z-6.350000 I-38.660489 J-0.351052
G02 X108.389282 Y30.148237 Z-6.350000 I-28.818085 J11.327796
G02 X93.004949 Y21.479237 Z-6.350000 I-26.451508 J28.956532
G02 X71.140322 Y23.286727 Z-6.350000 I-8.595985 J29.165564
G02 X56.816381 Y40.195217 Z-6.350000 I11.954638 J24.648782
G02 X58.721105 Y69.015419 Z-6.350000 I40.149334 J11.819577
G02 X84.913559 Y91.963427 Z-6.350000 I37.915569 J-16.854359
G02 X104.800829 Y89.190621 Z-6.350000 I6.881490 J-23.348886
G02 X116.369769 Y73.869147 Z-6.350000 I-14.544852 J-23.011003
G01 X116.369769 Y73.869147 Z-6.350000
G00 Z5.000000

(End cutting path id: path830)


(Start cutting path id: path830)
(Change tool to Cylindrical cutter)

G00 Z5.000000
G00 X97.672349 Y64.775607

G01 Z-1.000000 F100.0(Penetrate)
G02 X90.708985 Y67.443167 Z-1.000000 I2.005656 J15.657854 F200.000000
G02 X88.439619 Y70.575057 Z-1.000000 I3.299662 J4.779070
G02 X88.761280 Y77.713944 Z-1.000000 I10.502530 J3.103472
G03 X88.866459 Y79.891297 Z-1.000000 I-3.135085 J1.242661
G01 X87.224059 Y80.754257 Z-1.000000
G03 X86.221503 Y80.194834 Z-1.000000 I0.717174 J-2.463331
G03 X82.918549 Y75.901277 Z-1.000000 I10.115663 J-11.199020
G03 X80.948655 Y68.365903 Z-1.000000 I15.019686 J-7.951611
G03 X83.169079 Y51.534307 Z-1.000000 I54.739065 J-1.341080
G03 X89.508934 Y41.395666 Z-1.000000 I21.347815 J6.297604
G03 X96.957849 Y39.675587 Z-1.000000 I5.250993 J5.750722
G03 X103.737361 Y46.581136 Z-1.000000 I-2.812640 J9.541967
G03 X103.629539 Y58.011127 Z-1.000000 I-20.104855 J5.525850
G03 X101.189545 Y62.712862 Z-1.000000 I-13.244160 J-3.889146
G03 X97.681629 Y64.775607 Z-1.000000 I-4.433285 J-3.525106
G01 X97.672349 Y64.775607 Z-1.000000
G00 Z5.000000

(End cutting path id: path830)


(Start cutting path id: path830)
(Change tool to Cylindrical cutter)

G00 Z5.000000
G00 X97.672349 Y64.775607

G01 Z-2.000000 F100.0(Penetrate)
G02 X90.708985 Y67.443167 Z-2.000000 I2.005656 J15.657854 F200.000000
G02 X88.439619 Y70.575057 Z-2.000000 I3.299662 J4.779070
G02 X88.761280 Y77.713944 Z-2.000000 I10.502530 J3.103472
G03 X88.866459 Y79.891297 Z-2.000000 I-3.135085 J1.242661
G01 X87.224059 Y80.754257 Z-2.000000
G03 X86.221503 Y80.194834 Z-2.000000 I0.717174 J-2.463331
G03 X82.918549 Y75.901277 Z-2.000000 I10.115663 J-11.199020
G03 X80.948655 Y68.365903 Z-2.000000 I15.019686 J-7.951611
G03 X83.169079 Y51.534307 Z-2.000000 I54.739065 J-1.341080
G03 X89.508934 Y41.395666 Z-2.000000 I21.347815 J6.297604
G03 X96.957849 Y39.675587 Z-2.000000 I5.250993 J5.750722
G03 X103.737361 Y46.581136 Z-2.000000 I-2.812640 J9.541967
G03 X103.629539 Y58.011127 Z-2.000000 I-20.104855 J5.525850
G03 X101.189545 Y62.712862 Z-2.000000 I-13.244160 J-3.889146
G03 X97.681629 Y64.775607 Z-2.000000 I-4.433285 J-3.525106
G01 X97.672349 Y64.775607 Z-2.000000
G00 Z5.000000

(End cutting path id: path830)


(Start cutting path id: path830)
(Change tool to Cylindrical cutter)

G00 Z5.000000
G00 X97.672349 Y64.775607

G01 Z-3.000000 F100.0(Penetrate)
G02 X90.708985 Y67.443167 Z-3.000000 I2.005656 J15.657854 F200.000000
G02 X88.439619 Y70.575057 Z-3.000000 I3.299662 J4.779070
G02 X88.761280 Y77.713944 Z-3.000000 I10.502530 J3.103472
G03 X88.866459 Y79.891297 Z-3.000000 I-3.135085 J1.242661
G01 X87.224059 Y80.754257 Z-3.000000
G03 X86.221503 Y80.194834 Z-3.000000 I0.717174 J-2.463331
G03 X82.918549 Y75.901277 Z-3.000000 I10.115663 J-11.199020
G03 X80.948655 Y68.365903 Z-3.000000 I15.019686 J-7.951611
G03 X83.169079 Y51.534307 Z-3.000000 I54.739065 J-1.341080
G03 X89.508934 Y41.395666 Z-3.000000 I21.347815 J6.297604
G03 X96.957849 Y39.675587 Z-3.000000 I5.250993 J5.750722
G03 X103.737361 Y46.581136 Z-3.000000 I-2.812640 J9.541967
G03 X103.629539 Y58.011127 Z-3.000000 I-20.104855 J5.525850
G03 X101.189545 Y62.712862 Z-3.000000 I-13.244160 J-3.889146
G03 X97.681629 Y64.775607 Z-3.000000 I-4.433285 J-3.525106
G01 X97.672349 Y64.775607 Z-3.000000
G00 Z5.000000

(End cutting path id: path830)


(Start cutting path id: path830)
(Change tool to Cylindrical cutter)

G00 Z5.000000
G00 X97.672349 Y64.775607

G01 Z-4.000000 F100.0(Penetrate)
G02 X90.708985 Y67.443167 Z-4.000000 I2.005656 J15.657854 F200.000000
G02 X88.439619 Y70.575057 Z-4.000000 I3.299662 J4.779070
G02 X88.761280 Y77.713944 Z-4.000000 I10.502530 J3.103472
G03 X88.866459 Y79.891297 Z-4.000000 I-3.135085 J1.242661
G01 X87.224059 Y80.754257 Z-4.000000
G03 X86.221503 Y80.194834 Z-4.000000 I0.717174 J-2.463331
G03 X82.918549 Y75.901277 Z-4.000000 I10.115663 J-11.199020
G03 X80.948655 Y68.365903 Z-4.000000 I15.019686 J-7.951611
G03 X83.169079 Y51.534307 Z-4.000000 I54.739065 J-1.341080
G03 X89.508934 Y41.395666 Z-4.000000 I21.347815 J6.297604
G03 X96.957849 Y39.675587 Z-4.000000 I5.250993 J5.750722
G03 X103.737361 Y46.581136 Z-4.000000 I-2.812640 J9.541967
G03 X103.629539 Y58.011127 Z-4.000000 I-20.104855 J5.525850
G03 X101.189545 Y62.712862 Z-4.000000 I-13.244160 J-3.889146
G03 X97.681629 Y64.775607 Z-4.000000 I-4.433285 J-3.525106
G01 X97.672349 Y64.775607 Z-4.000000
G00 Z5.000000

(End cutting path id: path830)


(Start cutting path id: path830)
(Change tool to Cylindrical cutter)

G00 Z5.000000
G00 X97.672349 Y64.775607

G01 Z-5.000000 F100.0(Penetrate)
G02 X90.708985 Y67.443167 Z-5.000000 I2.005656 J15.657854 F200.000000
G02 X88.439619 Y70.575057 Z-5.000000 I3.299662 J4.779070
G02 X88.761280 Y77.713944 Z-5.000000 I10.502530 J3.103472
G03 X88.866459 Y79.891297 Z-5.000000 I-3.135085 J1.242661
G01 X87.224059 Y80.754257 Z-5.000000
G03 X86.221503 Y80.194834 Z-5.000000 I0.717174 J-2.463331
G03 X82.918549 Y75.901277 Z-5.000000 I10.115663 J-11.199020
G03 X80.948655 Y68.365903 Z-5.000000 I15.019686 J-7.951611
G03 X83.169079 Y51.534307 Z-5.000000 I54.739065 J-1.341080
G03 X89.508934 Y41.395666 Z-5.000000 I21.347815 J6.297604
G03 X96.957849 Y39.675587 Z-5.000000 I5.250993 J5.750722
G03 X103.737361 Y46.581136 Z-5.000000 I-2.812640 J9.541967
G03 X103.629539 Y58.011127 Z-5.000000 I-20.104855 J5.525850
G03 X101.189545 Y62.712862 Z-5.000000 I-13.244160 J-3.889146
G03 X97.681629 Y64.775607 Z-5.000000 I-4.433285 J-3.525106
G01 X97.672349 Y64.775607 Z-5.000000
G00 Z5.000000

(End cutting path id: path830)


(Start cutting path id: path830)
(Change tool to Cylindrical cutter)

G00 Z5.000000
G00 X97.672349 Y64.775607

G01 Z-6.000000 F100.0(Penetrate)
G02 X90.708985 Y67.443167 Z-6.000000 I2.005656 J15.657854 F200.000000
G02 X88.439619 Y70.575057 Z-6.000000 I3.299662 J4.779070
G02 X88.761280 Y77.713944 Z-6.000000 I10.502530 J3.103472
G03 X88.866459 Y79.891297 Z-6.000000 I-3.135085 J1.242661
G01 X87.224059 Y80.754257 Z-6.000000
G03 X86.221503 Y80.194834 Z-6.000000 I0.717174 J-2.463331
G03 X82.918549 Y75.901277 Z-6.000000 I10.115663 J-11.199020
G03 X80.948655 Y68.365903 Z-6.000000 I15.019686 J-7.951611
G03 X83.169079 Y51.534307 Z-6.000000 I54.739065 J-1.341080
G03 X89.508934 Y41.395666 Z-6.000000 I21.347815 J6.297604
G03 X96.957849 Y39.675587 Z-6.000000 I5.250993 J5.750722
G03 X103.737361 Y46.581136 Z-6.000000 I-2.812640 J9.541967
G03 X103.629539 Y58.011127 Z-6.000000 I-20.104855 J5.525850
G03 X101.189545 Y62.712862 Z-6.000000 I-13.244160 J-3.889146
G03 X97.681629 Y64.775607 Z-6.000000 I-4.433285 J-3.525106
G01 X97.672349 Y64.775607 Z-6.000000
G00 Z5.000000

(End cutting path id: path830)


(Start cutting path id: path830)
(Change tool to Cylindrical cutter)

G00 Z5.000000
G00 X97.672349 Y64.775607

G01 Z-6.350000 F100.0(Penetrate)
G02 X90.708985 Y67.443167 Z-6.350000 I2.005656 J15.657854 F200.000000
G02 X88.439619 Y70.575057 Z-6.350000 I3.299662 J4.779070
G02 X88.761280 Y77.713944 Z-6.350000 I10.502530 J3.103472
G03 X88.866459 Y79.891297 Z-6.350000 I-3.135085 J1.242661
G01 X87.224059 Y80.754257 Z-6.350000
G03 X86.221503 Y80.194834 Z-6.350000 I0.717174 J-2.463331
G03 X82.918549 Y75.901277 Z-6.350000 I10.115663 J-11.199020
G03 X80.948655 Y68.365903 Z-6.350000 I15.019686 J-7.951611
G03 X83.169079 Y51.534307 Z-6.350000 I54.739065 J-1.341080
G03 X89.508934 Y41.395666 Z-6.350000 I21.347815 J6.297604
G03 X96.957849 Y39.675587 Z-6.350000 I5.250993 J5.750722
G03 X103.737361 Y46.581136 Z-6.350000 I-2.812640 J9.541967
G03 X103.629539 Y58.011127 Z-6.350000 I-20.104855 J5.525850
G03 X101.189545 Y62.712862 Z-6.350000 I-13.244160 J-3.889146
G03 X97.681629 Y64.775607 Z-6.350000 I-4.433285 J-3.525106
G01 X97.672349 Y64.775607 Z-6.350000
G00 Z5.000000

(End cutting path id: path830)


(Start cutting path id: path828)
(Change tool to Cylindrical cutter)

G00 Z5.000000
G00 X34.648563 Y55.960447

G01 Z-1.000000 F100.0(Penetrate)
G03 X36.257494 Y44.315693 Z-1.000000 I410.861446 J50.834336 F200.000000
G03 X39.538659 Y31.825457 Z-1.000000 I60.674124 J9.262897
G03 X44.334438 Y26.752426 Z-1.000000 I8.471979 J3.205612
G03 X49.439480 Y26.610587 Z-1.000000 I2.724991 J6.136560
G03 X53.729662 Y30.158428 Z-1.000000 I-3.057771 J8.065417
G03 X56.788543 Y35.611337 Z-1.000000 I-66.569990 J40.927721
G01 X59.525884 Y39.638477 Z-1.000000
G01 X62.745738 Y38.098137 Z-1.000000
G02 X63.030962 Y36.268666 Z-1.000000 I-4.239305 J-1.597900
G02 X62.448807 Y32.465717 Z-1.000000 I-19.097733 J0.977448
G02 X56.442689 Y17.814723 Z-1.000000 I-51.609239 J12.600419
G02 X39.789196 Y3.858187 Z-1.000000 I-28.395426 J16.968476
G02 X23.416615 Y5.263839 Z-1.000000 I-6.722935 J17.747521
G02 X14.178824 Y16.227257 Z-1.000000 I11.015854 J18.655570
G02 X10.245955 Y35.917652 Z-1.000000 I57.035903 J21.630046
G03 X7.173089 Y51.293047 Z-1.000000 I-47.575947 J-1.513574
G01 X0.622030 Y54.104617 Z-1.000000
G02 X-0.335122 Y58.257757 Z-1.000000 I14.834697 J5.605736
G02 X1.429313 Y61.082517 Z-1.000000 I2.739880 J0.252025
G03 X12.422502 Y71.053001 Z-1.000000 I-7.213744 J18.999321
G03 X18.762710 Y89.272487 Z-1.000000 I-69.047869 J34.240910
G02 X20.795151 Y94.306590 Z-1.000000 I15.495137 J-3.328586
G02 X22.585707 Y95.786427 Z-1.000000 I3.096462 J-1.923445
G02 X25.068024 Y95.576573 Z-1.000000 I1.023007 J-2.685392
G02 X26.974731 Y93.308907 Z-1.000000 I-2.262203 J-3.837549
G02 X28.926549 Y83.923034 Z-1.000000 I-28.547032 J-10.832314
G03 X30.435843 Y76.680717 Z-1.000000 I23.472401 J1.113204
G03 X32.412573 Y74.723611 Z-1.000000 I3.134865 J1.189470
G03 X37.460136 Y74.750667 Z-1.000000 I2.487626 J6.758717
G01 X40.782061 Y73.479427 Z-1.000000
G02 X41.238698 Y67.354986 Z-1.000000 I-10.122661 J-3.833987
G02 X39.288123 Y65.091097 Z-1.000000 I-3.057286 J0.661913
G03 X35.601992 Y61.705205 Z-1.000000 I2.383337 J-6.294120
G03 X34.630005 Y55.960447 Z-1.000000 I9.532174 J-4.567407
G01 X34.648563 Y55.960447 Z-1.000000
G00 Z5.000000

(End cutting path id: path828)


(Start cutting path id: path828)
(Change tool to Cylindrical cutter)

G00 Z5.000000
G00 X34.648563 Y55.960447

G01 Z-2.000000 F100.0(Penetrate)
G03 X36.257494 Y44.315693 Z-2.000000 I410.861446 J50.834336 F200.000000
G03 X39.538659 Y31.825457 Z-2.000000 I60.674124 J9.262897
G03 X44.334438 Y26.752426 Z-2.000000 I8.471979 J3.205612
G03 X49.439480 Y26.610587 Z-2.000000 I2.724991 J6.136560
G03 X53.729662 Y30.158428 Z-2.000000 I-3.057771 J8.065417
G03 X56.788543 Y35.611337 Z-2.000000 I-66.569990 J40.927721
G01 X59.525884 Y39.638477 Z-2.000000
G01 X62.745738 Y38.098137 Z-2.000000
G02 X63.030962 Y36.268666 Z-2.000000 I-4.239305 J-1.597900
G02 X62.448807 Y32.465717 Z-2.000000 I-19.097733 J0.977448
G02 X56.442689 Y17.814723 Z-2.000000 I-51.609239 J12.600419
G02 X39.789196 Y3.858187 Z-2.000000 I-28.395426 J16.968476
G02 X23.416615 Y5.263839 Z-2.000000 I-6.722935 J17.747521
G02 X14.178824 Y16.227257 Z-2.000000 I11.015854 J18.655570
G02 X10.245955 Y35.917652 Z-2.000000 I57.035903 J21.630046
G03 X7.173089 Y51.293047 Z-2.000000 I-47.575947 J-1.513574
G01 X0.622030 Y54.104617 Z-2.000000
G02 X-0.335122 Y58.257757 Z-2.000000 I14.834697 J5.605736
G02 X1.429313 Y61.082517 Z-2.000000 I2.739880 J0.252025
G03 X12.422502 Y71.053001 Z-2.000000 I-7.213744 J18.999321
G03 X18.762710 Y89.272487 Z-2.000000 I-69.047869 J34.240910
G02 X20.795151 Y94.306590 Z-2.000000 I15.495137 J-3.328586
G02 X22.585707 Y95.786427 Z-2.000000 I3.096462 J-1.923445
G02 X25.068024 Y95.576573 Z-2.000000 I1.023007 J-2.685392
G02 X26.974731 Y93.308907 Z-2.000000 I-2.262203 J-3.837549
G02 X28.926549 Y83.923034 Z-2.000000 I-28.547032 J-10.832314
G03 X30.435843 Y76.680717 Z-2.000000 I23.472401 J1.113204
G03 X32.412573 Y74.723611 Z-2.000000 I3.134865 J1.189470
G03 X37.460136 Y74.750667 Z-2.000000 I2.487626 J6.758717
G01 X40.782061 Y73.479427 Z-2.000000
G02 X41.238698 Y67.354986 Z-2.000000 I-10.122661 J-3.833987
G02 X39.288123 Y65.091097 Z-2.000000 I-3.057286 J0.661913
G03 X35.601992 Y61.705205 Z-2.000000 I2.383337 J-6.294120
G03 X34.630005 Y55.960447 Z-2.000000 I9.532174 J-4.567407
G01 X34.648563 Y55.960447 Z-2.000000
G00 Z5.000000

(End cutting path id: path828)


(Start cutting path id: path828)
(Change tool to Cylindrical cutter)

G00 Z5.000000
G00 X34.648563 Y55.960447

G01 Z-3.000000 F100.0(Penetrate)
G03 X36.257494 Y44.315693 Z-3.000000 I410.861446 J50.834336 F200.000000
G03 X39.538659 Y31.825457 Z-3.000000 I60.674124 J9.262897
G03 X44.334438 Y26.752426 Z-3.000000 I8.471979 J3.205612
G03 X49.439480 Y26.610587 Z-3.000000 I2.724991 J6.136560
G03 X53.729662 Y30.158428 Z-3.000000 I-3.057771 J8.065417
G03 X56.788543 Y35.611337 Z-3.000000 I-66.569990 J40.927721
G01 X59.525884 Y39.638477 Z-3.000000
G01 X62.745738 Y38.098137 Z-3.000000
G02 X63.030962 Y36.268666 Z-3.000000 I-4.239305 J-1.597900
G02 X62.448807 Y32.465717 Z-3.000000 I-19.097733 J0.977448
G02 X56.442689 Y17.814723 Z-3.000000 I-51.609239 J12.600419
G02 X39.789196 Y3.858187 Z-3.000000 I-28.395426 J16.968476
G02 X23.416615 Y5.263839 Z-3.000000 I-6.722935 J17.747521
G02 X14.178824 Y16.227257 Z-3.000000 I11.015854 J18.655570
G02 X10.245955 Y35.917652 Z-3.000000 I57.035903 J21.630046
G03 X7.173089 Y51.293047 Z-3.000000 I-47.575947 J-1.513574
G01 X0.622030 Y54.104617 Z-3.000000
G02 X-0.335122 Y58.257757 Z-3.000000 I14.834697 J5.605736
G02 X1.429313 Y61.082517 Z-3.000000 I2.739880 J0.252025
G03 X12.422502 Y71.053001 Z-3.000000 I-7.213744 J18.999321
G03 X18.762710 Y89.272487 Z-3.000000 I-69.047869 J34.240910
G02 X20.795151 Y94.306590 Z-3.000000 I15.495137 J-3.328586
G02 X22.585707 Y95.786427 Z-3.000000 I3.096462 J-1.923445
G02 X25.068024 Y95.576573 Z-3.000000 I1.023007 J-2.685392
G02 X26.974731 Y93.308907 Z-3.000000 I-2.262203 J-3.837549
G02 X28.926549 Y83.923034 Z-3.000000 I-28.547032 J-10.832314
G03 X30.435843 Y76.680717 Z-3.000000 I23.472401 J1.113204
G03 X32.412573 Y74.723611 Z-3.000000 I3.134865 J1.189470
G03 X37.460136 Y74.750667 Z-3.000000 I2.487626 J6.758717
G01 X40.782061 Y73.479427 Z-3.000000
G02 X41.238698 Y67.354986 Z-3.000000 I-10.122661 J-3.833987
G02 X39.288123 Y65.091097 Z-3.000000 I-3.057286 J0.661913
G03 X35.601992 Y61.705205 Z-3.000000 I2.383337 J-6.294120
G03 X34.630005 Y55.960447 Z-3.000000 I9.532174 J-4.567407
G01 X34.648563 Y55.960447 Z-3.000000
G00 Z5.000000

(End cutting path id: path828)


(Start cutting path id: path828)
(Change tool to Cylindrical cutter)

G00 Z5.000000
G00 X34.648563 Y55.960447

G01 Z-4.000000 F100.0(Penetrate)
G03 X36.257494 Y44.315693 Z-4.000000 I410.861446 J50.834336 F200.000000
G03 X39.538659 Y31.825457 Z-4.000000 I60.674124 J9.262897
G03 X44.334438 Y26.752426 Z-4.000000 I8.471979 J3.205612
G03 X49.439480 Y26.610587 Z-4.000000 I2.724991 J6.136560
G03 X53.729662 Y30.158428 Z-4.000000 I-3.057771 J8.065417
G03 X56.788543 Y35.611337 Z-4.000000 I-66.569990 J40.927721
G01 X59.525884 Y39.638477 Z-4.000000
G01 X62.745738 Y38.098137 Z-4.000000
G02 X63.030962 Y36.268666 Z-4.000000 I-4.239305 J-1.597900
G02 X62.448807 Y32.465717 Z-4.000000 I-19.097733 J0.977448
G02 X56.442689 Y17.814723 Z-4.000000 I-51.609239 J12.600419
G02 X39.789196 Y3.858187 Z-4.000000 I-28.395426 J16.968476
G02 X23.416615 Y5.263839 Z-4.000000 I-6.722935 J17.747521
G02 X14.178824 Y16.227257 Z-4.000000 I11.015854 J18.655570
G02 X10.245955 Y35.917652 Z-4.000000 I57.035903 J21.630046
G03 X7.173089 Y51.293047 Z-4.000000 I-47.575947 J-1.513574
G01 X0.622030 Y54.104617 Z-4.000000
G02 X-0.335122 Y58.257757 Z-4.000000 I14.834697 J5.605736
G02 X1.429313 Y61.082517 Z-4.000000 I2.739880 J0.252025
G03 X12.422502 Y71.053001 Z-4.000000 I-7.213744 J18.999321
G03 X18.762710 Y89.272487 Z-4.000000 I-69.047869 J34.240910
G02 X20.795151 Y94.306590 Z-4.000000 I15.495137 J-3.328586
G02 X22.585707 Y95.786427 Z-4.000000 I3.096462 J-1.923445
G02 X25.068024 Y95.576573 Z-4.000000 I1.023007 J-2.685392
G02 X26.974731 Y93.308907 Z-4.000000 I-2.262203 J-3.837549
G02 X28.926549 Y83.923034 Z-4.000000 I-28.547032 J-10.832314
G03 X30.435843 Y76.680717 Z-4.000000 I23.472401 J1.113204
G03 X32.412573 Y74.723611 Z-4.000000 I3.134865 J1.189470
G03 X37.460136 Y74.750667 Z-4.000000 I2.487626 J6.758717
G01 X40.782061 Y73.479427 Z-4.000000
G02 X41.238698 Y67.354986 Z-4.000000 I-10.122661 J-3.833987
G02 X39.288123 Y65.091097 Z-4.000000 I-3.057286 J0.661913
G03 X35.601992 Y61.705205 Z-4.000000 I2.383337 J-6.294120
G03 X34.630005 Y55.960447 Z-4.000000 I9.532174 J-4.567407
G01 X34.648563 Y55.960447 Z-4.000000
G00 Z5.000000

(End cutting path id: path828)


(Start cutting path id: path828)
(Change tool to Cylindrical cutter)

G00 Z5.000000
G00 X34.648563 Y55.960447

G01 Z-5.000000 F100.0(Penetrate)
G03 X36.257494 Y44.315693 Z-5.000000 I410.861446 J50.834336 F200.000000
G03 X39.538659 Y31.825457 Z-5.000000 I60.674124 J9.262897
G03 X44.334438 Y26.752426 Z-5.000000 I8.471979 J3.205612
G03 X49.439480 Y26.610587 Z-5.000000 I2.724991 J6.136560
G03 X53.729662 Y30.158428 Z-5.000000 I-3.057771 J8.065417
G03 X56.788543 Y35.611337 Z-5.000000 I-66.569990 J40.927721
G01 X59.525884 Y39.638477 Z-5.000000
G01 X62.745738 Y38.098137 Z-5.000000
G02 X63.030962 Y36.268666 Z-5.000000 I-4.239305 J-1.597900
G02 X62.448807 Y32.465717 Z-5.000000 I-19.097733 J0.977448
G02 X56.442689 Y17.814723 Z-5.000000 I-51.609239 J12.600419
G02 X39.789196 Y3.858187 Z-5.000000 I-28.395426 J16.968476
G02 X23.416615 Y5.263839 Z-5.000000 I-6.722935 J17.747521
G02 X14.178824 Y16.227257 Z-5.000000 I11.015854 J18.655570
G02 X10.245955 Y35.917652 Z-5.000000 I57.035903 J21.630046
G03 X7.173089 Y51.293047 Z-5.000000 I-47.575947 J-1.513574
G01 X0.622030 Y54.104617 Z-5.000000
G02 X-0.335122 Y58.257757 Z-5.000000 I14.834697 J5.605736
G02 X1.429313 Y61.082517 Z-5.000000 I2.739880 J0.252025
G03 X12.422502 Y71.053001 Z-5.000000 I-7.213744 J18.999321
G03 X18.762710 Y89.272487 Z-5.000000 I-69.047869 J34.240910
G02 X20.795151 Y94.306590 Z-5.000000 I15.495137 J-3.328586
G02 X22.585707 Y95.786427 Z-5.000000 I3.096462 J-1.923445
G02 X25.068024 Y95.576573 Z-5.000000 I1.023007 J-2.685392
G02 X26.974731 Y93.308907 Z-5.000000 I-2.262203 J-3.837549
G02 X28.926549 Y83.923034 Z-5.000000 I-28.547032 J-10.832314
G03 X30.435843 Y76.680717 Z-5.000000 I23.472401 J1.113204
G03 X32.412573 Y74.723611 Z-5.000000 I3.134865 J1.189470
G03 X37.460136 Y74.750667 Z-5.000000 I2.487626 J6.758717
G01 X40.782061 Y73.479427 Z-5.000000
G02 X41.238698 Y67.354986 Z-5.000000 I-10.122661 J-3.833987
G02 X39.288123 Y65.091097 Z-5.000000 I-3.057286 J0.661913
G03 X35.601992 Y61.705205 Z-5.000000 I2.383337 J-6.294120
G03 X34.630005 Y55.960447 Z-5.000000 I9.532174 J-4.567407
G01 X34.648563 Y55.960447 Z-5.000000
G00 Z5.000000

(End cutting path id: path828)


(Start cutting path id: path828)
(Change tool to Cylindrical cutter)

G00 Z5.000000
G00 X34.648563 Y55.960447

G01 Z-6.000000 F100.0(Penetrate)
G03 X36.257494 Y44.315693 Z-6.000000 I410.861446 J50.834336 F200.000000
G03 X39.538659 Y31.825457 Z-6.000000 I60.674124 J9.262897
G03 X44.334438 Y26.752426 Z-6.000000 I8.471979 J3.205612
G03 X49.439480 Y26.610587 Z-6.000000 I2.724991 J6.136560
G03 X53.729662 Y30.158428 Z-6.000000 I-3.057771 J8.065417
G03 X56.788543 Y35.611337 Z-6.000000 I-66.569990 J40.927721
G01 X59.525884 Y39.638477 Z-6.000000
G01 X62.745738 Y38.098137 Z-6.000000
G02 X63.030962 Y36.268666 Z-6.000000 I-4.239305 J-1.597900
G02 X62.448807 Y32.465717 Z-6.000000 I-19.097733 J0.977448
G02 X56.442689 Y17.814723 Z-6.000000 I-51.609239 J12.600419
G02 X39.789196 Y3.858187 Z-6.000000 I-28.395426 J16.968476
G02 X23.416615 Y5.263839 Z-6.000000 I-6.722935 J17.747521
G02 X14.178824 Y16.227257 Z-6.000000 I11.015854 J18.655570
G02 X10.245955 Y35.917652 Z-6.000000 I57.035903 J21.630046
G03 X7.173089 Y51.293047 Z-6.000000 I-47.575947 J-1.513574
G01 X0.622030 Y54.104617 Z-6.000000
G02 X-0.335122 Y58.257757 Z-6.000000 I14.834697 J5.605736
G02 X1.429313 Y61.082517 Z-6.000000 I2.739880 J0.252025
G03 X12.422502 Y71.053001 Z-6.000000 I-7.213744 J18.999321
G03 X18.762710 Y89.272487 Z-6.000000 I-69.047869 J34.240910
G02 X20.795151 Y94.306590 Z-6.000000 I15.495137 J-3.328586
G02 X22.585707 Y95.786427 Z-6.000000 I3.096462 J-1.923445
G02 X25.068024 Y95.576573 Z-6.000000 I1.023007 J-2.685392
G02 X26.974731 Y93.308907 Z-6.000000 I-2.262203 J-3.837549
G02 X28.926549 Y83.923034 Z-6.000000 I-28.547032 J-10.832314
G03 X30.435843 Y76.680717 Z-6.000000 I23.472401 J1.113204
G03 X32.412573 Y74.723611 Z-6.000000 I3.134865 J1.189470
G03 X37.460136 Y74.750667 Z-6.000000 I2.487626 J6.758717
G01 X40.782061 Y73.479427 Z-6.000000
G02 X41.238698 Y67.354986 Z-6.000000 I-10.122661 J-3.833987
G02 X39.288123 Y65.091097 Z-6.000000 I-3.057286 J0.661913
G03 X35.601992 Y61.705205 Z-6.000000 I2.383337 J-6.294120
G03 X34.630005 Y55.960447 Z-6.000000 I9.532174 J-4.567407
G01 X34.648563 Y55.960447 Z-6.000000
G00 Z5.000000

(End cutting path id: path828)


(Start cutting path id: path828)
(Change tool to Cylindrical cutter)

G00 Z5.000000
G00 X34.648563 Y55.960447

G01 Z-6.350000 F100.0(Penetrate)
G03 X36.257494 Y44.315693 Z-6.350000 I410.861446 J50.834336 F200.000000
G03 X39.538659 Y31.825457 Z-6.350000 I60.674124 J9.262897
G03 X44.334438 Y26.752426 Z-6.350000 I8.471979 J3.205612
G03 X49.439480 Y26.610587 Z-6.350000 I2.724991 J6.136560
G03 X53.729662 Y30.158428 Z-6.350000 I-3.057771 J8.065417
G03 X56.788543 Y35.611337 Z-6.350000 I-66.569990 J40.927721
G01 X59.525884 Y39.638477 Z-6.350000
G01 X62.745738 Y38.098137 Z-6.350000
G02 X63.030962 Y36.268666 Z-6.350000 I-4.239305 J-1.597900
G02 X62.448807 Y32.465717 Z-6.350000 I-19.097733 J0.977448
G02 X56.442689 Y17.814723 Z-6.350000 I-51.609239 J12.600419
G02 X39.789196 Y3.858187 Z-6.350000 I-28.395426 J16.968476
G02 X23.416615 Y5.263839 Z-6.350000 I-6.722935 J17.747521
G02 X14.178824 Y16.227257 Z-6.350000 I11.015854 J18.655570
G02 X10.245955 Y35.917652 Z-6.350000 I57.035903 J21.630046
G03 X7.173089 Y51.293047 Z-6.350000 I-47.575947 J-1.513574
G01 X0.622030 Y54.104617 Z-6.350000
G02 X-0.335122 Y58.257757 Z-6.350000 I14.834697 J5.605736
G02 X1.429313 Y61.082517 Z-6.350000 I2.739880 J0.252025
G03 X12.422502 Y71.053001 Z-6.350000 I-7.213744 J18.999321
G03 X18.762710 Y89.272487 Z-6.350000 I-69.047869 J34.240910
G02 X20.795151 Y94.306590 Z-6.350000 I15.495137 J-3.328586
G02 X22.585707 Y95.786427 Z-6.350000 I3.096462 J-1.923445
G02 X25.068024 Y95.576573 Z-6.350000 I1.023007 J-2.685392
G02 X26.974731 Y93.308907 Z-6.350000 I-2.262203 J-3.837549
G02 X28.926549 Y83.923034 Z-6.350000 I-28.547032 J-10.832314
G03 X30.435843 Y76.680717 Z-6.350000 I23.472401 J1.113204
G03 X32.412573 Y74.723611 Z-6.350000 I3.134865 J1.189470
G03 X37.460136 Y74.750667 Z-6.350000 I2.487626 J6.758717
G01 X40.782061 Y73.479427 Z-6.350000
G02 X41.238698 Y67.354986 Z-6.350000 I-10.122661 J-3.833987
G02 X39.288123 Y65.091097 Z-6.350000 I-3.057286 J0.661913
G03 X35.601992 Y61.705205 Z-6.350000 I2.383337 J-6.294120
G03 X34.630005 Y55.960447 Z-6.350000 I9.532174 J-4.567407
G01 X34.648563 Y55.960447 Z-6.350000
G00 Z5.000000

(End cutting path id: path828)


(Footer)
M5
G00 X0.0000 Y0.0000
M2
(Using default footer. To add your own footer create file "footer" in the output dir.)
(end)
%