(Exported by FreeCAD)
(Post Processor: grbl_post)
(Output Time:2023-09-25 20:33:46.721164)
(Begin preamble)
G17 G90
G21
(Begin operation: Fixture)
(Path: Fixture)
G54
(Finish operation: Fixture)
(Begin operation: MC40A_Flat_End_Corncob001)
(Path: MC40A_Flat_End_Corncob001)
(MC40A_Flat_End_Corncob001)
(Begin toolchange)
( M6 T2 )
(Finish operation: MC40A_Flat_End_Corncob001)
(Begin operation: Profile)
(Path: Profile)
(Profile)
(Compensated Tool Path. Diameter: 0.8)
G0 Z5.000
G0 X56.140 Y50.013
G0 Z3.000
G1 X56.140 Y50.013 Z-1.700
G3 X55.328 Y51.037 Z-1.700 I-1.219 J-0.132 K0.000
G3 X54.203 Y50.833 Z-1.700 I-0.298 J-1.559 K0.000
G3 X51.926 Y48.303 Z-1.700 I4.367 J-6.218 K0.000
G3 X50.297 Y43.088 Z-1.700 I10.608 J-6.178 K0.000
G3 X50.695 Y36.527 Z-1.700 I24.108 J-1.828 K0.000
G3 X52.661 Y29.614 Z-1.700 I34.825 J6.166 K0.000
G3 X54.694 Y26.240 Z-1.700 I11.371 J4.552 K0.000
G3 X57.575 Y24.359 Z-1.700 I4.502 J3.750 K0.000
G3 X60.223 Y24.297 Z-1.700 I1.454 J5.539 K0.000
G3 X64.186 Y26.865 Z-1.700 I-1.103 J6.044 K0.000
G3 X65.876 Y32.584 Z-1.700 I-8.673 J5.673 K0.000
G3 X64.708 Y38.124 Z-1.700 I-12.271 J0.307 K0.000
G3 X62.958 Y40.287 Z-1.700 I-5.326 J-2.518 K0.000
G3 X61.298 Y40.988 Z-1.700 I-2.267 J-3.053 K0.000
G2 X59.067 Y41.407 Z-1.700 I1.917 J16.355 K0.000
G2 X56.901 Y42.468 Z-1.700 I1.089 J4.961 K0.000
G2 X55.669 Y44.999 Z-1.700 I3.217 J3.132 K0.000
G2 X55.859 Y48.357 Z-1.700 I7.353 J1.269 K0.000
G3 X56.145 Y49.809 Z-1.700 I-5.532 J1.843 K0.000
G3 X56.140 Y50.013 Z-1.700 I-1.224 J0.072 K0.000
G1 X56.140 Y50.013 Z-3.400
G3 X55.328 Y51.037 Z-3.400 I-1.219 J-0.132 K0.000
G3 X54.203 Y50.833 Z-3.400 I-0.298 J-1.559 K0.000
G3 X51.926 Y48.303 Z-3.400 I4.367 J-6.218 K0.000
G3 X50.297 Y43.088 Z-3.400 I10.608 J-6.178 K0.000
G3 X50.695 Y36.527 Z-3.400 I24.108 J-1.828 K0.000
G3 X52.661 Y29.614 Z-3.400 I34.825 J6.166 K0.000
G3 X54.694 Y26.240 Z-3.400 I11.371 J4.552 K0.000
G3 X57.575 Y24.359 Z-3.400 I4.502 J3.750 K0.000
G3 X60.223 Y24.297 Z-3.400 I1.454 J5.539 K0.000
G3 X64.186 Y26.865 Z-3.400 I-1.103 J6.044 K0.000
G3 X65.876 Y32.584 Z-3.400 I-8.673 J5.673 K0.000
G3 X64.708 Y38.124 Z-3.400 I-12.271 J0.307 K0.000
G3 X62.958 Y40.287 Z-3.400 I-5.326 J-2.518 K0.000
G3 X61.298 Y40.988 Z-3.400 I-2.267 J-3.053 K0.000
G2 X59.067 Y41.407 Z-3.400 I1.917 J16.355 K0.000
G2 X56.901 Y42.468 Z-3.400 I1.089 J4.961 K0.000
G2 X55.669 Y44.999 Z-3.400 I3.217 J3.132 K0.000
G2 X55.859 Y48.357 Z-3.400 I7.353 J1.269 K0.000
G3 X56.145 Y49.809 Z-3.400 I-5.532 J1.843 K0.000
G3 X56.140 Y50.013 Z-3.400 I-1.224 J0.072 K0.000
G1 X56.140 Y50.013 Z-5.100
G3 X55.328 Y51.037 Z-5.100 I-1.219 J-0.132 K0.000
G3 X54.203 Y50.833 Z-5.100 I-0.298 J-1.559 K0.000
G3 X51.926 Y48.303 Z-5.100 I4.367 J-6.218 K0.000
G3 X50.297 Y43.088 Z-5.100 I10.608 J-6.178 K0.000
G3 X50.695 Y36.527 Z-5.100 I24.108 J-1.828 K0.000
G3 X52.661 Y29.614 Z-5.100 I34.825 J6.166 K0.000
G3 X54.694 Y26.240 Z-5.100 I11.371 J4.552 K0.000
G3 X57.575 Y24.359 Z-5.100 I4.502 J3.750 K0.000
G3 X60.223 Y24.297 Z-5.100 I1.454 J5.539 K0.000
G3 X64.186 Y26.865 Z-5.100 I-1.103 J6.044 K0.000
G3 X65.876 Y32.584 Z-5.100 I-8.673 J5.673 K0.000
G3 X64.708 Y38.124 Z-5.100 I-12.271 J0.307 K0.000
G3 X62.958 Y40.287 Z-5.100 I-5.326 J-2.518 K0.000
G3 X61.298 Y40.988 Z-5.100 I-2.267 J-3.053 K0.000
G2 X59.067 Y41.407 Z-5.100 I1.917 J16.355 K0.000
G2 X56.901 Y42.468 Z-5.100 I1.089 J4.961 K0.000
G2 X55.669 Y44.999 Z-5.100 I3.217 J3.132 K0.000
G2 X55.859 Y48.357 Z-5.100 I7.353 J1.269 K0.000
G3 X56.145 Y49.809 Z-5.100 I-5.532 J1.843 K0.000
G3 X56.140 Y50.013 Z-5.100 I-1.224 J0.072 K0.000
G0 Z5.000
G0 Z5.000
G0 X56.140 Y50.013
G0 X95.259 Y47.749
G0 X95.259 Y47.749 Z3.000
G1 X95.259 Y47.749 Z-1.700
G3 X95.351 Y41.734 Z-1.700 I41.136 J-2.380 K0.000
G3 X95.771 Y38.561 Z-1.700 I33.502 J2.815 K0.000
G3 X96.899 Y35.499 Z-1.700 I8.441 J1.370 K0.000
G3 X98.576 Y33.996 Z-1.700 I3.175 J1.857 K0.000
G3 X100.394 Y33.998 Z-1.700 I0.907 J2.246 K0.000
G3 X101.874 Y35.371 Z-1.700 I-1.443 J3.039 K0.000
G3 X103.173 Y38.686 Z-1.700 I-9.795 J5.751 K0.000
G3 X104.176 Y46.916 Z-1.700 I-40.710 J9.135 K0.000
G3 X103.447 Y58.657 Z-1.700 I-57.978 J2.296 K0.000
G3 X102.480 Y60.602 Z-1.700 I-3.290 J-0.424 K0.000
G3 X100.383 Y61.084 Z-1.700 I-1.555 J-1.964 K0.000
G3 X98.279 Y59.563 Z-1.700 I0.949 J-3.529 K0.000
G3 X96.360 Y55.114 Z-1.700 I11.700 J-7.686 K0.000
G3 X95.259 Y47.749 Z-1.700 I40.035 J-9.746 K0.000
G1 X95.259 Y47.749 Z-3.400
G3 X95.351 Y41.734 Z-3.400 I41.136 J-2.380 K0.000
G3 X95.771 Y38.561 Z-3.400 I33.502 J2.815 K0.000
G3 X96.899 Y35.499 Z-3.400 I8.441 J1.370 K0.000
G3 X98.576 Y33.996 Z-3.400 I3.175 J1.857 K0.000
G3 X100.394 Y33.998 Z-3.400 I0.907 J2.246 K0.000
G3 X101.874 Y35.371 Z-3.400 I-1.443 J3.039 K0.000
G3 X103.173 Y38.686 Z-3.400 I-9.795 J5.751 K0.000
G3 X104.176 Y46.916 Z-3.400 I-40.710 J9.135 K0.000
G3 X103.447 Y58.657 Z-3.400 I-57.978 J2.296 K0.000
G3 X102.480 Y60.602 Z-3.400 I-3.290 J-0.424 K0.000
G3 X100.383 Y61.084 Z-3.400 I-1.555 J-1.964 K0.000
G3 X98.279 Y59.563 Z-3.400 I0.949 J-3.529 K0.000
G3 X96.360 Y55.114 Z-3.400 I11.700 J-7.686 K0.000
G3 X95.259 Y47.749 Z-3.400 I40.035 J-9.746 K0.000
G1 X95.259 Y47.749 Z-5.100
G3 X95.351 Y41.734 Z-5.100 I41.136 J-2.380 K0.000
G3 X95.771 Y38.561 Z-5.100 I33.502 J2.815 K0.000
G3 X96.899 Y35.499 Z-5.100 I8.441 J1.370 K0.000
G3 X98.576 Y33.996 Z-5.100 I3.175 J1.857 K0.000
G3 X100.394 Y33.998 Z-5.100 I0.907 J2.246 K0.000
G3 X101.874 Y35.371 Z-5.100 I-1.443 J3.039 K0.000
G3 X103.173 Y38.686 Z-5.100 I-9.795 J5.751 K0.000
G3 X104.176 Y46.916 Z-5.100 I-40.710 J9.135 K0.000
G3 X103.447 Y58.657 Z-5.100 I-57.978 J2.296 K0.000
G3 X102.480 Y60.602 Z-5.100 I-3.290 J-0.424 K0.000
G3 X100.383 Y61.084 Z-5.100 I-1.555 J-1.964 K0.000
G3 X98.279 Y59.563 Z-5.100 I0.949 J-3.529 K0.000
G3 X96.360 Y55.114 Z-5.100 I11.700 J-7.686 K0.000
G3 X95.259 Y47.749 Z-5.100 I40.035 J-9.746 K0.000
G0 Z5.000
G0 Z5.000
G0 X95.259 Y47.749
G0 X184.409 Y112.851
G0 X184.409 Y112.851 Z3.000
G1 X184.409 Y112.851 Z-1.700
G3 X184.688 Y112.694 Z-1.700 I0.310 J0.226 K0.000
G1 X184.686 Y112.683 Z-1.700
G3 X194.985 Y112.216 Z-1.700 I7.840 J59.017 K0.000
G3 X204.291 Y113.996 Z-1.700 I-0.825 J29.530 K0.000
G3 X212.154 Y119.339 Z-1.700 I-6.563 J18.113 K0.000
G3 X216.409 Y129.841 Z-1.700 I-13.597 J11.623 K0.000
G3 X216.151 Y134.848 Z-1.700 I-18.733 J1.543 K0.000
G3 X214.424 Y138.957 Z-1.700 I-10.067 J-1.813 K0.000
G3 X209.107 Y142.185 Z-1.700 I-6.566 J-4.822 K0.000
G3 X199.250 Y140.088 Z-1.700 I-2.107 J-14.310 K0.000
G3 X193.787 Y135.031 Z-1.700 I11.362 J-17.752 K0.000
G3 X189.473 Y127.887 Z-1.700 I31.373 J-23.823 K0.000
G3 X184.886 Y115.193 Z-1.700 I70.383 J-32.608 K0.000
G1 X184.350 Y113.183 Z-1.700
G3 X184.409 Y112.851 Z-1.700 I0.369 J-0.106 K0.000
G1 X184.409 Y112.851 Z-3.400
G3 X184.688 Y112.694 Z-3.400 I0.310 J0.226 K0.000
G1 X184.686 Y112.683 Z-3.400
G3 X194.985 Y112.216 Z-3.400 I7.840 J59.017 K0.000
G3 X204.291 Y113.996 Z-3.400 I-0.825 J29.530 K0.000
G3 X212.154 Y119.339 Z-3.400 I-6.563 J18.113 K0.000
G3 X216.409 Y129.841 Z-3.400 I-13.597 J11.623 K0.000
G3 X216.151 Y134.848 Z-3.400 I-18.733 J1.543 K0.000
G3 X214.424 Y138.957 Z-3.400 I-10.067 J-1.813 K0.000
G3 X209.107 Y142.185 Z-3.400 I-6.566 J-4.822 K0.000
G3 X199.250 Y140.088 Z-3.400 I-2.107 J-14.310 K0.000
G3 X193.787 Y135.031 Z-3.400 I11.362 J-17.752 K0.000
G3 X189.473 Y127.887 Z-3.400 I31.373 J-23.823 K0.000
G3 X184.886 Y115.193 Z-3.400 I70.383 J-32.608 K0.000
G1 X184.350 Y113.183 Z-3.400
G3 X184.409 Y112.851 Z-3.400 I0.369 J-0.106 K0.000
G1 X184.409 Y112.851 Z-5.100
G3 X184.688 Y112.694 Z-5.100 I0.310 J0.226 K0.000
G1 X184.686 Y112.683 Z-5.100
G3 X194.985 Y112.216 Z-5.100 I7.840 J59.017 K0.000
G3 X204.291 Y113.996 Z-5.100 I-0.825 J29.530 K0.000
G3 X212.154 Y119.339 Z-5.100 I-6.563 J18.113 K0.000
G3 X216.409 Y129.841 Z-5.100 I-13.597 J11.623 K0.000
G3 X216.151 Y134.848 Z-5.100 I-18.733 J1.543 K0.000
G3 X214.424 Y138.957 Z-5.100 I-10.067 J-1.813 K0.000
G3 X209.107 Y142.185 Z-5.100 I-6.566 J-4.822 K0.000
G3 X199.250 Y140.088 Z-5.100 I-2.107 J-14.310 K0.000
G3 X193.787 Y135.031 Z-5.100 I11.362 J-17.752 K0.000
G3 X189.473 Y127.887 Z-5.100 I31.373 J-23.823 K0.000
G3 X184.886 Y115.193 Z-5.100 I70.383 J-32.608 K0.000
G1 X184.350 Y113.183 Z-5.100
G3 X184.409 Y112.851 Z-5.100 I0.369 J-0.106 K0.000
G0 Z5.000
G0 Z5.000
G0 X184.409 Y112.851
G0 X156.801 Y67.539
G0 X156.801 Y67.539 Z3.000
G1 X156.801 Y67.539 Z-1.700
G3 X153.832 Y67.449 Z-1.700 I-1.415 J-2.323 K0.000
G3 X151.465 Y64.609 Z-1.700 I4.801 J-6.408 K0.000
G3 X149.092 Y58.147 Z-1.700 I25.034 J-12.856 K0.000
G3 X147.883 Y46.129 Z-1.700 I40.118 J-10.108 K0.000
G3 X148.636 Y42.951 Z-1.700 I8.558 J0.349 K0.000
G3 X150.121 Y41.257 Z-1.700 I3.380 J1.465 K0.000
G3 X152.335 Y41.199 Z-1.700 I1.162 J2.058 K0.000
G3 X153.968 Y42.783 Z-1.700 I-2.146 J3.845 K0.000
G3 X155.675 Y46.574 Z-1.700 I-13.259 J8.253 K0.000
G3 X157.527 Y55.518 Z-1.700 I-48.124 J14.628 K0.000
G3 X157.983 Y63.795 Z-1.700 I-58.688 J7.384 K0.000
G3 X157.844 Y65.798 Z-1.700 I-11.682 J0.191 K0.000
G3 X156.871 Y67.495 Z-1.700 I-2.633 J-0.382 K0.000
G3 X156.801 Y67.539 Z-1.700 I-1.486 J-2.278 K0.000
G1 X156.801 Y67.539 Z-3.400
G3 X153.832 Y67.449 Z-3.400 I-1.415 J-2.323 K0.000
G3 X151.465 Y64.609 Z-3.400 I4.801 J-6.408 K0.000
G3 X149.092 Y58.147 Z-3.400 I25.034 J-12.856 K0.000
G3 X147.883 Y46.129 Z-3.400 I40.118 J-10.108 K0.000
G3 X148.636 Y42.951 Z-3.400 I8.558 J0.349 K0.000
G3 X150.121 Y41.257 Z-3.400 I3.380 J1.465 K0.000
G3 X152.335 Y41.199 Z-3.400 I1.162 J2.058 K0.000
G3 X153.968 Y42.783 Z-3.400 I-2.146 J3.845 K0.000
G3 X155.675 Y46.574 Z-3.400 I-13.259 J8.253 K0.000
G3 X157.527 Y55.518 Z-3.400 I-48.124 J14.628 K0.000
G3 X157.983 Y63.795 Z-3.400 I-58.688 J7.384 K0.000
G3 X157.844 Y65.798 Z-3.400 I-11.682 J0.191 K0.000
G3 X156.871 Y67.495 Z-3.400 I-2.633 J-0.382 K0.000
G3 X156.801 Y67.539 Z-3.400 I-1.486 J-2.278 K0.000
G1 X156.801 Y67.539 Z-5.100
G3 X153.832 Y67.449 Z-5.100 I-1.415 J-2.323 K0.000
G3 X151.465 Y64.609 Z-5.100 I4.801 J-6.408 K0.000
G3 X149.092 Y58.147 Z-5.100 I25.034 J-12.856 K0.000
G3 X147.883 Y46.129 Z-5.100 I40.118 J-10.108 K0.000
G3 X148.636 Y42.951 Z-5.100 I8.558 J0.349 K0.000
G3 X150.121 Y41.257 Z-5.100 I3.380 J1.465 K0.000
G3 X152.335 Y41.199 Z-5.100 I1.162 J2.058 K0.000
G3 X153.968 Y42.783 Z-5.100 I-2.146 J3.845 K0.000
G3 X155.675 Y46.574 Z-5.100 I-13.259 J8.253 K0.000
G3 X157.527 Y55.518 Z-5.100 I-48.124 J14.628 K0.000
G3 X157.983 Y63.795 Z-5.100 I-58.688 J7.384 K0.000
G3 X157.844 Y65.798 Z-5.100 I-11.682 J0.191 K0.000
G3 X156.871 Y67.495 Z-5.100 I-2.633 J-0.382 K0.000
G3 X156.801 Y67.539 Z-5.100 I-1.486 J-2.278 K0.000
G0 Z5.000
G0 Z5.000
G0 X156.801 Y67.539
G0 X268.320 Y43.910
G0 X268.320 Y43.910 Z3.000
G1 X268.320 Y43.910 Z-1.700
G3 X267.828 Y40.993 Z-1.700 I34.757 J-7.365 K0.000
G3 X267.979 Y37.058 Z-1.700 I12.151 J-1.506 K0.000
G3 X269.592 Y34.021 Z-1.700 I5.749 J1.108 K0.000
G3 X275.263 Y32.542 Z-1.700 I4.243 J4.654 K0.000
G3 X279.171 Y34.957 Z-1.700 I-2.130 J7.817 K0.000
G3 X282.487 Y42.632 Z-1.700 I-9.166 J8.513 K0.000
G3 X281.997 Y45.371 Z-1.700 I-5.880 J0.362 K0.000
G3 X280.885 Y46.783 Z-1.700 I-3.504 J-1.616 K0.000
G2 X279.131 Y48.224 Z-1.700 I9.550 J13.409 K0.000
G2 X277.747 Y50.194 Z-1.700 I3.333 J3.814 K0.000
G2 X277.891 Y53.009 Z-1.700 I4.323 J1.189 K0.000
G2 X279.683 Y55.867 Z-1.700 I7.093 J-2.457 K0.000
G3 X280.614 Y56.976 Z-1.700 I-4.112 J4.394 K0.000
G3 X280.500 Y58.469 Z-1.700 I-1.036 J0.672 K0.000
G3 X279.420 Y58.832 Z-1.700 I-1.011 J-1.223 K0.000
G3 X276.202 Y57.714 Z-1.700 I0.830 J-7.583 K0.000
G3 X272.256 Y53.924 Z-1.700 I6.320 J-10.530 K0.000
G3 X269.438 Y47.976 Z-1.700 I20.292 J-13.254 K0.000
G3 X268.320 Y43.910 Z-1.700 I33.640 J-11.431 K0.000
G1 X268.320 Y43.910 Z-3.400
G3 X267.828 Y40.993 Z-3.400 I34.757 J-7.365 K0.000
G3 X267.979 Y37.058 Z-3.400 I12.151 J-1.506 K0.000
G3 X269.592 Y34.021 Z-3.400 I5.749 J1.108 K0.000
G3 X275.263 Y32.542 Z-3.400 I4.243 J4.654 K0.000
G3 X279.171 Y34.957 Z-3.400 I-2.130 J7.817 K0.000
G3 X282.487 Y42.632 Z-3.400 I-9.166 J8.513 K0.000
G3 X281.997 Y45.371 Z-3.400 I-5.880 J0.362 K0.000
G3 X280.885 Y46.783 Z-3.400 I-3.504 J-1.616 K0.000
G2 X279.131 Y48.224 Z-3.400 I9.550 J13.409 K0.000
G2 X277.747 Y50.194 Z-3.400 I3.333 J3.814 K0.000
G2 X277.891 Y53.009 Z-3.400 I4.323 J1.189 K0.000
G2 X279.683 Y55.867 Z-3.400 I7.093 J-2.457 K0.000
G3 X280.614 Y56.976 Z-3.400 I-4.112 J4.394 K0.000
G3 X280.500 Y58.469 Z-3.400 I-1.036 J0.672 K0.000
G3 X279.420 Y58.832 Z-3.400 I-1.011 J-1.223 K0.000
G3 X276.202 Y57.714 Z-3.400 I0.830 J-7.583 K0.000
G3 X272.256 Y53.924 Z-3.400 I6.320 J-10.530 K0.000
G3 X269.438 Y47.976 Z-3.400 I20.292 J-13.254 K0.000
G3 X268.320 Y43.910 Z-3.400 I33.640 J-11.431 K0.000
G1 X268.320 Y43.910 Z-5.100
G3 X267.828 Y40.993 Z-5.100 I34.757 J-7.365 K0.000
G3 X267.979 Y37.058 Z-5.100 I12.151 J-1.506 K0.000
G3 X269.592 Y34.021 Z-5.100 I5.749 J1.108 K0.000
G3 X275.263 Y32.542 Z-5.100 I4.243 J4.654 K0.000
G3 X279.171 Y34.957 Z-5.100 I-2.130 J7.817 K0.000
G3 X282.487 Y42.632 Z-5.100 I-9.166 J8.513 K0.000
G3 X281.997 Y45.371 Z-5.100 I-5.880 J0.362 K0.000
G3 X280.885 Y46.783 Z-5.100 I-3.504 J-1.616 K0.000
G2 X279.131 Y48.224 Z-5.100 I9.550 J13.409 K0.000
G2 X277.747 Y50.194 Z-5.100 I3.333 J3.814 K0.000
G2 X277.891 Y53.009 Z-5.100 I4.323 J1.189 K0.000
G2 X279.683 Y55.867 Z-5.100 I7.093 J-2.457 K0.000
G3 X280.614 Y56.976 Z-5.100 I-4.112 J4.394 K0.000
G3 X280.500 Y58.469 Z-5.100 I-1.036 J0.672 K0.000
G3 X279.420 Y58.832 Z-5.100 I-1.011 J-1.223 K0.000
G3 X276.202 Y57.714 Z-5.100 I0.830 J-7.583 K0.000
G3 X272.256 Y53.924 Z-5.100 I6.320 J-10.530 K0.000
G3 X269.438 Y47.976 Z-5.100 I20.292 J-13.254 K0.000
G3 X268.320 Y43.910 Z-5.100 I33.640 J-11.431 K0.000
G0 Z5.000
G0 Z5.000
G0 X268.320 Y43.910
G0 X311.023 Y31.435
G0 X311.023 Y31.435 Z3.000
G1 X311.023 Y31.435 Z-1.700
G3 X310.932 Y31.122 Z-1.700 I39.921 J-11.662 K0.000
G3 X310.332 Y26.791 Z-1.700 I14.563 J-4.224 K0.000
G3 X310.993 Y23.851 Z-1.700 I7.092 J0.048 K0.000
G3 X313.842 Y21.211 Z-1.700 I4.886 J2.417 K0.000
G3 X317.874 Y20.862 Z-1.700 I2.509 J5.520 K0.000
G3 X321.980 Y23.362 Z-1.700 I-2.410 J8.582 K0.000
G3 X325.388 Y30.044 Z-1.700 I-8.964 J8.783 K0.000
G3 X325.175 Y32.820 Z-1.700 I-5.816 J0.949 K0.000
G3 X324.205 Y34.334 Z-1.700 I-3.447 J-1.140 K0.000
G1 X324.205 Y34.335 Z-1.700
G2 X322.605 Y35.945 Z-1.700 I10.844 J12.377 K0.000
G2 X321.425 Y38.045 Z-1.700 I3.701 J3.462 K0.000
G2 X321.850 Y40.829 Z-1.700 I4.420 J0.750 K0.000
G2 X323.918 Y43.491 Z-1.700 I6.805 J-3.152 K0.000
G3 X324.968 Y44.514 Z-1.700 I-3.590 J4.733 K0.000
G3 X324.997 Y45.998 Z-1.700 I-0.963 J0.761 K0.000
G3 X323.948 Y46.467 Z-1.700 I-1.120 J-1.097 K0.000
G3 X320.628 Y45.670 Z-1.700 I0.091 J-7.692 K0.000
G3 X316.348 Y42.316 Z-1.700 I5.215 J-11.061 K0.000
G3 X312.947 Y36.683 Z-1.700 I18.862 J-15.234 K0.000
G3 X311.023 Y31.435 Z-1.700 I37.997 J-16.910 K0.000
G1 X311.023 Y31.435 Z-3.400
G3 X310.932 Y31.122 Z-3.400 I39.921 J-11.662 K0.000
G3 X310.332 Y26.791 Z-3.400 I14.563 J-4.224 K0.000
G3 X310.993 Y23.851 Z-3.400 I7.092 J0.048 K0.000
G3 X313.842 Y21.211 Z-3.400 I4.886 J2.417 K0.000
G3 X317.874 Y20.862 Z-3.400 I2.509 J5.520 K0.000
G3 X321.980 Y23.362 Z-3.400 I-2.410 J8.582 K0.000
G3 X325.388 Y30.044 Z-3.400 I-8.964 J8.783 K0.000
G3 X325.175 Y32.820 Z-3.400 I-5.816 J0.949 K0.000
G3 X324.205 Y34.334 Z-3.400 I-3.447 J-1.140 K0.000
G1 X324.205 Y34.335 Z-3.400
G2 X322.605 Y35.945 Z-3.400 I10.844 J12.377 K0.000
G2 X321.425 Y38.045 Z-3.400 I3.701 J3.462 K0.000
G2 X321.850 Y40.829 Z-3.400 I4.420 J0.750 K0.000
G2 X323.918 Y43.491 Z-3.400 I6.805 J-3.152 K0.000
G3 X324.968 Y44.514 Z-3.400 I-3.590 J4.733 K0.000
G3 X324.997 Y45.998 Z-3.400 I-0.963 J0.761 K0.000
G3 X323.948 Y46.467 Z-3.400 I-1.120 J-1.097 K0.000
G3 X320.628 Y45.670 Z-3.400 I0.091 J-7.692 K0.000
G3 X316.348 Y42.316 Z-3.400 I5.215 J-11.061 K0.000
G3 X312.947 Y36.683 Z-3.400 I18.862 J-15.234 K0.000
G3 X311.023 Y31.435 Z-3.400 I37.997 J-16.910 K0.000
G1 X311.023 Y31.435 Z-5.100
G3 X310.932 Y31.122 Z-5.100 I39.921 J-11.662 K0.000
G3 X310.332 Y26.791 Z-5.100 I14.563 J-4.224 K0.000
G3 X310.993 Y23.851 Z-5.100 I7.092 J0.048 K0.000
G3 X313.842 Y21.211 Z-5.100 I4.886 J2.417 K0.000
G3 X317.874 Y20.862 Z-5.100 I2.509 J5.520 K0.000
G3 X321.980 Y23.362 Z-5.100 I-2.410 J8.582 K0.000
G3 X325.388 Y30.044 Z-5.100 I-8.964 J8.783 K0.000
G3 X325.175 Y32.820 Z-5.100 I-5.816 J0.949 K0.000
G3 X324.205 Y34.334 Z-5.100 I-3.447 J-1.140 K0.000
G1 X324.205 Y34.335 Z-5.100
G2 X322.605 Y35.945 Z-5.100 I10.844 J12.377 K0.000
G2 X321.425 Y38.045 Z-5.100 I3.701 J3.462 K0.000
G2 X321.850 Y40.829 Z-5.100 I4.420 J0.750 K0.000
G2 X323.918 Y43.491 Z-5.100 I6.805 J-3.152 K0.000
G3 X324.968 Y44.514 Z-5.100 I-3.590 J4.733 K0.000
G3 X324.997 Y45.998 Z-5.100 I-0.963 J0.761 K0.000
G3 X323.948 Y46.467 Z-5.100 I-1.120 J-1.097 K0.000
G3 X320.628 Y45.670 Z-5.100 I0.091 J-7.692 K0.000
G3 X316.348 Y42.316 Z-5.100 I5.215 J-11.061 K0.000
G3 X312.947 Y36.683 Z-5.100 I18.862 J-15.234 K0.000
G3 X311.023 Y31.435 Z-5.100 I37.997 J-16.910 K0.000
G0 Z5.000
G0 Z5.000
G0 X311.023 Y31.435
G0 X295.460 Y38.387
G0 X295.460 Y38.387 Z3.000
G1 X295.460 Y38.387 Z-1.700
G2 X296.743 Y40.863 Z-1.700 I22.045 J-9.847 K0.000
G2 X308.617 Y51.553 Z-1.700 I22.381 J-12.919 K0.000
G2 X325.855 Y52.566 Z-1.700 I9.994 J-22.893 K0.000
G2 X330.863 Y50.388 Z-1.700 I-4.473 J-17.130 K0.000
G2 X337.121 Y41.584 Z-1.700 I-7.144 J-11.704 K0.000
G2 X337.016 Y34.282 Z-1.700 I-17.507 J-3.401 K0.000
G2 X333.047 Y24.585 Z-1.700 I-35.404 J8.830 K0.000
G2 X327.680 Y17.838 Z-1.700 I-23.869 J13.480 K0.000
G2 X316.829 Y12.606 Z-1.700 I-13.675 J14.494 K0.000
G1 X315.632 Y12.474 Z-1.700
G2 X302.867 Y15.158 Z-1.700 I-1.506 J24.528 K0.000
G2 X298.189 Y18.549 Z-1.700 I7.848 J15.748 K0.000
G2 X293.536 Y31.443 Z-1.700 I11.292 J11.361 K0.000
G2 X295.460 Y38.387 Z-1.700 I23.969 J-2.904 K0.000
G0 Z5.000
G0 X291.503 Y39.938 Z5.000
G0 X291.503 Y39.938 Z3.000
G1 X291.503 Y39.938 Z-1.700
G2 X290.662 Y37.964 Z-1.700 I-33.944 J13.301 K0.000
G2 X285.998 Y30.715 Z-1.700 I-25.091 J11.018 K0.000
G2 X273.282 Y23.972 Z-1.700 I-15.087 J13.090 K0.000
G2 X261.593 Y25.554 Z-1.700 I-2.618 J24.619 K0.000
G2 X255.742 Y29.214 Z-1.700 I6.229 J16.467 K0.000
G2 X250.765 Y39.235 Z-1.700 I10.662 J11.540 K0.000
G3 X250.086 Y39.466 Z-1.700 I-0.397 J-0.051 K0.000
G2 X239.617 Y32.314 Z-1.700 I-21.925 J20.854 K0.000
G2 X234.161 Y30.883 Z-1.700 I-7.495 J17.462 K0.000
G2 X227.148 Y31.641 Z-1.700 I-1.858 J15.647 K0.000
G2 X221.412 Y36.667 Z-1.700 I3.224 J9.466 K0.000
G2 X220.152 Y43.301 Z-1.700 I13.315 J5.965 K0.000
G2 X221.359 Y50.677 Z-1.700 I36.274 J-2.149 K0.000
G2 X224.050 Y59.051 Z-1.700 I204.314 J-61.043 K0.000
G3 X225.589 Y65.590 Z-1.700 I-30.510 J10.629 K0.000
G3 X225.140 Y67.759 Z-1.700 I-2.633 J0.587 K0.000
G3 X223.673 Y69.045 Z-1.700 I-7.242 J-6.785 K0.000
G2 X223.174 Y71.795 Z-1.700 I1.039 J1.609 K0.000
G2 X224.222 Y72.635 Z-1.700 I2.730 J-2.332 K0.000
G3 X231.441 Y82.653 Z-1.700 I-6.184 J12.066 K0.000
G3 X231.373 Y85.351 Z-1.700 I-6.527 J1.186 K0.000
G3 X229.311 Y87.502 Z-1.700 I-2.888 J-0.704 K0.000
G3 X224.922 Y86.889 Z-1.700 I-1.340 J-6.419 K0.000
G3 X220.491 Y82.488 Z-1.700 I5.746 J-10.217 K0.000
G3 X218.288 Y75.007 Z-1.700 I16.098 J-8.806 K0.000
G3 X218.288 Y69.653 Z-1.700 I68.132 J-2.671 K0.000
G2 X218.262 Y66.100 Z-1.700 I-20.426 J-1.627 K0.000
G2 X215.978 Y61.463 Z-1.700 I-6.463 J0.302 K0.000
G2 X210.590 Y61.191 Z-1.700 I-2.898 J3.916 K0.000
G2 X209.089 Y63.777 Z-1.700 I1.562 J2.636 K0.000
G2 X209.715 Y66.345 Z-1.700 I6.706 J-0.276 K0.000
G3 X210.337 Y67.744 Z-1.700 I-5.424 J3.250 K0.000
G3 X210.086 Y69.410 Z-1.700 I-2.042 J0.545 K0.000
G3 X206.365 Y70.402 Z-1.700 I-2.437 J-1.668 K0.000
G3 X203.954 Y67.506 Z-1.700 I2.487 J-4.521 K0.000
G3 X204.644 Y61.718 Z-1.700 I7.250 J-2.071 K0.000
G3 X207.172 Y58.585 Z-1.700 I13.317 J8.158 K0.000
G2 X212.293 Y53.898 Z-1.700 I-81.069 J-93.719 K0.000
G2 X213.747 Y52.090 Z-1.700 I-8.602 J-8.405 K0.000
G2 X215.156 Y45.225 Z-1.700 I-7.537 J-5.123 K0.000
G2 X210.475 Y37.009 Z-1.700 I-12.846 J1.877 K0.000
G2 X203.632 Y33.844 Z-1.700 I-10.411 J13.530 K0.000
G2 X191.734 Y34.392 Z-1.700 I-4.862 J23.897 K0.000
G2 X185.891 Y37.423 Z-1.700 I4.130 J15.106 K0.000
G2 X182.989 Y41.078 Z-1.700 I6.356 J8.025 K0.000
G3 X182.322 Y41.146 Z-1.700 I-0.356 J-0.183 K0.000
G2 X174.596 Y34.851 Z-1.700 I-16.673 J12.573 K0.000
G2 X167.963 Y33.324 Z-1.700 I-6.537 J13.225 K0.000
G2 X164.083 Y34.203 Z-1.700 I-0.085 J8.619 K0.000
G2 X159.442 Y39.275 Z-1.700 I4.394 J8.681 K0.000
G3 X158.785 Y39.380 Z-1.700 I-0.364 J-0.166 K0.000
G2 X150.200 Y33.192 Z-1.700 I-17.525 J15.264 K0.000
G2 X141.714 Y32.007 Z-1.700 I-6.358 J14.542 K0.000
G2 X137.216 Y33.490 Z-1.700 I1.270 J11.412 K0.000
G2 X132.458 Y38.939 Z-1.700 I6.108 J10.135 K0.000
G3 X131.742 Y38.969 Z-1.700 I-0.365 J-0.163 K0.000
G2 X126.200 Y32.111 Z-1.700 I-19.123 J9.786 K0.000
G2 X119.568 Y28.695 Z-1.700 I-10.677 J12.584 K0.000
G2 X113.857 Y28.817 Z-1.700 I-2.659 J9.250 K0.000
G2 X108.131 Y33.464 Z-1.700 I4.017 J10.802 K0.000
G3 X107.453 Y33.430 Z-1.700 I-0.329 J-0.228 K0.000
G2 X92.914 Y23.932 Z-1.700 I-15.588 J7.985 K0.000
G2 X82.576 Y28.245 Z-1.700 I-0.863 J12.476 K0.000
G2 X79.179 Y34.831 Z-1.700 I13.540 J11.154 K0.000
G2 X78.716 Y49.130 Z-1.700 I31.842 J8.189 K0.000
G2 X80.782 Y55.413 Z-1.700 I22.914 J-4.054 K0.000
G2 X88.245 Y63.814 Z-1.700 I18.599 J-9.009 K0.000
G2 X97.366 Y67.262 Z-1.700 I13.292 J-21.372 K0.000
G2 X102.886 Y67.475 Z-1.700 I3.451 J-17.846 K0.000
G2 X106.120 Y66.824 Z-1.700 I-4.019 J-28.324 K0.000
G3 X108.498 Y66.692 Z-1.700 I1.476 J5.106 K0.000
G3 X111.884 Y68.044 Z-1.700 I-4.802 J16.936 K0.000
G2 X117.350 Y70.754 Z-1.700 I34.161 J-62.045 K0.000
G2 X118.948 Y71.193 Z-1.700 I2.427 J-5.701 K0.000
G2 X120.117 Y70.525 Z-1.700 I0.133 J-1.125 K0.000
G2 X120.416 Y68.907 Z-1.700 I-5.027 J-1.765 K0.000
G2 X120.140 Y62.888 Z-1.700 I-112.407 J2.140 K0.000
G3 X119.838 Y52.773 Z-1.700 I87.281 J-7.668 K0.000
G3 X120.586 Y45.173 Z-1.700 I48.788 J0.967 K0.000
G3 X121.257 Y43.034 Z-1.700 I7.230 J1.093 K0.000
G3 X123.395 Y40.605 Z-1.700 I5.052 J2.289 K0.000
G3 X127.835 Y40.847 Z-1.700 I2.027 J3.653 K0.000
G3 X129.369 Y42.522 Z-1.700 I-3.094 J4.373 K0.000
G2 X130.639 Y44.552 Z-1.700 I227.249 J-140.826 K0.000
G3 X130.882 Y45.032 Z-1.700 I-0.482 J0.545 K0.000
G2 X132.732 Y59.496 Z-1.700 I30.986 J3.387 K0.000
G2 X138.484 Y68.368 Z-1.700 I22.505 J-8.288 K0.000
G2 X152.902 Y74.387 Z-1.700 I14.592 J-14.675 K0.000
G2 X158.828 Y73.308 Z-1.700 I0.349 J-14.891 K0.000
G2 X160.064 Y72.714 Z-1.700 I-2.240 J-6.244 K0.000
G3 X160.795 Y72.915 Z-1.700 I0.317 J0.279 K0.000
G2 X163.210 Y87.730 Z-1.700 I378.665 J-54.126 K0.000
G2 X166.860 Y105.139 Z-1.700 I310.990 J-56.100 K0.000
G3 X166.598 Y105.613 Z-1.700 I-0.389 J0.094 K0.000
G2 X157.030 Y108.892 Z-1.700 I123.087 J374.682 K0.000
G2 X140.188 Y115.217 Z-1.700 I406.397 J1107.857 K0.000
G3 X123.875 Y120.946 Z-1.700 I-110.827 J-289.433 K0.000
G3 X109.270 Y124.712 Z-1.700 I-42.185 J-133.421 K0.000
G3 X80.213 Y126.406 Z-1.700 I-20.720 J-105.340 K0.000
G3 X73.827 Y124.855 Z-1.700 I2.273 J-23.270 K0.000
G3 X64.441 Y116.509 Z-1.700 I6.317 J-16.557 K0.000
G3 X62.834 Y102.760 Z-1.700 I18.108 J-9.084 K0.000
G3 X64.895 Y97.744 Z-1.700 I23.581 J6.758 K0.000
G2 X64.823 Y95.690 Z-1.700 I-1.680 J-0.969 K0.000
G2 X64.412 Y95.373 Z-1.700 I-0.549 J0.286 K0.000
G2 X61.227 Y95.872 Z-1.700 I-0.229 J8.952 K0.000
G2 X54.910 Y99.480 Z-1.700 I8.350 J21.953 K0.000
G2 X45.654 Y112.439 Z-1.700 I19.304 J23.573 K0.000
G2 X44.323 Y131.189 Z-1.700 I32.668 J11.743 K0.000
G2 X58.907 Y152.369 Z-1.700 I31.817 J-6.298 K0.000
G2 X75.308 Y157.781 Z-1.700 I19.811 J-32.478 K0.000
G2 X88.356 Y157.176 Z-1.700 I4.108 J-52.365 K0.000
G2 X104.160 Y152.585 Z-1.700 I-14.818 J-80.508 K0.000
G2 X118.694 Y145.788 Z-1.700 I-60.966 J-149.291 K0.000
G2 X134.633 Y136.714 Z-1.700 I-178.969 J-332.902 K0.000
G3 X147.771 Y128.864 Z-1.700 I439.870 J721.326 K0.000
G3 X160.205 Y121.909 Z-1.700 I118.628 J197.477 K0.000
G3 X168.997 Y117.736 Z-1.700 I55.044 J104.618 K0.000
G3 X169.543 Y118.011 Z-1.700 I0.158 J0.368 K0.000
G2 X173.720 Y132.441 Z-1.700 I120.141 J-26.951 K0.000
G2 X179.883 Y146.055 Z-1.700 I76.235 J-26.310 K0.000
G2 X186.863 Y155.773 Z-1.700 I45.341 J-25.199 K0.000
G2 X194.297 Y162.112 Z-1.700 I26.341 J-23.365 K0.000
G2 X215.750 Y166.399 Z-1.700 I16.155 J-25.022 K0.000
G2 X225.025 Y162.466 Z-1.700 I-3.528 J-21.222 K0.000
G2 X231.502 Y154.681 Z-1.700 I-13.199 J-17.568 K0.000
G2 X233.750 Y148.197 Z-1.700 I-23.733 J-11.858 K0.000
G2 X233.873 Y132.572 Z-1.700 I-40.480 J-8.132 K0.000
G2 X224.520 Y114.382 Z-1.700 I-33.858 J5.909 K0.000
G2 X213.522 Y106.641 Z-1.700 I-28.438 J28.719 K0.000
G2 X193.674 Y101.887 Z-1.700 I-21.336 J45.264 K0.000
G2 X182.088 Y103.044 Z-1.700 I1.916 J77.789 K0.000
G3 X181.635 Y102.742 Z-1.700 I-0.063 J-0.395 K0.000
G3 X175.728 Y74.051 Z-1.700 I362.923 J-89.672 K0.000
G3 X173.568 Y57.832 Z-1.700 I206.269 J-35.731 K0.000
G3 X173.277 Y50.885 Z-1.700 I62.231 J-6.079 K0.000
G3 X173.790 Y47.042 Z-1.700 I12.607 J-0.274 K0.000
G3 X174.659 Y45.345 Z-1.700 I4.823 J1.397 K0.000
G3 X176.540 Y44.091 Z-1.700 I2.681 J1.984 K0.000
G3 X180.327 Y45.134 Z-1.700 I0.850 J4.307 K0.000
G3 X182.371 Y47.548 Z-1.700 I-11.847 J12.102 K0.000
G2 X183.964 Y50.508 Z-1.700 I6.485 J-1.582 K0.000
G2 X189.496 Y52.076 Z-1.700 I3.974 J-3.476 K0.000
G2 X191.949 Y50.074 Z-1.700 I-1.021 J-3.756 K0.000
G2 X192.419 Y47.449 Z-1.700 I-5.176 J-2.280 K0.000
G3 X192.343 Y45.806 Z-1.700 I31.712 J-2.282 K0.000
G3 X192.821 Y43.490 Z-1.700 I5.842 J-0.001 K0.000
G3 X195.687 Y41.839 Z-1.700 I2.631 J1.253 K0.000
G3 X197.697 Y43.127 Z-1.700 I-0.251 J2.603 K0.000
G3 X198.304 Y45.242 Z-1.700 I-4.198 J2.349 K0.000
G3 X197.590 Y48.577 Z-1.700 I-6.994 J0.248 K0.000
G3 X195.738 Y51.274 Z-1.700 I-10.919 J-5.515 K0.000
G3 X192.522 Y54.669 Z-1.700 I-63.028 J-56.482 K0.000
G2 X189.696 Y58.285 Z-1.700 I13.009 J13.077 K0.000
G2 X189.929 Y69.633 Z-1.700 I9.178 J5.488 K0.000
G2 X195.957 Y74.555 Z-1.700 I11.821 J-8.323 K0.000
G2 X206.688 Y76.187 Z-1.700 I8.565 J-20.226 K0.000
G2 X212.377 Y74.923 Z-1.700 I-3.236 J-27.995 K0.000
G3 X212.900 Y75.262 Z-1.700 I0.125 J0.380 K0.000
G2 X218.074 Y88.362 Z-1.700 I23.663 J-1.773 K0.000
G2 X225.555 Y94.167 Z-1.700 I15.383 J-12.101 K0.000
G2 X237.881 Y94.727 Z-1.700 I6.868 J-15.247 K0.000
G2 X245.085 Y87.952 Z-1.700 I-3.463 J-10.900 K0.000
G2 X246.017 Y80.511 Z-1.700 I-16.686 J-5.870 K0.000
G2 X245.429 Y76.434 Z-1.700 I-92.919 J11.326 K0.000
G3 X245.094 Y73.491 Z-1.700 I16.824 J-3.404 K0.000
G3 X246.414 Y71.261 Z-1.700 I2.354 J-0.112 K0.000
G3 X249.273 Y70.591 Z-1.700 I3.239 J7.390 K0.000
G2 X250.246 Y69.968 Z-1.700 I0.042 J-1.006 K0.000
G2 X249.981 Y68.112 Z-1.700 I-2.357 J-0.610 K0.000
G2 X248.325 Y66.985 Z-1.700 I-2.332 J1.646 K0.000
G3 X245.586 Y66.133 Z-1.700 I1.589 J-9.936 K0.000
G3 X242.082 Y62.197 Z-1.700 I3.338 J-6.500 K0.000
G3 X238.658 Y50.498 Z-1.700 I88.304 J-32.193 K0.000
G3 X237.998 Y46.382 Z-1.700 I29.400 J-6.825 K0.000
G3 X238.253 Y43.238 Z-1.700 I7.509 J-0.975 K0.000
G3 X240.009 Y40.999 Z-1.700 I3.818 J1.187 K0.000
G3 X243.692 Y40.339 Z-1.700 I2.846 J5.280 K0.000
G3 X246.781 Y41.590 Z-1.700 I-2.198 J9.871 K0.000
G3 X250.903 Y44.584 Z-1.700 I-55.079 J80.173 K0.000
G3 X251.053 Y44.815 Z-1.700 I-0.240 J0.320 K0.000
G2 X259.168 Y59.086 Z-1.700 I25.696 J-5.167 K0.000
G2 X279.292 Y65.307 Z-1.700 I16.637 J-18.161 K0.000
G2 X284.959 Y63.857 Z-1.700 I-2.155 J-20.231 K0.000
G2 X293.009 Y55.300 Z-1.700 I-5.058 J-12.824 K0.000
G2 X293.639 Y48.010 Z-1.700 I-17.121 J-5.151 K0.000
G2 X291.503 Y39.938 Z-1.700 I-36.081 J5.229 K0.000
G0 Z5.000
G0 X335.281 Y18.550 Z5.000
G0 X335.281 Y18.550 Z3.000
G1 X335.281 Y18.550 Z-1.700
G2 X339.222 Y25.182 Z-1.700 I42.433 J-20.730 K0.000
G2 X346.651 Y34.926 Z-1.700 I327.806 J-242.188 K0.000
G3 X355.087 Y46.391 Z-1.700 I-120.964 J97.857 K0.000
G3 X362.819 Y60.590 Z-1.700 I-69.325 J46.951 K0.000
G3 X363.710 Y63.412 Z-1.700 I-11.410 J5.155 K0.000
G3 X363.835 Y65.656 Z-1.700 I-6.709 J1.499 K0.000
G3 X361.447 Y68.772 Z-1.700 I-3.764 J-0.410 K0.000
G2 X360.640 Y69.489 Z-1.700 I0.352 J1.210 K0.000
G2 X360.904 Y70.707 Z-1.700 I1.507 J0.311 K0.000
G2 X363.215 Y72.171 Z-1.700 I4.023 J-3.794 K0.000
G2 X375.491 Y71.646 Z-1.700 I5.387 J-17.811 K0.000
G2 X379.452 Y69.153 Z-1.700 I-3.914 J-10.613 K0.000
G2 X382.232 Y62.592 Z-1.700 I-6.090 J-6.450 K0.000
G2 X381.184 Y58.076 Z-1.700 I-12.134 J0.435 K0.000
G2 X377.802 Y51.981 Z-1.700 I-47.966 J22.632 K0.000
G2 X371.642 Y43.116 Z-1.700 I-200.529 J132.774 K0.000
G3 X363.767 Y32.411 Z-1.700 I1453.913 J-1077.784 K0.000
G3 X355.844 Y20.855 Z-1.700 I139.006 J-103.794 K0.000
G3 X352.386 Y14.363 Z-1.700 I40.356 J-25.667 K0.000
G3 X351.307 Y10.490 Z-1.700 I12.055 J-5.443 K0.000
G3 X351.430 Y8.684 Z-1.700 I4.510 J-0.600 K0.000
G3 X352.551 Y7.025 Z-1.700 I2.634 J0.571 K0.000
G3 X356.148 Y6.573 Z-1.700 I2.341 J4.091 K0.000
G2 X358.094 Y7.139 Z-1.700 I4.861 J-13.089 K0.000
G2 X359.095 Y6.256 Z-1.700 I0.133 J-0.858 K0.000
G2 X358.074 Y4.513 Z-1.700 I-3.058 J0.621 K0.000
G2 X356.714 Y3.496 Z-1.700 I-10.220 J12.251 K0.000
G2 X348.507 Y0.401 Z-1.700 I-10.413 J15.183 K0.000
G2 X338.243 Y3.410 Z-1.700 I-1.340 J14.440 K0.000
G2 X333.780 Y12.140 Z-1.700 I7.022 J9.095 K0.000
G2 X334.952 Y17.862 Z-1.700 I13.647 J0.187 K0.000
G2 X335.281 Y18.550 Z-1.700 I42.763 J-20.042 K0.000
G0 Z5.000
G0 X74.176 Y33.915 Z5.000
G0 X74.176 Y33.915 Z3.000
G1 X74.176 Y33.915 Z-1.700
G2 X73.525 Y29.378 Z-1.700 I-27.364 J1.610 K0.000
G2 X66.604 Y18.075 Z-1.700 I-19.551 J4.200 K0.000
G2 X54.643 Y13.090 Z-1.700 I-15.055 J19.282 K0.000
G2 X47.756 Y13.470 Z-1.700 I-2.492 J17.400 K0.000
G2 X39.052 Y19.173 Z-1.700 I3.766 J15.240 K0.000
G3 X38.364 Y19.050 Z-1.700 I-0.310 J-0.253 K0.000
G2 X34.611 Y11.254 Z-1.700 I-28.917 J9.122 K0.000
G2 X29.362 Y5.387 Z-1.700 I-22.406 J14.764 K0.000
G2 X21.879 Y1.944 Z-1.700 I-10.649 J13.289 K0.000
G1 X20.883 Y1.817 Z-1.700
G2 X13.628 Y3.880 Z-1.700 I-1.100 J9.920 K0.000
G2 X9.621 Y9.324 Z-1.700 I9.505 J11.192 K0.000
G2 X7.886 Y14.828 Z-1.700 I31.660 J13.006 K0.000
G2 X6.893 Y21.200 Z-1.700 I56.428 J12.055 K0.000
G3 X6.141 Y27.202 Z-1.700 I-166.063 J-17.766 K0.000
G3 X4.842 Y32.271 Z-1.700 I-25.424 J-3.814 K0.000
G3 X3.612 Y33.213 Z-1.700 I-1.394 J-0.546 K0.000
G2 X2.130 Y33.169 Z-1.700 I-1.647 J30.903 K0.000
G2 X0.829 Y33.801 Z-1.700 I-0.190 J1.263 K0.000
G2 X0.455 Y37.067 Z-1.700 I5.373 J2.270 K0.000
G2 X0.700 Y37.656 Z-1.700 I1.218 J-0.163 K0.000
G2 X1.767 Y38.230 Z-1.700 I1.629 J-1.746 K0.000
G3 X5.661 Y41.208 Z-1.700 I-5.776 J11.589 K0.000
G3 X8.452 Y45.285 Z-1.700 I-18.048 J15.350 K0.000
G3 X12.126 Y55.871 Z-1.700 I-36.222 J18.500 K0.000
G2 X13.220 Y58.735 Z-1.700 I8.068 J-1.441 K0.000
G2 X13.975 Y59.510 Z-1.700 I2.009 J-1.203 K0.000
G2 X15.951 Y59.327 Z-1.700 I0.884 J-1.213 K0.000
G2 X16.644 Y58.014 Z-1.700 I-3.292 J-2.578 K0.000
G2 X17.417 Y54.561 Z-1.700 I-33.018 J-9.207 K0.000
G3 X18.349 Y49.071 Z-1.700 I86.648 J11.874 K0.000
G3 X18.929 Y47.383 Z-1.700 I6.174 J1.177 K0.000
G3 X20.809 Y45.922 Z-1.700 I2.193 J0.882 K0.000
G3 X23.602 Y46.475 Z-1.700 I0.134 J6.656 K0.000
G1 X23.602 Y46.475 Z-1.700
G2 X24.081 Y46.610 Z-1.700 I0.653 J-1.393 K0.000
G2 X24.917 Y46.356 Z-1.700 I0.180 J-0.910 K0.000
G2 X25.557 Y42.796 Z-1.700 I-4.778 J-2.696 K0.000
G2 X24.876 Y41.420 Z-1.700 I-2.360 J0.312 K0.000
G2 X24.010 Y40.949 Z-1.700 I-2.585 J3.724 K0.000
G3 X21.333 Y38.182 Z-1.700 I1.169 J-3.809 K0.000
G3 X21.238 Y35.515 Z-1.700 I8.310 J-1.631 K0.000
G3 X23.204 Y23.802 Z-1.700 I109.449 J12.345 K0.000
G3 X24.391 Y19.790 Z-1.700 I29.587 J6.576 K0.000
G3 X25.973 Y17.087 Z-1.700 I7.412 J2.523 K0.000
G3 X28.521 Y15.825 Z-1.700 I2.933 J2.716 K0.000
G3 X32.141 Y16.824 Z-1.700 I0.290 J6.000 K0.000
G3 X34.387 Y19.287 Z-1.700 I-6.251 J7.959 K0.000
G3 X36.551 Y23.291 Z-1.700 I-58.666 J34.293 K0.000
G3 X36.574 Y23.604 Z-1.700 I-0.356 J0.183 K0.000
G2 X36.344 Y41.309 Z-1.700 I24.494 J9.172 K0.000
G2 X50.964 Y56.451 Z-1.700 I23.320 J-7.887 K0.000
G2 X56.627 Y57.915 Z-1.700 I7.875 J-18.780 K0.000
G2 X67.806 Y54.304 Z-1.700 I1.757 J-13.671 K0.000
G2 X71.875 Y48.219 Z-1.700 I-12.510 J-12.769 K0.000
G2 X74.113 Y37.979 Z-1.700 I-34.169 J-12.834 K0.000
G2 X74.176 Y33.915 Z-1.700 I-27.301 J-2.454 K0.000
G1 X74.176 Y33.915 Z-3.400
G2 X73.525 Y29.378 Z-3.400 I-27.364 J1.610 K0.000
G2 X66.604 Y18.075 Z-3.400 I-19.551 J4.200 K0.000
G2 X54.643 Y13.090 Z-3.400 I-15.055 J19.282 K0.000
G2 X47.756 Y13.470 Z-3.400 I-2.492 J17.400 K0.000
G2 X39.052 Y19.173 Z-3.400 I3.766 J15.240 K0.000
G3 X38.364 Y19.050 Z-3.400 I-0.310 J-0.253 K0.000
G2 X34.611 Y11.254 Z-3.400 I-28.917 J9.122 K0.000
G2 X29.362 Y5.387 Z-3.400 I-22.406 J14.764 K0.000
G2 X21.879 Y1.944 Z-3.400 I-10.649 J13.289 K0.000
G1 X20.883 Y1.817 Z-3.400
G2 X13.628 Y3.880 Z-3.400 I-1.100 J9.920 K0.000
G2 X9.621 Y9.324 Z-3.400 I9.505 J11.192 K0.000
G2 X7.886 Y14.828 Z-3.400 I31.660 J13.006 K0.000
G2 X6.893 Y21.200 Z-3.400 I56.428 J12.055 K0.000
G3 X6.141 Y27.202 Z-3.400 I-166.063 J-17.766 K0.000
G3 X4.842 Y32.271 Z-3.400 I-25.424 J-3.814 K0.000
G3 X3.612 Y33.213 Z-3.400 I-1.394 J-0.546 K0.000
G2 X2.130 Y33.169 Z-3.400 I-1.647 J30.903 K0.000
G2 X0.829 Y33.801 Z-3.400 I-0.190 J1.263 K0.000
G2 X0.455 Y37.067 Z-3.400 I5.373 J2.270 K0.000
G2 X0.700 Y37.656 Z-3.400 I1.218 J-0.163 K0.000
G2 X1.767 Y38.230 Z-3.400 I1.629 J-1.746 K0.000
G3 X5.661 Y41.208 Z-3.400 I-5.776 J11.589 K0.000
G3 X8.452 Y45.285 Z-3.400 I-18.048 J15.350 K0.000
G3 X12.126 Y55.871 Z-3.400 I-36.222 J18.500 K0.000
G2 X13.220 Y58.735 Z-3.400 I8.068 J-1.441 K0.000
G2 X13.975 Y59.510 Z-3.400 I2.009 J-1.203 K0.000
G2 X15.951 Y59.327 Z-3.400 I0.884 J-1.213 K0.000
G2 X16.644 Y58.014 Z-3.400 I-3.292 J-2.578 K0.000
G2 X17.417 Y54.561 Z-3.400 I-33.018 J-9.207 K0.000
G3 X18.349 Y49.071 Z-3.400 I86.648 J11.874 K0.000
G3 X18.929 Y47.383 Z-3.400 I6.174 J1.177 K0.000
G3 X20.809 Y45.922 Z-3.400 I2.193 J0.882 K0.000
G3 X23.602 Y46.475 Z-3.400 I0.134 J6.656 K0.000
G1 X23.602 Y46.475 Z-3.400
G2 X24.081 Y46.610 Z-3.400 I0.653 J-1.393 K0.000
G2 X24.917 Y46.356 Z-3.400 I0.180 J-0.910 K0.000
G2 X25.557 Y42.796 Z-3.400 I-4.778 J-2.696 K0.000
G2 X24.876 Y41.420 Z-3.400 I-2.360 J0.312 K0.000
G2 X24.010 Y40.949 Z-3.400 I-2.585 J3.724 K0.000
G3 X21.333 Y38.182 Z-3.400 I1.169 J-3.809 K0.000
G3 X21.238 Y35.515 Z-3.400 I8.310 J-1.631 K0.000
G3 X23.204 Y23.802 Z-3.400 I109.449 J12.345 K0.000
G3 X24.391 Y19.790 Z-3.400 I29.587 J6.576 K0.000
G3 X25.973 Y17.087 Z-3.400 I7.412 J2.523 K0.000
G3 X28.521 Y15.825 Z-3.400 I2.933 J2.716 K0.000
G3 X32.141 Y16.824 Z-3.400 I0.290 J6.000 K0.000
G3 X34.387 Y19.287 Z-3.400 I-6.251 J7.959 K0.000
G3 X36.551 Y23.291 Z-3.400 I-58.666 J34.293 K0.000
G3 X36.574 Y23.604 Z-3.400 I-0.356 J0.183 K0.000
G2 X36.344 Y41.309 Z-3.400 I24.494 J9.172 K0.000
G2 X50.964 Y56.451 Z-3.400 I23.320 J-7.887 K0.000
G2 X56.627 Y57.915 Z-3.400 I7.875 J-18.780 K0.000
G2 X67.806 Y54.304 Z-3.400 I1.757 J-13.671 K0.000
G2 X71.875 Y48.219 Z-3.400 I-12.510 J-12.769 K0.000
G2 X74.113 Y37.979 Z-3.400 I-34.169 J-12.834 K0.000
G2 X74.176 Y33.915 Z-3.400 I-27.301 J-2.454 K0.000
G0 Z5.000
G0 X79.103 Y35.133 Z5.000
G0 X79.103 Y35.133 Z3.000
G1 X79.103 Y35.133 Z-3.400
G2 X78.716 Y49.130 Z-3.400 I31.918 J7.888 K0.000
G2 X80.782 Y55.413 Z-3.400 I22.914 J-4.054 K0.000
G2 X88.245 Y63.814 Z-3.400 I18.599 J-9.009 K0.000
G2 X97.366 Y67.262 Z-3.400 I13.292 J-21.372 K0.000
G2 X102.886 Y67.475 Z-3.400 I3.451 J-17.846 K0.000
G2 X106.120 Y66.824 Z-3.400 I-4.019 J-28.324 K0.000
G3 X108.498 Y66.692 Z-3.400 I1.476 J5.106 K0.000
G3 X111.884 Y68.044 Z-3.400 I-4.802 J16.936 K0.000
G2 X117.350 Y70.754 Z-3.400 I34.161 J-62.045 K0.000
G2 X118.948 Y71.193 Z-3.400 I2.427 J-5.701 K0.000
G2 X120.117 Y70.525 Z-3.400 I0.133 J-1.125 K0.000
G2 X120.416 Y68.907 Z-3.400 I-5.027 J-1.765 K0.000
G2 X120.140 Y62.888 Z-3.400 I-112.407 J2.140 K0.000
G3 X119.838 Y52.773 Z-3.400 I87.281 J-7.668 K0.000
G3 X120.586 Y45.173 Z-3.400 I48.788 J0.967 K0.000
G3 X121.257 Y43.034 Z-3.400 I7.230 J1.093 K0.000
G3 X123.395 Y40.605 Z-3.400 I5.052 J2.289 K0.000
G3 X127.835 Y40.847 Z-3.400 I2.027 J3.653 K0.000
G3 X129.369 Y42.522 Z-3.400 I-3.094 J4.373 K0.000
G2 X130.639 Y44.552 Z-3.400 I227.249 J-140.826 K0.000
G3 X130.882 Y45.032 Z-3.400 I-0.482 J0.545 K0.000
G2 X132.732 Y59.496 Z-3.400 I30.986 J3.387 K0.000
G2 X138.484 Y68.368 Z-3.400 I22.505 J-8.288 K0.000
G2 X152.902 Y74.387 Z-3.400 I14.592 J-14.675 K0.000
G2 X158.828 Y73.308 Z-3.400 I0.349 J-14.891 K0.000
G2 X160.064 Y72.714 Z-3.400 I-2.240 J-6.244 K0.000
G3 X160.795 Y72.915 Z-3.400 I0.317 J0.279 K0.000
G2 X163.210 Y87.730 Z-3.400 I378.665 J-54.126 K0.000
G2 X166.860 Y105.139 Z-3.400 I310.990 J-56.100 K0.000
G3 X166.598 Y105.613 Z-3.400 I-0.389 J0.094 K0.000
G2 X157.030 Y108.892 Z-3.400 I123.087 J374.682 K0.000
G2 X140.188 Y115.217 Z-3.400 I406.397 J1107.857 K0.000
G3 X123.875 Y120.946 Z-3.400 I-110.827 J-289.433 K0.000
G3 X109.270 Y124.712 Z-3.400 I-42.185 J-133.421 K0.000
G3 X80.213 Y126.406 Z-3.400 I-20.720 J-105.340 K0.000
G3 X73.827 Y124.855 Z-3.400 I2.273 J-23.270 K0.000
G3 X64.441 Y116.509 Z-3.400 I6.317 J-16.557 K0.000
G3 X62.834 Y102.760 Z-3.400 I18.108 J-9.084 K0.000
G3 X64.895 Y97.744 Z-3.400 I23.581 J6.758 K0.000
G2 X64.823 Y95.690 Z-3.400 I-1.680 J-0.969 K0.000
G2 X64.412 Y95.373 Z-3.400 I-0.549 J0.286 K0.000
G2 X61.227 Y95.872 Z-3.400 I-0.229 J8.952 K0.000
G2 X54.910 Y99.480 Z-3.400 I8.350 J21.953 K0.000
G2 X45.654 Y112.439 Z-3.400 I19.304 J23.573 K0.000
G2 X44.323 Y131.189 Z-3.400 I32.668 J11.743 K0.000
G2 X58.907 Y152.369 Z-3.400 I31.817 J-6.298 K0.000
G2 X75.308 Y157.781 Z-3.400 I19.811 J-32.478 K0.000
G2 X88.356 Y157.176 Z-3.400 I4.108 J-52.365 K0.000
G2 X104.160 Y152.585 Z-3.400 I-14.818 J-80.508 K0.000
G2 X118.694 Y145.788 Z-3.400 I-60.966 J-149.291 K0.000
G2 X134.633 Y136.714 Z-3.400 I-178.969 J-332.902 K0.000
G3 X147.771 Y128.864 Z-3.400 I439.870 J721.326 K0.000
G3 X160.205 Y121.909 Z-3.400 I118.628 J197.477 K0.000
G3 X168.997 Y117.736 Z-3.400 I55.044 J104.618 K0.000
G3 X169.543 Y118.011 Z-3.400 I0.158 J0.368 K0.000
G2 X173.720 Y132.441 Z-3.400 I120.141 J-26.951 K0.000
G2 X179.883 Y146.055 Z-3.400 I76.235 J-26.310 K0.000
G2 X186.863 Y155.773 Z-3.400 I45.341 J-25.199 K0.000
G2 X194.297 Y162.112 Z-3.400 I26.341 J-23.365 K0.000
G2 X215.750 Y166.399 Z-3.400 I16.155 J-25.022 K0.000
G2 X225.025 Y162.466 Z-3.400 I-3.528 J-21.222 K0.000
G2 X231.502 Y154.681 Z-3.400 I-13.199 J-17.568 K0.000
G2 X233.750 Y148.197 Z-3.400 I-23.733 J-11.858 K0.000
G2 X233.873 Y132.572 Z-3.400 I-40.480 J-8.132 K0.000
G2 X224.520 Y114.382 Z-3.400 I-33.858 J5.909 K0.000
G2 X213.522 Y106.641 Z-3.400 I-28.438 J28.719 K0.000
G2 X193.674 Y101.887 Z-3.400 I-21.336 J45.264 K0.000
G2 X182.088 Y103.044 Z-3.400 I1.916 J77.789 K0.000
G3 X181.635 Y102.742 Z-3.400 I-0.063 J-0.395 K0.000
G3 X175.728 Y74.051 Z-3.400 I362.923 J-89.672 K0.000
G3 X173.568 Y57.832 Z-3.400 I206.269 J-35.731 K0.000
G3 X173.277 Y50.885 Z-3.400 I62.231 J-6.079 K0.000
G3 X173.790 Y47.042 Z-3.400 I12.607 J-0.274 K0.000
G3 X174.659 Y45.345 Z-3.400 I4.823 J1.397 K0.000
G3 X176.540 Y44.091 Z-3.400 I2.681 J1.984 K0.000
G3 X180.327 Y45.134 Z-3.400 I0.850 J4.307 K0.000
G3 X182.371 Y47.548 Z-3.400 I-11.847 J12.102 K0.000
G2 X183.964 Y50.508 Z-3.400 I6.485 J-1.582 K0.000
G2 X189.496 Y52.076 Z-3.400 I3.974 J-3.476 K0.000
G2 X191.949 Y50.074 Z-3.400 I-1.021 J-3.756 K0.000
G2 X192.419 Y47.449 Z-3.400 I-5.176 J-2.280 K0.000
G3 X192.343 Y45.806 Z-3.400 I31.712 J-2.282 K0.000
G3 X192.821 Y43.490 Z-3.400 I5.842 J-0.001 K0.000
G3 X195.687 Y41.839 Z-3.400 I2.631 J1.253 K0.000
G3 X197.697 Y43.127 Z-3.400 I-0.251 J2.603 K0.000
G3 X198.304 Y45.242 Z-3.400 I-4.198 J2.349 K0.000
G3 X197.590 Y48.577 Z-3.400 I-6.994 J0.248 K0.000
G3 X195.738 Y51.274 Z-3.400 I-10.919 J-5.515 K0.000
G3 X192.522 Y54.669 Z-3.400 I-63.028 J-56.482 K0.000
G2 X189.696 Y58.285 Z-3.400 I13.009 J13.077 K0.000
G2 X189.929 Y69.633 Z-3.400 I9.178 J5.488 K0.000
G2 X195.957 Y74.555 Z-3.400 I11.821 J-8.323 K0.000
G2 X206.688 Y76.187 Z-3.400 I8.565 J-20.226 K0.000
G2 X212.377 Y74.923 Z-3.400 I-3.236 J-27.995 K0.000
G3 X212.900 Y75.262 Z-3.400 I0.125 J0.380 K0.000
G2 X218.074 Y88.362 Z-3.400 I23.663 J-1.773 K0.000
G2 X225.555 Y94.167 Z-3.400 I15.383 J-12.101 K0.000
G2 X237.881 Y94.727 Z-3.400 I6.868 J-15.247 K0.000
G2 X245.085 Y87.952 Z-3.400 I-3.463 J-10.900 K0.000
G2 X246.017 Y80.511 Z-3.400 I-16.686 J-5.870 K0.000
G2 X245.429 Y76.434 Z-3.400 I-92.919 J11.326 K0.000
G3 X245.094 Y73.491 Z-3.400 I16.824 J-3.404 K0.000
G3 X246.414 Y71.261 Z-3.400 I2.354 J-0.112 K0.000
G3 X249.273 Y70.591 Z-3.400 I3.239 J7.390 K0.000
G2 X250.246 Y69.968 Z-3.400 I0.042 J-1.006 K0.000
G2 X249.981 Y68.112 Z-3.400 I-2.357 J-0.610 K0.000
G2 X248.325 Y66.985 Z-3.400 I-2.332 J1.646 K0.000
G3 X245.586 Y66.133 Z-3.400 I1.589 J-9.936 K0.000
G3 X242.082 Y62.197 Z-3.400 I3.338 J-6.500 K0.000
G3 X238.658 Y50.498 Z-3.400 I88.304 J-32.193 K0.000
G3 X237.998 Y46.382 Z-3.400 I29.400 J-6.825 K0.000
G3 X238.253 Y43.238 Z-3.400 I7.509 J-0.975 K0.000
G3 X240.009 Y40.999 Z-3.400 I3.818 J1.187 K0.000
G3 X243.692 Y40.339 Z-3.400 I2.846 J5.280 K0.000
G3 X246.781 Y41.590 Z-3.400 I-2.198 J9.871 K0.000
G3 X250.903 Y44.584 Z-3.400 I-55.079 J80.173 K0.000
G3 X251.053 Y44.815 Z-3.400 I-0.240 J0.320 K0.000
G2 X259.168 Y59.086 Z-3.400 I25.696 J-5.167 K0.000
G2 X279.292 Y65.307 Z-3.400 I16.637 J-18.161 K0.000
G2 X284.959 Y63.857 Z-3.400 I-2.155 J-20.231 K0.000
G2 X293.009 Y55.300 Z-3.400 I-5.058 J-12.824 K0.000
G2 X293.639 Y48.010 Z-3.400 I-17.121 J-5.151 K0.000
G2 X290.662 Y37.964 Z-3.400 I-36.081 J5.229 K0.000
G2 X285.998 Y30.715 Z-3.400 I-25.091 J11.018 K0.000
G2 X273.282 Y23.972 Z-3.400 I-15.087 J13.090 K0.000
G2 X261.593 Y25.554 Z-3.400 I-2.618 J24.619 K0.000
G2 X255.742 Y29.214 Z-3.400 I6.229 J16.467 K0.000
G2 X250.765 Y39.235 Z-3.400 I10.662 J11.540 K0.000
G3 X250.086 Y39.466 Z-3.400 I-0.397 J-0.051 K0.000
G2 X239.617 Y32.314 Z-3.400 I-21.925 J20.854 K0.000
G2 X234.161 Y30.883 Z-3.400 I-7.495 J17.462 K0.000
G2 X227.148 Y31.641 Z-3.400 I-1.858 J15.647 K0.000
G2 X221.412 Y36.667 Z-3.400 I3.224 J9.466 K0.000
G2 X220.152 Y43.301 Z-3.400 I13.315 J5.965 K0.000
G2 X221.359 Y50.677 Z-3.400 I36.274 J-2.149 K0.000
G2 X224.050 Y59.051 Z-3.400 I204.314 J-61.043 K0.000
G3 X225.589 Y65.590 Z-3.400 I-30.510 J10.629 K0.000
G3 X225.140 Y67.759 Z-3.400 I-2.633 J0.587 K0.000
G3 X223.673 Y69.045 Z-3.400 I-7.242 J-6.785 K0.000
G2 X223.174 Y71.795 Z-3.400 I1.039 J1.609 K0.000
G2 X224.222 Y72.635 Z-3.400 I2.730 J-2.332 K0.000
G3 X231.441 Y82.653 Z-3.400 I-6.184 J12.066 K0.000
G3 X231.373 Y85.351 Z-3.400 I-6.527 J1.186 K0.000
G3 X229.311 Y87.502 Z-3.400 I-2.888 J-0.704 K0.000
G3 X224.922 Y86.889 Z-3.400 I-1.340 J-6.419 K0.000
G3 X220.491 Y82.488 Z-3.400 I5.746 J-10.217 K0.000
G3 X218.288 Y75.007 Z-3.400 I16.098 J-8.806 K0.000
G3 X218.288 Y69.653 Z-3.400 I68.132 J-2.671 K0.000
G2 X218.262 Y66.100 Z-3.400 I-20.426 J-1.627 K0.000
G2 X215.978 Y61.463 Z-3.400 I-6.463 J0.302 K0.000
G2 X210.590 Y61.191 Z-3.400 I-2.898 J3.916 K0.000
G2 X209.089 Y63.777 Z-3.400 I1.562 J2.636 K0.000
G2 X209.715 Y66.345 Z-3.400 I6.706 J-0.276 K0.000
G3 X210.337 Y67.744 Z-3.400 I-5.424 J3.250 K0.000
G3 X210.086 Y69.410 Z-3.400 I-2.042 J0.545 K0.000
G3 X206.365 Y70.402 Z-3.400 I-2.437 J-1.668 K0.000
G3 X203.954 Y67.506 Z-3.400 I2.487 J-4.521 K0.000
G3 X204.644 Y61.718 Z-3.400 I7.250 J-2.071 K0.000
G3 X207.172 Y58.585 Z-3.400 I13.317 J8.158 K0.000
G2 X212.293 Y53.898 Z-3.400 I-81.069 J-93.719 K0.000
G2 X213.747 Y52.090 Z-3.400 I-8.602 J-8.405 K0.000
G2 X215.156 Y45.225 Z-3.400 I-7.537 J-5.123 K0.000
G2 X210.475 Y37.009 Z-3.400 I-12.846 J1.877 K0.000
G2 X203.632 Y33.844 Z-3.400 I-10.411 J13.530 K0.000
G2 X191.734 Y34.392 Z-3.400 I-4.862 J23.897 K0.000
G2 X185.891 Y37.423 Z-3.400 I4.130 J15.106 K0.000
G2 X182.989 Y41.078 Z-3.400 I6.356 J8.025 K0.000
G3 X182.322 Y41.146 Z-3.400 I-0.356 J-0.183 K0.000
G2 X174.596 Y34.851 Z-3.400 I-16.673 J12.573 K0.000
G2 X167.963 Y33.324 Z-3.400 I-6.537 J13.225 K0.000
G2 X164.083 Y34.203 Z-3.400 I-0.085 J8.619 K0.000
G2 X159.442 Y39.275 Z-3.400 I4.394 J8.681 K0.000
G3 X158.785 Y39.380 Z-3.400 I-0.364 J-0.166 K0.000
G2 X150.200 Y33.192 Z-3.400 I-17.525 J15.264 K0.000
G2 X141.714 Y32.007 Z-3.400 I-6.358 J14.542 K0.000
G2 X137.216 Y33.490 Z-3.400 I1.270 J11.412 K0.000
G2 X132.458 Y38.939 Z-3.400 I6.108 J10.135 K0.000
G3 X131.742 Y38.969 Z-3.400 I-0.365 J-0.163 K0.000
G2 X126.200 Y32.111 Z-3.400 I-19.123 J9.786 K0.000
G2 X119.568 Y28.695 Z-3.400 I-10.677 J12.584 K0.000
G2 X113.857 Y28.817 Z-3.400 I-2.659 J9.250 K0.000
G2 X108.131 Y33.464 Z-3.400 I4.017 J10.802 K0.000
G3 X107.453 Y33.430 Z-3.400 I-0.329 J-0.228 K0.000
G2 X92.914 Y23.932 Z-3.400 I-15.588 J7.985 K0.000
G2 X82.576 Y28.245 Z-3.400 I-0.863 J12.476 K0.000
G2 X79.179 Y34.831 Z-3.400 I13.540 J11.154 K0.000
G2 X79.103 Y35.133 Z-3.400 I31.842 J8.189 K0.000
G0 Z5.000
G0 X293.467 Y30.274 Z5.000
G0 X293.467 Y30.274 Z3.000
G1 X293.467 Y30.274 Z-3.400
G2 X293.536 Y31.443 Z-3.400 I16.015 J-0.363 K0.000
G2 X296.743 Y40.863 Z-3.400 I23.969 J-2.904 K0.000
G2 X308.617 Y51.553 Z-3.400 I22.381 J-12.919 K0.000
G2 X325.855 Y52.566 Z-3.400 I9.994 J-22.893 K0.000
G2 X330.863 Y50.388 Z-3.400 I-4.473 J-17.130 K0.000
G2 X337.121 Y41.584 Z-3.400 I-7.144 J-11.704 K0.000
G2 X337.016 Y34.282 Z-3.400 I-17.507 J-3.401 K0.000
G2 X333.047 Y24.585 Z-3.400 I-35.404 J8.830 K0.000
G2 X327.680 Y17.838 Z-3.400 I-23.869 J13.480 K0.000
G2 X316.829 Y12.606 Z-3.400 I-13.675 J14.494 K0.000
G1 X315.632 Y12.474 Z-3.400
G2 X302.867 Y15.158 Z-3.400 I-1.506 J24.528 K0.000
G2 X298.189 Y18.549 Z-3.400 I7.848 J15.748 K0.000
G2 X293.467 Y30.274 Z-3.400 I11.292 J11.361 K0.000
G0 Z5.000
G0 X334.477 Y16.634 Z5.000
G0 X334.477 Y16.634 Z3.000
G1 X334.477 Y16.634 Z-3.400
G2 X334.952 Y17.862 Z-3.400 I12.951 J-4.307 K0.000
G2 X339.222 Y25.182 Z-3.400 I42.763 J-20.042 K0.000
G2 X346.651 Y34.926 Z-3.400 I327.806 J-242.188 K0.000
G3 X355.087 Y46.391 Z-3.400 I-120.964 J97.857 K0.000
G3 X362.819 Y60.590 Z-3.400 I-69.325 J46.951 K0.000
G3 X363.710 Y63.412 Z-3.400 I-11.410 J5.155 K0.000
G3 X363.835 Y65.656 Z-3.400 I-6.709 J1.499 K0.000
G3 X361.447 Y68.772 Z-3.400 I-3.764 J-0.410 K0.000
G2 X360.640 Y69.489 Z-3.400 I0.352 J1.210 K0.000
G2 X360.904 Y70.707 Z-3.400 I1.507 J0.311 K0.000
G2 X363.215 Y72.171 Z-3.400 I4.023 J-3.794 K0.000
G2 X375.491 Y71.646 Z-3.400 I5.387 J-17.811 K0.000
G2 X379.452 Y69.153 Z-3.400 I-3.914 J-10.613 K0.000
G2 X382.232 Y62.592 Z-3.400 I-6.090 J-6.450 K0.000
G2 X381.184 Y58.076 Z-3.400 I-12.134 J0.435 K0.000
G2 X377.802 Y51.981 Z-3.400 I-47.966 J22.632 K0.000
G2 X371.642 Y43.116 Z-3.400 I-200.529 J132.774 K0.000
G3 X363.767 Y32.411 Z-3.400 I1453.913 J-1077.784 K0.000
G3 X355.844 Y20.855 Z-3.400 I139.006 J-103.794 K0.000
G3 X352.386 Y14.363 Z-3.400 I40.356 J-25.667 K0.000
G3 X351.307 Y10.490 Z-3.400 I12.055 J-5.443 K0.000
G3 X351.430 Y8.684 Z-3.400 I4.510 J-0.600 K0.000
G3 X352.551 Y7.025 Z-3.400 I2.634 J0.571 K0.000
G3 X356.148 Y6.573 Z-3.400 I2.341 J4.091 K0.000
G2 X358.094 Y7.139 Z-3.400 I4.861 J-13.089 K0.000
G2 X359.095 Y6.256 Z-3.400 I0.133 J-0.858 K0.000
G2 X358.074 Y4.513 Z-3.400 I-3.058 J0.621 K0.000
G2 X356.714 Y3.496 Z-3.400 I-10.220 J12.251 K0.000
G2 X348.507 Y0.401 Z-3.400 I-10.413 J15.183 K0.000
G2 X338.243 Y3.410 Z-3.400 I-1.340 J14.440 K0.000
G2 X333.780 Y12.140 Z-3.400 I7.022 J9.095 K0.000
G2 X334.477 Y16.634 Z-3.400 I13.647 J0.187 K0.000
G1 X334.477 Y16.634 Z-5.100
G2 X334.952 Y17.862 Z-5.100 I12.951 J-4.307 K0.000
G2 X339.222 Y25.182 Z-5.100 I42.763 J-20.042 K0.000
G2 X346.651 Y34.926 Z-5.100 I327.806 J-242.188 K0.000
G3 X355.087 Y46.391 Z-5.100 I-120.964 J97.857 K0.000
G3 X362.819 Y60.590 Z-5.100 I-69.325 J46.951 K0.000
G3 X363.710 Y63.412 Z-5.100 I-11.410 J5.155 K0.000
G3 X363.835 Y65.656 Z-5.100 I-6.709 J1.499 K0.000
G3 X361.447 Y68.772 Z-5.100 I-3.764 J-0.410 K0.000
G2 X360.640 Y69.489 Z-5.100 I0.352 J1.210 K0.000
G2 X360.904 Y70.707 Z-5.100 I1.507 J0.311 K0.000
G2 X363.215 Y72.171 Z-5.100 I4.023 J-3.794 K0.000
G2 X375.491 Y71.646 Z-5.100 I5.387 J-17.811 K0.000
G2 X379.452 Y69.153 Z-5.100 I-3.914 J-10.613 K0.000
G2 X382.232 Y62.592 Z-5.100 I-6.090 J-6.450 K0.000
G2 X381.184 Y58.076 Z-5.100 I-12.134 J0.435 K0.000
G2 X377.802 Y51.981 Z-5.100 I-47.966 J22.632 K0.000
G2 X371.642 Y43.116 Z-5.100 I-200.529 J132.774 K0.000
G3 X363.767 Y32.411 Z-5.100 I1453.913 J-1077.784 K0.000
G3 X355.844 Y20.855 Z-5.100 I139.006 J-103.794 K0.000
G3 X352.386 Y14.363 Z-5.100 I40.356 J-25.667 K0.000
G3 X351.307 Y10.490 Z-5.100 I12.055 J-5.443 K0.000
G3 X351.430 Y8.684 Z-5.100 I4.510 J-0.600 K0.000
G3 X352.551 Y7.025 Z-5.100 I2.634 J0.571 K0.000
G3 X356.148 Y6.573 Z-5.100 I2.341 J4.091 K0.000
G2 X358.094 Y7.139 Z-5.100 I4.861 J-13.089 K0.000
G2 X359.095 Y6.256 Z-5.100 I0.133 J-0.858 K0.000
G2 X358.074 Y4.513 Z-5.100 I-3.058 J0.621 K0.000
G2 X356.714 Y3.496 Z-5.100 I-10.220 J12.251 K0.000
G2 X348.507 Y0.401 Z-5.100 I-10.413 J15.183 K0.000
G2 X338.243 Y3.410 Z-5.100 I-1.340 J14.440 K0.000
G2 X333.780 Y12.140 Z-5.100 I7.022 J9.095 K0.000
G2 X334.477 Y16.634 Z-5.100 I13.647 J0.187 K0.000
G0 Z5.000
G0 X330.095 Y20.346 Z5.000
G0 X330.095 Y20.346 Z3.000
G1 X330.095 Y20.346 Z-5.100
G2 X327.680 Y17.838 Z-5.100 I-20.916 J17.718 K0.000
G2 X316.829 Y12.606 Z-5.100 I-13.675 J14.494 K0.000
G1 X315.632 Y12.474 Z-5.100
G2 X302.867 Y15.158 Z-5.100 I-1.506 J24.528 K0.000
G2 X298.189 Y18.549 Z-5.100 I7.848 J15.748 K0.000
G2 X293.536 Y31.443 Z-5.100 I11.292 J11.361 K0.000
G2 X296.743 Y40.863 Z-5.100 I23.969 J-2.904 K0.000
G2 X308.617 Y51.553 Z-5.100 I22.381 J-12.919 K0.000
G2 X325.855 Y52.566 Z-5.100 I9.994 J-22.893 K0.000
G2 X330.863 Y50.388 Z-5.100 I-4.473 J-17.130 K0.000
G2 X337.121 Y41.584 Z-5.100 I-7.144 J-11.704 K0.000
G2 X337.016 Y34.282 Z-5.100 I-17.507 J-3.401 K0.000
G2 X333.047 Y24.585 Z-5.100 I-35.404 J8.830 K0.000
G2 X330.095 Y20.346 Z-5.100 I-23.869 J13.480 K0.000
G0 Z5.000
G0 X290.762 Y38.182 Z5.000
G0 X290.762 Y38.182 Z3.000
G1 X290.762 Y38.182 Z-5.100
G2 X290.662 Y37.964 Z-5.100 I-33.203 J15.057 K0.000
G2 X285.998 Y30.715 Z-5.100 I-25.091 J11.018 K0.000
G2 X273.282 Y23.972 Z-5.100 I-15.087 J13.090 K0.000
G2 X261.593 Y25.554 Z-5.100 I-2.618 J24.619 K0.000
G2 X255.742 Y29.214 Z-5.100 I6.229 J16.467 K0.000
G2 X250.765 Y39.235 Z-5.100 I10.662 J11.540 K0.000
G3 X250.086 Y39.466 Z-5.100 I-0.397 J-0.051 K0.000
G2 X239.617 Y32.314 Z-5.100 I-21.925 J20.854 K0.000
G2 X234.161 Y30.883 Z-5.100 I-7.495 J17.462 K0.000
G2 X227.148 Y31.641 Z-5.100 I-1.858 J15.647 K0.000
G2 X221.412 Y36.667 Z-5.100 I3.224 J9.466 K0.000
G2 X220.152 Y43.301 Z-5.100 I13.315 J5.965 K0.000
G2 X221.359 Y50.677 Z-5.100 I36.274 J-2.149 K0.000
G2 X224.050 Y59.051 Z-5.100 I204.314 J-61.043 K0.000
G3 X225.589 Y65.590 Z-5.100 I-30.510 J10.629 K0.000
G3 X225.140 Y67.759 Z-5.100 I-2.633 J0.587 K0.000
G3 X223.673 Y69.045 Z-5.100 I-7.242 J-6.785 K0.000
G2 X223.174 Y71.795 Z-5.100 I1.039 J1.609 K0.000
G2 X224.222 Y72.635 Z-5.100 I2.730 J-2.332 K0.000
G3 X231.441 Y82.653 Z-5.100 I-6.184 J12.066 K0.000
G3 X231.373 Y85.351 Z-5.100 I-6.527 J1.186 K0.000
G3 X229.311 Y87.502 Z-5.100 I-2.888 J-0.704 K0.000
G3 X224.922 Y86.889 Z-5.100 I-1.340 J-6.419 K0.000
G3 X220.491 Y82.488 Z-5.100 I5.746 J-10.217 K0.000
G3 X218.288 Y75.007 Z-5.100 I16.098 J-8.806 K0.000
G3 X218.288 Y69.653 Z-5.100 I68.132 J-2.671 K0.000
G2 X218.262 Y66.100 Z-5.100 I-20.426 J-1.627 K0.000
G2 X215.978 Y61.463 Z-5.100 I-6.463 J0.302 K0.000
G2 X210.590 Y61.191 Z-5.100 I-2.898 J3.916 K0.000
G2 X209.089 Y63.777 Z-5.100 I1.562 J2.636 K0.000
G2 X209.715 Y66.345 Z-5.100 I6.706 J-0.276 K0.000
G3 X210.337 Y67.744 Z-5.100 I-5.424 J3.250 K0.000
G3 X210.086 Y69.410 Z-5.100 I-2.042 J0.545 K0.000
G3 X206.365 Y70.402 Z-5.100 I-2.437 J-1.668 K0.000
G3 X203.954 Y67.506 Z-5.100 I2.487 J-4.521 K0.000
G3 X204.644 Y61.718 Z-5.100 I7.250 J-2.071 K0.000
G3 X207.172 Y58.585 Z-5.100 I13.317 J8.158 K0.000
G2 X212.293 Y53.898 Z-5.100 I-81.069 J-93.719 K0.000
G2 X213.747 Y52.090 Z-5.100 I-8.602 J-8.405 K0.000
G2 X215.156 Y45.225 Z-5.100 I-7.537 J-5.123 K0.000
G2 X210.475 Y37.009 Z-5.100 I-12.846 J1.877 K0.000
G2 X203.632 Y33.844 Z-5.100 I-10.411 J13.530 K0.000
G2 X191.734 Y34.392 Z-5.100 I-4.862 J23.897 K0.000
G2 X185.891 Y37.423 Z-5.100 I4.130 J15.106 K0.000
G2 X182.989 Y41.078 Z-5.100 I6.356 J8.025 K0.000
G3 X182.322 Y41.146 Z-5.100 I-0.356 J-0.183 K0.000
G2 X174.596 Y34.851 Z-5.100 I-16.673 J12.573 K0.000
G2 X167.963 Y33.324 Z-5.100 I-6.537 J13.225 K0.000
G2 X164.083 Y34.203 Z-5.100 I-0.085 J8.619 K0.000
G2 X159.442 Y39.275 Z-5.100 I4.394 J8.681 K0.000
G3 X158.785 Y39.380 Z-5.100 I-0.364 J-0.166 K0.000
G2 X150.200 Y33.192 Z-5.100 I-17.525 J15.264 K0.000
G2 X141.714 Y32.007 Z-5.100 I-6.358 J14.542 K0.000
G2 X137.216 Y33.490 Z-5.100 I1.270 J11.412 K0.000
G2 X132.458 Y38.939 Z-5.100 I6.108 J10.135 K0.000
G3 X131.742 Y38.969 Z-5.100 I-0.365 J-0.163 K0.000
G2 X126.200 Y32.111 Z-5.100 I-19.123 J9.786 K0.000
G2 X119.568 Y28.695 Z-5.100 I-10.677 J12.584 K0.000
G2 X113.857 Y28.817 Z-5.100 I-2.659 J9.250 K0.000
G2 X108.131 Y33.464 Z-5.100 I4.017 J10.802 K0.000
G3 X107.453 Y33.430 Z-5.100 I-0.329 J-0.228 K0.000
G2 X92.914 Y23.932 Z-5.100 I-15.588 J7.985 K0.000
G2 X82.576 Y28.245 Z-5.100 I-0.863 J12.476 K0.000
G2 X79.179 Y34.831 Z-5.100 I13.540 J11.154 K0.000
G2 X78.716 Y49.130 Z-5.100 I31.842 J8.189 K0.000
G2 X80.782 Y55.413 Z-5.100 I22.914 J-4.054 K0.000
G2 X88.245 Y63.814 Z-5.100 I18.599 J-9.009 K0.000
G2 X97.366 Y67.262 Z-5.100 I13.292 J-21.372 K0.000
G2 X102.886 Y67.475 Z-5.100 I3.451 J-17.846 K0.000
G2 X106.120 Y66.824 Z-5.100 I-4.019 J-28.324 K0.000
G3 X108.498 Y66.692 Z-5.100 I1.476 J5.106 K0.000
G3 X111.884 Y68.044 Z-5.100 I-4.802 J16.936 K0.000
G2 X117.350 Y70.754 Z-5.100 I34.161 J-62.045 K0.000
G2 X118.948 Y71.193 Z-5.100 I2.427 J-5.701 K0.000
G2 X120.117 Y70.525 Z-5.100 I0.133 J-1.125 K0.000
G2 X120.416 Y68.907 Z-5.100 I-5.027 J-1.765 K0.000
G2 X120.140 Y62.888 Z-5.100 I-112.407 J2.140 K0.000
G3 X119.838 Y52.773 Z-5.100 I87.281 J-7.668 K0.000
G3 X120.586 Y45.173 Z-5.100 I48.788 J0.967 K0.000
G3 X121.257 Y43.034 Z-5.100 I7.230 J1.093 K0.000
G3 X123.395 Y40.605 Z-5.100 I5.052 J2.289 K0.000
G3 X127.835 Y40.847 Z-5.100 I2.027 J3.653 K0.000
G3 X129.369 Y42.522 Z-5.100 I-3.094 J4.373 K0.000
G2 X130.639 Y44.552 Z-5.100 I227.249 J-140.826 K0.000
G3 X130.882 Y45.032 Z-5.100 I-0.482 J0.545 K0.000
G2 X132.732 Y59.496 Z-5.100 I30.986 J3.387 K0.000
G2 X138.484 Y68.368 Z-5.100 I22.505 J-8.288 K0.000
G2 X152.902 Y74.387 Z-5.100 I14.592 J-14.675 K0.000
G2 X158.828 Y73.308 Z-5.100 I0.349 J-14.891 K0.000
G2 X160.064 Y72.714 Z-5.100 I-2.240 J-6.244 K0.000
G3 X160.795 Y72.915 Z-5.100 I0.317 J0.279 K0.000
G2 X163.210 Y87.730 Z-5.100 I378.665 J-54.126 K0.000
G2 X166.860 Y105.139 Z-5.100 I310.990 J-56.100 K0.000
G3 X166.598 Y105.613 Z-5.100 I-0.389 J0.094 K0.000
G2 X157.030 Y108.892 Z-5.100 I123.087 J374.682 K0.000
G2 X140.188 Y115.217 Z-5.100 I406.397 J1107.857 K0.000
G3 X123.875 Y120.946 Z-5.100 I-110.827 J-289.433 K0.000
G3 X109.270 Y124.712 Z-5.100 I-42.185 J-133.421 K0.000
G3 X80.213 Y126.406 Z-5.100 I-20.720 J-105.340 K0.000
G3 X73.827 Y124.855 Z-5.100 I2.273 J-23.270 K0.000
G3 X64.441 Y116.509 Z-5.100 I6.317 J-16.557 K0.000
G3 X62.834 Y102.760 Z-5.100 I18.108 J-9.084 K0.000
G3 X64.895 Y97.744 Z-5.100 I23.581 J6.758 K0.000
G2 X64.823 Y95.690 Z-5.100 I-1.680 J-0.969 K0.000
G2 X64.412 Y95.373 Z-5.100 I-0.549 J0.286 K0.000
G2 X61.227 Y95.872 Z-5.100 I-0.229 J8.952 K0.000
G2 X54.910 Y99.480 Z-5.100 I8.350 J21.953 K0.000
G2 X45.654 Y112.439 Z-5.100 I19.304 J23.573 K0.000
G2 X44.323 Y131.189 Z-5.100 I32.668 J11.743 K0.000
G2 X58.907 Y152.369 Z-5.100 I31.817 J-6.298 K0.000
G2 X75.308 Y157.781 Z-5.100 I19.811 J-32.478 K0.000
G2 X88.356 Y157.176 Z-5.100 I4.108 J-52.365 K0.000
G2 X104.160 Y152.585 Z-5.100 I-14.818 J-80.508 K0.000
G2 X118.694 Y145.788 Z-5.100 I-60.966 J-149.291 K0.000
G2 X134.633 Y136.714 Z-5.100 I-178.969 J-332.902 K0.000
G3 X147.771 Y128.864 Z-5.100 I439.870 J721.326 K0.000
G3 X160.205 Y121.909 Z-5.100 I118.628 J197.477 K0.000
G3 X168.997 Y117.736 Z-5.100 I55.044 J104.618 K0.000
G3 X169.543 Y118.011 Z-5.100 I0.158 J0.368 K0.000
G2 X173.720 Y132.441 Z-5.100 I120.141 J-26.951 K0.000
G2 X179.883 Y146.055 Z-5.100 I76.235 J-26.310 K0.000
G2 X186.863 Y155.773 Z-5.100 I45.341 J-25.199 K0.000
G2 X194.297 Y162.112 Z-5.100 I26.341 J-23.365 K0.000
G2 X215.750 Y166.399 Z-5.100 I16.155 J-25.022 K0.000
G2 X225.025 Y162.466 Z-5.100 I-3.528 J-21.222 K0.000
G2 X231.502 Y154.681 Z-5.100 I-13.199 J-17.568 K0.000
G2 X233.750 Y148.197 Z-5.100 I-23.733 J-11.858 K0.000
G2 X233.873 Y132.572 Z-5.100 I-40.480 J-8.132 K0.000
G2 X224.520 Y114.382 Z-5.100 I-33.858 J5.909 K0.000
G2 X213.522 Y106.641 Z-5.100 I-28.438 J28.719 K0.000
G2 X193.674 Y101.887 Z-5.100 I-21.336 J45.264 K0.000
G2 X182.088 Y103.044 Z-5.100 I1.916 J77.789 K0.000
G3 X181.635 Y102.742 Z-5.100 I-0.063 J-0.395 K0.000
G3 X175.728 Y74.051 Z-5.100 I362.923 J-89.672 K0.000
G3 X173.568 Y57.832 Z-5.100 I206.269 J-35.731 K0.000
G3 X173.277 Y50.885 Z-5.100 I62.231 J-6.079 K0.000
G3 X173.790 Y47.042 Z-5.100 I12.607 J-0.274 K0.000
G3 X174.659 Y45.345 Z-5.100 I4.823 J1.397 K0.000
G3 X176.540 Y44.091 Z-5.100 I2.681 J1.984 K0.000
G3 X180.327 Y45.134 Z-5.100 I0.850 J4.307 K0.000
G3 X182.371 Y47.548 Z-5.100 I-11.847 J12.102 K0.000
G2 X183.964 Y50.508 Z-5.100 I6.485 J-1.582 K0.000
G2 X189.496 Y52.076 Z-5.100 I3.974 J-3.476 K0.000
G2 X191.949 Y50.074 Z-5.100 I-1.021 J-3.756 K0.000
G2 X192.419 Y47.449 Z-5.100 I-5.176 J-2.280 K0.000
G3 X192.343 Y45.806 Z-5.100 I31.712 J-2.282 K0.000
G3 X192.821 Y43.490 Z-5.100 I5.842 J-0.001 K0.000
G3 X195.687 Y41.839 Z-5.100 I2.631 J1.253 K0.000
G3 X197.697 Y43.127 Z-5.100 I-0.251 J2.603 K0.000
G3 X198.304 Y45.242 Z-5.100 I-4.198 J2.349 K0.000
G3 X197.590 Y48.577 Z-5.100 I-6.994 J0.248 K0.000
G3 X195.738 Y51.274 Z-5.100 I-10.919 J-5.515 K0.000
G3 X192.522 Y54.669 Z-5.100 I-63.028 J-56.482 K0.000
G2 X189.696 Y58.285 Z-5.100 I13.009 J13.077 K0.000
G2 X189.929 Y69.633 Z-5.100 I9.178 J5.488 K0.000
G2 X195.957 Y74.555 Z-5.100 I11.821 J-8.323 K0.000
G2 X206.688 Y76.187 Z-5.100 I8.565 J-20.226 K0.000
G2 X212.377 Y74.923 Z-5.100 I-3.236 J-27.995 K0.000
G3 X212.900 Y75.262 Z-5.100 I0.125 J0.380 K0.000
G2 X218.074 Y88.362 Z-5.100 I23.663 J-1.773 K0.000
G2 X225.555 Y94.167 Z-5.100 I15.383 J-12.101 K0.000
G2 X237.881 Y94.727 Z-5.100 I6.868 J-15.247 K0.000
G2 X245.085 Y87.952 Z-5.100 I-3.463 J-10.900 K0.000
G2 X246.017 Y80.511 Z-5.100 I-16.686 J-5.870 K0.000
G2 X245.429 Y76.434 Z-5.100 I-92.919 J11.326 K0.000
G3 X245.094 Y73.491 Z-5.100 I16.824 J-3.404 K0.000
G3 X246.414 Y71.261 Z-5.100 I2.354 J-0.112 K0.000
G3 X249.273 Y70.591 Z-5.100 I3.239 J7.390 K0.000
G2 X250.246 Y69.968 Z-5.100 I0.042 J-1.006 K0.000
G2 X249.981 Y68.112 Z-5.100 I-2.357 J-0.610 K0.000
G2 X248.325 Y66.985 Z-5.100 I-2.332 J1.646 K0.000
G3 X245.586 Y66.133 Z-5.100 I1.589 J-9.936 K0.000
G3 X242.082 Y62.197 Z-5.100 I3.338 J-6.500 K0.000
G3 X238.658 Y50.498 Z-5.100 I88.304 J-32.193 K0.000
G3 X237.998 Y46.382 Z-5.100 I29.400 J-6.825 K0.000
G3 X238.253 Y43.238 Z-5.100 I7.509 J-0.975 K0.000
G3 X240.009 Y40.999 Z-5.100 I3.818 J1.187 K0.000
G3 X243.692 Y40.339 Z-5.100 I2.846 J5.280 K0.000
G3 X246.781 Y41.590 Z-5.100 I-2.198 J9.871 K0.000
G3 X250.903 Y44.584 Z-5.100 I-55.079 J80.173 K0.000
G3 X251.053 Y44.815 Z-5.100 I-0.240 J0.320 K0.000
G2 X259.168 Y59.086 Z-5.100 I25.696 J-5.167 K0.000
G2 X279.292 Y65.307 Z-5.100 I16.637 J-18.161 K0.000
G2 X284.959 Y63.857 Z-5.100 I-2.155 J-20.231 K0.000
G2 X293.009 Y55.300 Z-5.100 I-5.058 J-12.824 K0.000
G2 X293.639 Y48.010 Z-5.100 I-17.121 J-5.151 K0.000
G2 X290.762 Y38.182 Z-5.100 I-36.081 J5.229 K0.000
G0 Z5.000
G0 X74.222 Y35.824 Z5.000
G0 X74.222 Y35.824 Z3.000
G1 X74.222 Y35.824 Z-5.100
G2 X73.525 Y29.378 Z-5.100 I-27.410 J-0.299 K0.000
G2 X66.604 Y18.075 Z-5.100 I-19.551 J4.200 K0.000
G2 X54.643 Y13.090 Z-5.100 I-15.055 J19.282 K0.000
G2 X47.756 Y13.470 Z-5.100 I-2.492 J17.400 K0.000
G2 X39.052 Y19.173 Z-5.100 I3.766 J15.240 K0.000
G3 X38.364 Y19.050 Z-5.100 I-0.310 J-0.253 K0.000
G2 X34.611 Y11.254 Z-5.100 I-28.917 J9.122 K0.000
G2 X29.362 Y5.387 Z-5.100 I-22.406 J14.764 K0.000
G2 X21.879 Y1.944 Z-5.100 I-10.649 J13.289 K0.000
G1 X20.883 Y1.817 Z-5.100
G2 X13.628 Y3.880 Z-5.100 I-1.100 J9.920 K0.000
G2 X9.621 Y9.324 Z-5.100 I9.505 J11.192 K0.000
G2 X7.886 Y14.828 Z-5.100 I31.660 J13.006 K0.000
G2 X6.893 Y21.200 Z-5.100 I56.428 J12.055 K0.000
G3 X6.141 Y27.202 Z-5.100 I-166.063 J-17.766 K0.000
G3 X4.842 Y32.271 Z-5.100 I-25.424 J-3.814 K0.000
G3 X3.612 Y33.213 Z-5.100 I-1.394 J-0.546 K0.000
G2 X2.130 Y33.169 Z-5.100 I-1.647 J30.903 K0.000
G2 X0.829 Y33.801 Z-5.100 I-0.190 J1.263 K0.000
G2 X0.455 Y37.067 Z-5.100 I5.373 J2.270 K0.000
G2 X0.700 Y37.656 Z-5.100 I1.218 J-0.163 K0.000
G2 X1.767 Y38.230 Z-5.100 I1.629 J-1.746 K0.000
G3 X5.661 Y41.208 Z-5.100 I-5.776 J11.589 K0.000
G3 X8.452 Y45.285 Z-5.100 I-18.048 J15.350 K0.000
G3 X12.126 Y55.871 Z-5.100 I-36.222 J18.500 K0.000
G2 X13.220 Y58.735 Z-5.100 I8.068 J-1.441 K0.000
G2 X13.975 Y59.510 Z-5.100 I2.009 J-1.203 K0.000
G2 X15.951 Y59.327 Z-5.100 I0.884 J-1.213 K0.000
G2 X16.644 Y58.014 Z-5.100 I-3.292 J-2.578 K0.000
G2 X17.417 Y54.561 Z-5.100 I-33.018 J-9.207 K0.000
G3 X18.349 Y49.071 Z-5.100 I86.648 J11.874 K0.000
G3 X18.929 Y47.383 Z-5.100 I6.174 J1.177 K0.000
G3 X20.809 Y45.922 Z-5.100 I2.193 J0.882 K0.000
G3 X23.602 Y46.475 Z-5.100 I0.134 J6.656 K0.000
G1 X23.602 Y46.475 Z-5.100
G2 X24.081 Y46.610 Z-5.100 I0.653 J-1.393 K0.000
G2 X24.917 Y46.356 Z-5.100 I0.180 J-0.910 K0.000
G2 X25.557 Y42.796 Z-5.100 I-4.778 J-2.696 K0.000
G2 X24.876 Y41.420 Z-5.100 I-2.360 J0.312 K0.000
G2 X24.010 Y40.949 Z-5.100 I-2.585 J3.724 K0.000
G3 X21.333 Y38.182 Z-5.100 I1.169 J-3.809 K0.000
G3 X21.238 Y35.515 Z-5.100 I8.310 J-1.631 K0.000
G3 X23.204 Y23.802 Z-5.100 I109.449 J12.345 K0.000
G3 X24.391 Y19.790 Z-5.100 I29.587 J6.576 K0.000
G3 X25.973 Y17.087 Z-5.100 I7.412 J2.523 K0.000
G3 X28.521 Y15.825 Z-5.100 I2.933 J2.716 K0.000
G3 X32.141 Y16.824 Z-5.100 I0.290 J6.000 K0.000
G3 X34.387 Y19.287 Z-5.100 I-6.251 J7.959 K0.000
G3 X36.551 Y23.291 Z-5.100 I-58.666 J34.293 K0.000
G3 X36.574 Y23.604 Z-5.100 I-0.356 J0.183 K0.000
G2 X36.344 Y41.309 Z-5.100 I24.494 J9.172 K0.000
G2 X50.964 Y56.451 Z-5.100 I23.320 J-7.887 K0.000
G2 X56.627 Y57.915 Z-5.100 I7.875 J-18.780 K0.000
G2 X67.806 Y54.304 Z-5.100 I1.757 J-13.671 K0.000
G2 X71.875 Y48.219 Z-5.100 I-12.510 J-12.769 K0.000
G2 X74.113 Y37.979 Z-5.100 I-34.169 J-12.834 K0.000
G2 X74.222 Y35.824 Z-5.100 I-27.301 J-2.454 K0.000
G0 Z5.000
G0 Z5.000
(Finish operation: Profile)
(Begin postamble)
M5
G17 G90
M2
