%
(Header)
(Generated by gcodetools from Inkscape.)
(Using default header. To add your own header create file "header" in the output dir.)
M3
(Header end.)
G21 (All units in mm)

(Start cutting path id: path842)
(Change tool to Default tool)

G00 Z5.000000
G00 X335.610920 Y29.504040

G01 Z-1.000000 F100.0(Penetrate)
G03 X339.283933 Y28.887348 Z-1.000000 I3.144102 J7.479687 F400.000000
G03 X342.558660 Y29.504040 Z-1.000000 I-0.900525 J13.784917
G01 X346.676270 Y30.107190 Z-1.000000
G01 X347.940550 Y26.372340 Z-1.000000
G02 X346.141005 Y23.869914 Z-1.000000 I-6.368543 J2.681492
G02 X342.721050 Y21.280420 Z-1.000000 I-19.090646 J21.659965
G02 X329.638549 Y15.818988 Z-1.000000 I-21.300024 J32.622957
G02 X312.285530 Y17.429590 Z-1.000000 I-6.119118 J28.359262
G02 X298.032388 Y32.289649 Z-1.000000 I10.005659 J23.862543
G02 X298.413250 Y50.648840 Z-1.000000 I23.436573 J8.697353
G02 X307.620837 Y66.558145 Z-1.000000 I66.695630 J-27.981297
G02 X323.787291 Y87.527543 Z-1.000000 I2234.499387 J-1705.981194
G03 X339.267388 Y108.826600 Z-1.000000 I-314.839132 J245.099199
G03 X354.145960 Y136.306720 Z-1.000000 I-130.553841 J88.453731
G03 X355.396819 Y147.030211 Z-1.000000 I-17.923733 J7.525442
G03 X351.802980 Y151.570870 Z-1.000000 I-5.910983 J-0.985868
G02 X350.009383 Y153.329171 Z-1.000000 I1.305362 J3.125516
G02 X349.981960 Y155.827660 Z-1.000000 I2.904155 J1.281271
G02 X352.815010 Y158.735612 Z-1.000000 I5.101414 J-2.136000
G02 X361.511264 Y161.157359 Z-1.000000 I12.305013 J-27.361521
G02 X370.658151 Y161.237907 Z-1.000000 I4.932259 J-40.706169
G02 X380.765440 Y158.657800 Z-1.000000 I-3.660949 J-35.428531
G02 X392.043742 Y147.793338 Z-1.000000 I-8.367767 J-19.972689
G02 X392.352740 Y131.064010 Z-1.000000 I-18.797272 J-8.714712
G02 X383.451567 Y115.106840 Z-1.000000 I-75.504044 J31.656206
G02 X364.051425 Y88.414859 Z-1.000000 I-1709.560013 J1222.138346
G03 X344.860560 Y61.749258 Z-1.000000 I1054.267816 J-778.980524
G03 X334.810600 Y43.538710 Z-1.000000 I79.744107 J-55.887276
G03 X333.371490 Y32.412509 Z-1.000000 I19.491351 J-8.177265
G03 X335.622520 Y29.504040 Z-1.000000 I3.673137 J0.517516
G01 X335.622520 Y29.504040 Z-1.000000
G01 X335.610920 Y29.504040 Z-1.000000
G00 Z5.000000

(End cutting path id: path842)


(Start cutting path id: path842)
(Change tool to Default tool)

G00 Z5.000000
G00 X335.610920 Y29.504040

G01 Z-2.000000 F100.0(Penetrate)
G03 X339.283933 Y28.887348 Z-2.000000 I3.144102 J7.479687 F400.000000
G03 X342.558660 Y29.504040 Z-2.000000 I-0.900525 J13.784917
G01 X346.676270 Y30.107190 Z-2.000000
G01 X347.940550 Y26.372340 Z-2.000000
G02 X346.141005 Y23.869914 Z-2.000000 I-6.368543 J2.681492
G02 X342.721050 Y21.280420 Z-2.000000 I-19.090646 J21.659965
G02 X329.638549 Y15.818988 Z-2.000000 I-21.300024 J32.622957
G02 X312.285530 Y17.429590 Z-2.000000 I-6.119118 J28.359262
G02 X298.032388 Y32.289649 Z-2.000000 I10.005659 J23.862543
G02 X298.413250 Y50.648840 Z-2.000000 I23.436573 J8.697353
G02 X307.620837 Y66.558145 Z-2.000000 I66.695630 J-27.981297
G02 X323.787291 Y87.527543 Z-2.000000 I2234.499387 J-1705.981194
G03 X339.267388 Y108.826600 Z-2.000000 I-314.839132 J245.099199
G03 X354.145960 Y136.306720 Z-2.000000 I-130.553841 J88.453731
G03 X355.396819 Y147.030211 Z-2.000000 I-17.923733 J7.525442
G03 X351.802980 Y151.570870 Z-2.000000 I-5.910983 J-0.985868
G02 X350.009383 Y153.329171 Z-2.000000 I1.305362 J3.125516
G02 X349.981960 Y155.827660 Z-2.000000 I2.904155 J1.281271
G02 X352.815010 Y158.735612 Z-2.000000 I5.101414 J-2.136000
G02 X361.511264 Y161.157359 Z-2.000000 I12.305013 J-27.361521
G02 X370.658151 Y161.237907 Z-2.000000 I4.932259 J-40.706169
G02 X380.765440 Y158.657800 Z-2.000000 I-3.660949 J-35.428531
G02 X392.043742 Y147.793338 Z-2.000000 I-8.367767 J-19.972689
G02 X392.352740 Y131.064010 Z-2.000000 I-18.797272 J-8.714712
G02 X383.451567 Y115.106840 Z-2.000000 I-75.504044 J31.656206
G02 X364.051425 Y88.414859 Z-2.000000 I-1709.560013 J1222.138346
G03 X344.860560 Y61.749258 Z-2.000000 I1054.267816 J-778.980524
G03 X334.810600 Y43.538710 Z-2.000000 I79.744107 J-55.887276
G03 X333.371490 Y32.412509 Z-2.000000 I19.491351 J-8.177265
G03 X335.622520 Y29.504040 Z-2.000000 I3.673137 J0.517516
G01 X335.622520 Y29.504040 Z-2.000000
G01 X335.610920 Y29.504040 Z-2.000000
G00 Z5.000000

(End cutting path id: path842)


(Start cutting path id: path842)
(Change tool to Default tool)

G00 Z5.000000
G00 X335.610920 Y29.504040

G01 Z-3.000000 F100.0(Penetrate)
G03 X339.283933 Y28.887348 Z-3.000000 I3.144102 J7.479687 F400.000000
G03 X342.558660 Y29.504040 Z-3.000000 I-0.900525 J13.784917
G01 X346.676270 Y30.107190 Z-3.000000
G01 X347.940550 Y26.372340 Z-3.000000
G02 X346.141005 Y23.869914 Z-3.000000 I-6.368543 J2.681492
G02 X342.721050 Y21.280420 Z-3.000000 I-19.090646 J21.659965
G02 X329.638549 Y15.818988 Z-3.000000 I-21.300024 J32.622957
G02 X312.285530 Y17.429590 Z-3.000000 I-6.119118 J28.359262
G02 X298.032388 Y32.289649 Z-3.000000 I10.005659 J23.862543
G02 X298.413250 Y50.648840 Z-3.000000 I23.436573 J8.697353
G02 X307.620837 Y66.558145 Z-3.000000 I66.695630 J-27.981297
G02 X323.787291 Y87.527543 Z-3.000000 I2234.499387 J-1705.981194
G03 X339.267388 Y108.826600 Z-3.000000 I-314.839132 J245.099199
G03 X354.145960 Y136.306720 Z-3.000000 I-130.553841 J88.453731
G03 X355.396819 Y147.030211 Z-3.000000 I-17.923733 J7.525442
G03 X351.802980 Y151.570870 Z-3.000000 I-5.910983 J-0.985868
G02 X350.009383 Y153.329171 Z-3.000000 I1.305362 J3.125516
G02 X349.981960 Y155.827660 Z-3.000000 I2.904155 J1.281271
G02 X352.815010 Y158.735612 Z-3.000000 I5.101414 J-2.136000
G02 X361.511264 Y161.157359 Z-3.000000 I12.305013 J-27.361521
G02 X370.658151 Y161.237907 Z-3.000000 I4.932259 J-40.706169
G02 X380.765440 Y158.657800 Z-3.000000 I-3.660949 J-35.428531
G02 X392.043742 Y147.793338 Z-3.000000 I-8.367767 J-19.972689
G02 X392.352740 Y131.064010 Z-3.000000 I-18.797272 J-8.714712
G02 X383.451567 Y115.106840 Z-3.000000 I-75.504044 J31.656206
G02 X364.051425 Y88.414859 Z-3.000000 I-1709.560013 J1222.138346
G03 X344.860560 Y61.749258 Z-3.000000 I1054.267816 J-778.980524
G03 X334.810600 Y43.538710 Z-3.000000 I79.744107 J-55.887276
G03 X333.371490 Y32.412509 Z-3.000000 I19.491351 J-8.177265
G03 X335.622520 Y29.504040 Z-3.000000 I3.673137 J0.517516
G01 X335.622520 Y29.504040 Z-3.000000
G01 X335.610920 Y29.504040 Z-3.000000
G00 Z5.000000

(End cutting path id: path842)


(Start cutting path id: path842)
(Change tool to Default tool)

G00 Z5.000000
G00 X335.610920 Y29.504040

G01 Z-4.000000 F100.0(Penetrate)
G03 X339.283933 Y28.887348 Z-4.000000 I3.144102 J7.479687 F400.000000
G03 X342.558660 Y29.504040 Z-4.000000 I-0.900525 J13.784917
G01 X346.676270 Y30.107190 Z-4.000000
G01 X347.940550 Y26.372340 Z-4.000000
G02 X346.141005 Y23.869914 Z-4.000000 I-6.368543 J2.681492
G02 X342.721050 Y21.280420 Z-4.000000 I-19.090646 J21.659965
G02 X329.638549 Y15.818988 Z-4.000000 I-21.300024 J32.622957
G02 X312.285530 Y17.429590 Z-4.000000 I-6.119118 J28.359262
G02 X298.032388 Y32.289649 Z-4.000000 I10.005659 J23.862543
G02 X298.413250 Y50.648840 Z-4.000000 I23.436573 J8.697353
G02 X307.620837 Y66.558145 Z-4.000000 I66.695630 J-27.981297
G02 X323.787291 Y87.527543 Z-4.000000 I2234.499387 J-1705.981194
G03 X339.267388 Y108.826600 Z-4.000000 I-314.839132 J245.099199
G03 X354.145960 Y136.306720 Z-4.000000 I-130.553841 J88.453731
G03 X355.396819 Y147.030211 Z-4.000000 I-17.923733 J7.525442
G03 X351.802980 Y151.570870 Z-4.000000 I-5.910983 J-0.985868
G02 X350.009383 Y153.329171 Z-4.000000 I1.305362 J3.125516
G02 X349.981960 Y155.827660 Z-4.000000 I2.904155 J1.281271
G02 X352.815010 Y158.735612 Z-4.000000 I5.101414 J-2.136000
G02 X361.511264 Y161.157359 Z-4.000000 I12.305013 J-27.361521
G02 X370.658151 Y161.237907 Z-4.000000 I4.932259 J-40.706169
G02 X380.765440 Y158.657800 Z-4.000000 I-3.660949 J-35.428531
G02 X392.043742 Y147.793338 Z-4.000000 I-8.367767 J-19.972689
G02 X392.352740 Y131.064010 Z-4.000000 I-18.797272 J-8.714712
G02 X383.451567 Y115.106840 Z-4.000000 I-75.504044 J31.656206
G02 X364.051425 Y88.414859 Z-4.000000 I-1709.560013 J1222.138346
G03 X344.860560 Y61.749258 Z-4.000000 I1054.267816 J-778.980524
G03 X334.810600 Y43.538710 Z-4.000000 I79.744107 J-55.887276
G03 X333.371490 Y32.412509 Z-4.000000 I19.491351 J-8.177265
G03 X335.622520 Y29.504040 Z-4.000000 I3.673137 J0.517516
G01 X335.622520 Y29.504040 Z-4.000000
G01 X335.610920 Y29.504040 Z-4.000000
G00 Z5.000000

(End cutting path id: path842)


(Start cutting path id: path842)
(Change tool to Default tool)

G00 Z5.000000
G00 X335.610920 Y29.504040

G01 Z-5.000000 F100.0(Penetrate)
G03 X339.283933 Y28.887348 Z-5.000000 I3.144102 J7.479687 F400.000000
G03 X342.558660 Y29.504040 Z-5.000000 I-0.900525 J13.784917
G01 X346.676270 Y30.107190 Z-5.000000
G01 X347.940550 Y26.372340 Z-5.000000
G02 X346.141005 Y23.869914 Z-5.000000 I-6.368543 J2.681492
G02 X342.721050 Y21.280420 Z-5.000000 I-19.090646 J21.659965
G02 X329.638549 Y15.818988 Z-5.000000 I-21.300024 J32.622957
G02 X312.285530 Y17.429590 Z-5.000000 I-6.119118 J28.359262
G02 X298.032388 Y32.289649 Z-5.000000 I10.005659 J23.862543
G02 X298.413250 Y50.648840 Z-5.000000 I23.436573 J8.697353
G02 X307.620837 Y66.558145 Z-5.000000 I66.695630 J-27.981297
G02 X323.787291 Y87.527543 Z-5.000000 I2234.499387 J-1705.981194
G03 X339.267388 Y108.826600 Z-5.000000 I-314.839132 J245.099199
G03 X354.145960 Y136.306720 Z-5.000000 I-130.553841 J88.453731
G03 X355.396819 Y147.030211 Z-5.000000 I-17.923733 J7.525442
G03 X351.802980 Y151.570870 Z-5.000000 I-5.910983 J-0.985868
G02 X350.009383 Y153.329171 Z-5.000000 I1.305362 J3.125516
G02 X349.981960 Y155.827660 Z-5.000000 I2.904155 J1.281271
G02 X352.815010 Y158.735612 Z-5.000000 I5.101414 J-2.136000
G02 X361.511264 Y161.157359 Z-5.000000 I12.305013 J-27.361521
G02 X370.658151 Y161.237907 Z-5.000000 I4.932259 J-40.706169
G02 X380.765440 Y158.657800 Z-5.000000 I-3.660949 J-35.428531
G02 X392.043742 Y147.793338 Z-5.000000 I-8.367767 J-19.972689
G02 X392.352740 Y131.064010 Z-5.000000 I-18.797272 J-8.714712
G02 X383.451567 Y115.106840 Z-5.000000 I-75.504044 J31.656206
G02 X364.051425 Y88.414859 Z-5.000000 I-1709.560013 J1222.138346
G03 X344.860560 Y61.749258 Z-5.000000 I1054.267816 J-778.980524
G03 X334.810600 Y43.538710 Z-5.000000 I79.744107 J-55.887276
G03 X333.371490 Y32.412509 Z-5.000000 I19.491351 J-8.177265
G03 X335.622520 Y29.504040 Z-5.000000 I3.673137 J0.517516
G01 X335.622520 Y29.504040 Z-5.000000
G01 X335.610920 Y29.504040 Z-5.000000
G00 Z5.000000

(End cutting path id: path842)


(Start cutting path id: path842)
(Change tool to Default tool)

G00 Z5.000000
G00 X335.610920 Y29.504040

G01 Z-6.000000 F100.0(Penetrate)
G03 X339.283933 Y28.887348 Z-6.000000 I3.144102 J7.479687 F400.000000
G03 X342.558660 Y29.504040 Z-6.000000 I-0.900525 J13.784917
G01 X346.676270 Y30.107190 Z-6.000000
G01 X347.940550 Y26.372340 Z-6.000000
G02 X346.141005 Y23.869914 Z-6.000000 I-6.368543 J2.681492
G02 X342.721050 Y21.280420 Z-6.000000 I-19.090646 J21.659965
G02 X329.638549 Y15.818988 Z-6.000000 I-21.300024 J32.622957
G02 X312.285530 Y17.429590 Z-6.000000 I-6.119118 J28.359262
G02 X298.032388 Y32.289649 Z-6.000000 I10.005659 J23.862543
G02 X298.413250 Y50.648840 Z-6.000000 I23.436573 J8.697353
G02 X307.620837 Y66.558145 Z-6.000000 I66.695630 J-27.981297
G02 X323.787291 Y87.527543 Z-6.000000 I2234.499387 J-1705.981194
G03 X339.267388 Y108.826600 Z-6.000000 I-314.839132 J245.099199
G03 X354.145960 Y136.306720 Z-6.000000 I-130.553841 J88.453731
G03 X355.396819 Y147.030211 Z-6.000000 I-17.923733 J7.525442
G03 X351.802980 Y151.570870 Z-6.000000 I-5.910983 J-0.985868
G02 X350.009383 Y153.329171 Z-6.000000 I1.305362 J3.125516
G02 X349.981960 Y155.827660 Z-6.000000 I2.904155 J1.281271
G02 X352.815010 Y158.735612 Z-6.000000 I5.101414 J-2.136000
G02 X361.511264 Y161.157359 Z-6.000000 I12.305013 J-27.361521
G02 X370.658151 Y161.237907 Z-6.000000 I4.932259 J-40.706169
G02 X380.765440 Y158.657800 Z-6.000000 I-3.660949 J-35.428531
G02 X392.043742 Y147.793338 Z-6.000000 I-8.367767 J-19.972689
G02 X392.352740 Y131.064010 Z-6.000000 I-18.797272 J-8.714712
G02 X383.451567 Y115.106840 Z-6.000000 I-75.504044 J31.656206
G02 X364.051425 Y88.414859 Z-6.000000 I-1709.560013 J1222.138346
G03 X344.860560 Y61.749258 Z-6.000000 I1054.267816 J-778.980524
G03 X334.810600 Y43.538710 Z-6.000000 I79.744107 J-55.887276
G03 X333.371490 Y32.412509 Z-6.000000 I19.491351 J-8.177265
G03 X335.622520 Y29.504040 Z-6.000000 I3.673137 J0.517516
G01 X335.622520 Y29.504040 Z-6.000000
G01 X335.610920 Y29.504040 Z-6.000000
G00 Z5.000000

(End cutting path id: path842)


(Start cutting path id: path842)
(Change tool to Default tool)

G00 Z5.000000
G00 X335.610920 Y29.504040

G01 Z-6.300000 F100.0(Penetrate)
G03 X339.283933 Y28.887348 Z-6.300000 I3.144102 J7.479687 F400.000000
G03 X342.558660 Y29.504040 Z-6.300000 I-0.900525 J13.784917
G01 X346.676270 Y30.107190 Z-6.300000
G01 X347.940550 Y26.372340 Z-6.300000
G02 X346.141005 Y23.869914 Z-6.300000 I-6.368543 J2.681492
G02 X342.721050 Y21.280420 Z-6.300000 I-19.090646 J21.659965
G02 X329.638549 Y15.818988 Z-6.300000 I-21.300024 J32.622957
G02 X312.285530 Y17.429590 Z-6.300000 I-6.119118 J28.359262
G02 X298.032388 Y32.289649 Z-6.300000 I10.005659 J23.862543
G02 X298.413250 Y50.648840 Z-6.300000 I23.436573 J8.697353
G02 X307.620837 Y66.558145 Z-6.300000 I66.695630 J-27.981297
G02 X323.787291 Y87.527543 Z-6.300000 I2234.499387 J-1705.981194
G03 X339.267388 Y108.826600 Z-6.300000 I-314.839132 J245.099199
G03 X354.145960 Y136.306720 Z-6.300000 I-130.553841 J88.453731
G03 X355.396819 Y147.030211 Z-6.300000 I-17.923733 J7.525442
G03 X351.802980 Y151.570870 Z-6.300000 I-5.910983 J-0.985868
G02 X350.009383 Y153.329171 Z-6.300000 I1.305362 J3.125516
G02 X349.981960 Y155.827660 Z-6.300000 I2.904155 J1.281271
G02 X352.815010 Y158.735612 Z-6.300000 I5.101414 J-2.136000
G02 X361.511264 Y161.157359 Z-6.300000 I12.305013 J-27.361521
G02 X370.658151 Y161.237907 Z-6.300000 I4.932259 J-40.706169
G02 X380.765440 Y158.657800 Z-6.300000 I-3.660949 J-35.428531
G02 X392.043742 Y147.793338 Z-6.300000 I-8.367767 J-19.972689
G02 X392.352740 Y131.064010 Z-6.300000 I-18.797272 J-8.714712
G02 X383.451567 Y115.106840 Z-6.300000 I-75.504044 J31.656206
G02 X364.051425 Y88.414859 Z-6.300000 I-1709.560013 J1222.138346
G03 X344.860560 Y61.749258 Z-6.300000 I1054.267816 J-778.980524
G03 X334.810600 Y43.538710 Z-6.300000 I79.744107 J-55.887276
G03 X333.371490 Y32.412509 Z-6.300000 I19.491351 J-8.177265
G03 X335.622520 Y29.504040 Z-6.300000 I3.673137 J0.517516
G01 X335.622520 Y29.504040 Z-6.300000
G01 X335.610920 Y29.504040 Z-6.300000
G00 Z5.000000

(End cutting path id: path842)


(Start cutting path id: path834)
(Change tool to Default tool)

G00 Z5.000000
G00 X232.975500 Y92.571220

G01 Z-1.000000 F100.0(Penetrate)
G02 X236.020004 Y91.323326 Z-1.000000 I0.213048 J-3.818030 F400.000000
G02 X237.538000 Y87.723560 Z-1.000000 I-4.361892 J-3.959326
G02 X237.373376 Y74.081458 Z-1.000000 I-94.699139 J-5.679277
G02 X234.943891 Y58.017034 Z-1.000000 I-122.622192 J10.328704
G02 X229.988092 Y43.522452 Z-1.000000 I-66.176461 J14.531696
G02 X225.381750 Y40.411060 Z-1.000000 I-4.934150 J2.339407
G02 X221.478732 Y42.451277 Z-1.000000 I-0.251331 J4.272619
G02 X219.108320 Y50.002860 Z-1.000000 I13.945156 J8.525152
G02 X219.626529 Y64.112617 Z-1.000000 I73.342541 J4.370744
G02 X222.628150 Y77.746764 Z-1.000000 I82.704721 J-11.060347
G02 X228.231244 Y89.790568 Z-1.000000 I47.139524 J-14.605287
G02 X232.975500 Y92.571220 Z-1.000000 I5.107700 J-3.277017
G01 X232.975500 Y92.571220 Z-1.000000
G00 Z5.000000

(End cutting path id: path834)


(Start cutting path id: path834)
(Change tool to Default tool)

G00 Z5.000000
G00 X232.975500 Y92.571220

G01 Z-2.000000 F100.0(Penetrate)
G02 X236.020004 Y91.323326 Z-2.000000 I0.213048 J-3.818030 F400.000000
G02 X237.538000 Y87.723560 Z-2.000000 I-4.361892 J-3.959326
G02 X237.373376 Y74.081458 Z-2.000000 I-94.699139 J-5.679277
G02 X234.943891 Y58.017034 Z-2.000000 I-122.622192 J10.328704
G02 X229.988092 Y43.522452 Z-2.000000 I-66.176461 J14.531696
G02 X225.381750 Y40.411060 Z-2.000000 I-4.934150 J2.339407
G02 X221.478732 Y42.451277 Z-2.000000 I-0.251331 J4.272619
G02 X219.108320 Y50.002860 Z-2.000000 I13.945156 J8.525152
G02 X219.626529 Y64.112617 Z-2.000000 I73.342541 J4.370744
G02 X222.628150 Y77.746764 Z-2.000000 I82.704721 J-11.060347
G02 X228.231244 Y89.790568 Z-2.000000 I47.139524 J-14.605287
G02 X232.975500 Y92.571220 Z-2.000000 I5.107700 J-3.277017
G01 X232.975500 Y92.571220 Z-2.000000
G00 Z5.000000

(End cutting path id: path834)


(Start cutting path id: path834)
(Change tool to Default tool)

G00 Z5.000000
G00 X232.975500 Y92.571220

G01 Z-3.000000 F100.0(Penetrate)
G02 X236.020004 Y91.323326 Z-3.000000 I0.213048 J-3.818030 F400.000000
G02 X237.538000 Y87.723560 Z-3.000000 I-4.361892 J-3.959326
G02 X237.373376 Y74.081458 Z-3.000000 I-94.699139 J-5.679277
G02 X234.943891 Y58.017034 Z-3.000000 I-122.622192 J10.328704
G02 X229.988092 Y43.522452 Z-3.000000 I-66.176461 J14.531696
G02 X225.381750 Y40.411060 Z-3.000000 I-4.934150 J2.339407
G02 X221.478732 Y42.451277 Z-3.000000 I-0.251331 J4.272619
G02 X219.108320 Y50.002860 Z-3.000000 I13.945156 J8.525152
G02 X219.626529 Y64.112617 Z-3.000000 I73.342541 J4.370744
G02 X222.628150 Y77.746764 Z-3.000000 I82.704721 J-11.060347
G02 X228.231244 Y89.790568 Z-3.000000 I47.139524 J-14.605287
G02 X232.975500 Y92.571220 Z-3.000000 I5.107700 J-3.277017
G01 X232.975500 Y92.571220 Z-3.000000
G00 Z5.000000

(End cutting path id: path834)


(Start cutting path id: path834)
(Change tool to Default tool)

G00 Z5.000000
G00 X232.975500 Y92.571220

G01 Z-4.000000 F100.0(Penetrate)
G02 X236.020004 Y91.323326 Z-4.000000 I0.213048 J-3.818030 F400.000000
G02 X237.538000 Y87.723560 Z-4.000000 I-4.361892 J-3.959326
G02 X237.373376 Y74.081458 Z-4.000000 I-94.699139 J-5.679277
G02 X234.943891 Y58.017034 Z-4.000000 I-122.622192 J10.328704
G02 X229.988092 Y43.522452 Z-4.000000 I-66.176461 J14.531696
G02 X225.381750 Y40.411060 Z-4.000000 I-4.934150 J2.339407
G02 X221.478732 Y42.451277 Z-4.000000 I-0.251331 J4.272619
G02 X219.108320 Y50.002860 Z-4.000000 I13.945156 J8.525152
G02 X219.626529 Y64.112617 Z-4.000000 I73.342541 J4.370744
G02 X222.628150 Y77.746764 Z-4.000000 I82.704721 J-11.060347
G02 X228.231244 Y89.790568 Z-4.000000 I47.139524 J-14.605287
G02 X232.975500 Y92.571220 Z-4.000000 I5.107700 J-3.277017
G01 X232.975500 Y92.571220 Z-4.000000
G00 Z5.000000

(End cutting path id: path834)


(Start cutting path id: path834)
(Change tool to Default tool)

G00 Z5.000000
G00 X232.975500 Y92.571220

G01 Z-5.000000 F100.0(Penetrate)
G02 X236.020004 Y91.323326 Z-5.000000 I0.213048 J-3.818030 F400.000000
G02 X237.538000 Y87.723560 Z-5.000000 I-4.361892 J-3.959326
G02 X237.373376 Y74.081458 Z-5.000000 I-94.699139 J-5.679277
G02 X234.943891 Y58.017034 Z-5.000000 I-122.622192 J10.328704
G02 X229.988092 Y43.522452 Z-5.000000 I-66.176461 J14.531696
G02 X225.381750 Y40.411060 Z-5.000000 I-4.934150 J2.339407
G02 X221.478732 Y42.451277 Z-5.000000 I-0.251331 J4.272619
G02 X219.108320 Y50.002860 Z-5.000000 I13.945156 J8.525152
G02 X219.626529 Y64.112617 Z-5.000000 I73.342541 J4.370744
G02 X222.628150 Y77.746764 Z-5.000000 I82.704721 J-11.060347
G02 X228.231244 Y89.790568 Z-5.000000 I47.139524 J-14.605287
G02 X232.975500 Y92.571220 Z-5.000000 I5.107700 J-3.277017
G01 X232.975500 Y92.571220 Z-5.000000
G00 Z5.000000

(End cutting path id: path834)


(Start cutting path id: path834)
(Change tool to Default tool)

G00 Z5.000000
G00 X232.975500 Y92.571220

G01 Z-6.000000 F100.0(Penetrate)
G02 X236.020004 Y91.323326 Z-6.000000 I0.213048 J-3.818030 F400.000000
G02 X237.538000 Y87.723560 Z-6.000000 I-4.361892 J-3.959326
G02 X237.373376 Y74.081458 Z-6.000000 I-94.699139 J-5.679277
G02 X234.943891 Y58.017034 Z-6.000000 I-122.622192 J10.328704
G02 X229.988092 Y43.522452 Z-6.000000 I-66.176461 J14.531696
G02 X225.381750 Y40.411060 Z-6.000000 I-4.934150 J2.339407
G02 X221.478732 Y42.451277 Z-6.000000 I-0.251331 J4.272619
G02 X219.108320 Y50.002860 Z-6.000000 I13.945156 J8.525152
G02 X219.626529 Y64.112617 Z-6.000000 I73.342541 J4.370744
G02 X222.628150 Y77.746764 Z-6.000000 I82.704721 J-11.060347
G02 X228.231244 Y89.790568 Z-6.000000 I47.139524 J-14.605287
G02 X232.975500 Y92.571220 Z-6.000000 I5.107700 J-3.277017
G01 X232.975500 Y92.571220 Z-6.000000
G00 Z5.000000

(End cutting path id: path834)


(Start cutting path id: path834)
(Change tool to Default tool)

G00 Z5.000000
G00 X232.975500 Y92.571220

G01 Z-6.300000 F100.0(Penetrate)
G02 X236.020004 Y91.323326 Z-6.300000 I0.213048 J-3.818030 F400.000000
G02 X237.538000 Y87.723560 Z-6.300000 I-4.361892 J-3.959326
G02 X237.373376 Y74.081458 Z-6.300000 I-94.699139 J-5.679277
G02 X234.943891 Y58.017034 Z-6.300000 I-122.622192 J10.328704
G02 X229.988092 Y43.522452 Z-6.300000 I-66.176461 J14.531696
G02 X225.381750 Y40.411060 Z-6.300000 I-4.934150 J2.339407
G02 X221.478732 Y42.451277 Z-6.300000 I-0.251331 J4.272619
G02 X219.108320 Y50.002860 Z-6.300000 I13.945156 J8.525152
G02 X219.626529 Y64.112617 Z-6.300000 I73.342541 J4.370744
G02 X222.628150 Y77.746764 Z-6.300000 I82.704721 J-11.060347
G02 X228.231244 Y89.790568 Z-6.300000 I47.139524 J-14.605287
G02 X232.975500 Y92.571220 Z-6.300000 I5.107700 J-3.277017
G01 X232.975500 Y92.571220 Z-6.300000
G00 Z5.000000

(End cutting path id: path834)


(Start cutting path id: path840)
(Change tool to Default tool)

G00 Z5.000000
G00 X229.366960 Y139.845880

G01 Z-1.000000 F100.0(Penetrate)
G02 X219.520886 Y119.773161 Z-1.000000 I-76.834054 J25.237445 F400.000000
G02 X206.477988 Y106.758572 Z-1.000000 I-40.035657 J27.079817
G02 X190.127142 Y100.518095 Z-1.000000 I-21.626671 J32.123745
G02 X168.147970 Y102.509020 Z-1.000000 I-6.679833 J48.573751
G02 X146.926752 Y119.886804 Z-1.000000 I11.871938 J36.143892
G02 X144.184636 Y147.443160 Z-1.000000 I29.760069 J16.876017
G02 X166.591000 Y175.752750 Z-1.000000 I49.691797 J-16.308025
G02 X209.834420 Y180.778406 Z-1.000000 I27.055390 J-44.241444
G02 X228.334694 Y163.810351 Z-1.000000 I-9.491921 J-28.918497
G02 X229.366960 Y139.845880 Z-1.000000 I-31.274204 J-13.351599
G01 X229.366960 Y139.845880 Z-1.000000
G00 Z5.000000

(End cutting path id: path840)


(Start cutting path id: path840)
(Change tool to Default tool)

G00 Z5.000000
G00 X229.366960 Y139.845880

G01 Z-2.000000 F100.0(Penetrate)
G02 X219.520886 Y119.773161 Z-2.000000 I-76.834054 J25.237445 F400.000000
G02 X206.477988 Y106.758572 Z-2.000000 I-40.035657 J27.079817
G02 X190.127142 Y100.518095 Z-2.000000 I-21.626671 J32.123745
G02 X168.147970 Y102.509020 Z-2.000000 I-6.679833 J48.573751
G02 X146.926752 Y119.886804 Z-2.000000 I11.871938 J36.143892
G02 X144.184636 Y147.443160 Z-2.000000 I29.760069 J16.876017
G02 X166.591000 Y175.752750 Z-2.000000 I49.691797 J-16.308025
G02 X209.834420 Y180.778406 Z-2.000000 I27.055390 J-44.241444
G02 X228.334694 Y163.810351 Z-2.000000 I-9.491921 J-28.918497
G02 X229.366960 Y139.845880 Z-2.000000 I-31.274204 J-13.351599
G01 X229.366960 Y139.845880 Z-2.000000
G00 Z5.000000

(End cutting path id: path840)


(Start cutting path id: path840)
(Change tool to Default tool)

G00 Z5.000000
G00 X229.366960 Y139.845880

G01 Z-3.000000 F100.0(Penetrate)
G02 X219.520886 Y119.773161 Z-3.000000 I-76.834054 J25.237445 F400.000000
G02 X206.477988 Y106.758572 Z-3.000000 I-40.035657 J27.079817
G02 X190.127142 Y100.518095 Z-3.000000 I-21.626671 J32.123745
G02 X168.147970 Y102.509020 Z-3.000000 I-6.679833 J48.573751
G02 X146.926752 Y119.886804 Z-3.000000 I11.871938 J36.143892
G02 X144.184636 Y147.443160 Z-3.000000 I29.760069 J16.876017
G02 X166.591000 Y175.752750 Z-3.000000 I49.691797 J-16.308025
G02 X209.834420 Y180.778406 Z-3.000000 I27.055390 J-44.241444
G02 X228.334694 Y163.810351 Z-3.000000 I-9.491921 J-28.918497
G02 X229.366960 Y139.845880 Z-3.000000 I-31.274204 J-13.351599
G01 X229.366960 Y139.845880 Z-3.000000
G00 Z5.000000

(End cutting path id: path840)


(Start cutting path id: path840)
(Change tool to Default tool)

G00 Z5.000000
G00 X229.366960 Y139.845880

G01 Z-4.000000 F100.0(Penetrate)
G02 X219.520886 Y119.773161 Z-4.000000 I-76.834054 J25.237445 F400.000000
G02 X206.477988 Y106.758572 Z-4.000000 I-40.035657 J27.079817
G02 X190.127142 Y100.518095 Z-4.000000 I-21.626671 J32.123745
G02 X168.147970 Y102.509020 Z-4.000000 I-6.679833 J48.573751
G02 X146.926752 Y119.886804 Z-4.000000 I11.871938 J36.143892
G02 X144.184636 Y147.443160 Z-4.000000 I29.760069 J16.876017
G02 X166.591000 Y175.752750 Z-4.000000 I49.691797 J-16.308025
G02 X209.834420 Y180.778406 Z-4.000000 I27.055390 J-44.241444
G02 X228.334694 Y163.810351 Z-4.000000 I-9.491921 J-28.918497
G02 X229.366960 Y139.845880 Z-4.000000 I-31.274204 J-13.351599
G01 X229.366960 Y139.845880 Z-4.000000
G00 Z5.000000

(End cutting path id: path840)


(Start cutting path id: path840)
(Change tool to Default tool)

G00 Z5.000000
G00 X229.366960 Y139.845880

G01 Z-5.000000 F100.0(Penetrate)
G02 X219.520886 Y119.773161 Z-5.000000 I-76.834054 J25.237445 F400.000000
G02 X206.477988 Y106.758572 Z-5.000000 I-40.035657 J27.079817
G02 X190.127142 Y100.518095 Z-5.000000 I-21.626671 J32.123745
G02 X168.147970 Y102.509020 Z-5.000000 I-6.679833 J48.573751
G02 X146.926752 Y119.886804 Z-5.000000 I11.871938 J36.143892
G02 X144.184636 Y147.443160 Z-5.000000 I29.760069 J16.876017
G02 X166.591000 Y175.752750 Z-5.000000 I49.691797 J-16.308025
G02 X209.834420 Y180.778406 Z-5.000000 I27.055390 J-44.241444
G02 X228.334694 Y163.810351 Z-5.000000 I-9.491921 J-28.918497
G02 X229.366960 Y139.845880 Z-5.000000 I-31.274204 J-13.351599
G01 X229.366960 Y139.845880 Z-5.000000
G00 Z5.000000

(End cutting path id: path840)


(Start cutting path id: path840)
(Change tool to Default tool)

G00 Z5.000000
G00 X229.366960 Y139.845880

G01 Z-6.000000 F100.0(Penetrate)
G02 X219.520886 Y119.773161 Z-6.000000 I-76.834054 J25.237445 F400.000000
G02 X206.477988 Y106.758572 Z-6.000000 I-40.035657 J27.079817
G02 X190.127142 Y100.518095 Z-6.000000 I-21.626671 J32.123745
G02 X168.147970 Y102.509020 Z-6.000000 I-6.679833 J48.573751
G02 X146.926752 Y119.886804 Z-6.000000 I11.871938 J36.143892
G02 X144.184636 Y147.443160 Z-6.000000 I29.760069 J16.876017
G02 X166.591000 Y175.752750 Z-6.000000 I49.691797 J-16.308025
G02 X209.834420 Y180.778406 Z-6.000000 I27.055390 J-44.241444
G02 X228.334694 Y163.810351 Z-6.000000 I-9.491921 J-28.918497
G02 X229.366960 Y139.845880 Z-6.000000 I-31.274204 J-13.351599
G01 X229.366960 Y139.845880 Z-6.000000
G00 Z5.000000

(End cutting path id: path840)


(Start cutting path id: path840)
(Change tool to Default tool)

G00 Z5.000000
G00 X229.366960 Y139.845880

G01 Z-6.300000 F100.0(Penetrate)
G02 X219.520886 Y119.773161 Z-6.300000 I-76.834054 J25.237445 F400.000000
G02 X206.477988 Y106.758572 Z-6.300000 I-40.035657 J27.079817
G02 X190.127142 Y100.518095 Z-6.300000 I-21.626671 J32.123745
G02 X168.147970 Y102.509020 Z-6.300000 I-6.679833 J48.573751
G02 X146.926752 Y119.886804 Z-6.300000 I11.871938 J36.143892
G02 X144.184636 Y147.443160 Z-6.300000 I29.760069 J16.876017
G02 X166.591000 Y175.752750 Z-6.300000 I49.691797 J-16.308025
G02 X209.834420 Y180.778406 Z-6.300000 I27.055390 J-44.241444
G02 X228.334694 Y163.810351 Z-6.300000 I-9.491921 J-28.918497
G02 X229.366960 Y139.845880 Z-6.300000 I-31.274204 J-13.351599
G01 X229.366960 Y139.845880 Z-6.300000
G00 Z5.000000

(End cutting path id: path840)


(Start cutting path id: path840)
(Change tool to Default tool)

G00 Z5.000000
G00 X203.675400 Y143.754710

G01 Z-1.000000 F100.0(Penetrate)
G02 X198.401366 Y151.434868 Z-1.000000 I13.136411 J14.671834 F400.000000
G02 X198.293510 Y156.269930 Z-1.000000 I6.766450 J2.569673
G02 X203.696044 Y163.392241 Z-1.000000 I13.032566 J-4.275514
G03 X205.345640 Y165.560640 Z-1.000000 I-2.334928 J3.487941
G01 X204.266950 Y167.613660 Z-1.000000
G03 X202.840827 Y167.742746 Z-1.000000 I-1.001834 J-3.125769
G03 X196.391290 Y165.676630 Z-1.000000 I2.439569 J-18.714713
G03 X189.015717 Y159.319134 Z-1.000000 I9.781052 J-18.804462
G03 X179.352510 Y140.425830 Z-1.000000 I55.683423 J-40.397787
G03 X178.683836 Y125.489783 Z-1.000000 I26.424653 J-8.666000
G03 X185.128760 Y118.445910 Z-1.000000 I9.465932 J2.190644
G03 X197.009486 Y120.741258 Z-1.000000 I3.878938 J11.817616
G03 X205.009270 Y132.573370 Z-1.000000 I-16.774180 J19.961568
G03 X205.833807 Y139.141791 Z-1.000000 I-16.405218 J5.395317
G03 X203.687000 Y143.754710 Z-1.000000 I-7.062626 J-0.480865
G01 X203.675400 Y143.754710 Z-1.000000
G00 Z5.000000

(End cutting path id: path840)


(Start cutting path id: path840)
(Change tool to Default tool)

G00 Z5.000000
G00 X203.675400 Y143.754710

G01 Z-2.000000 F100.0(Penetrate)
G02 X198.401366 Y151.434868 Z-2.000000 I13.136411 J14.671834 F400.000000
G02 X198.293510 Y156.269930 Z-2.000000 I6.766450 J2.569673
G02 X203.696044 Y163.392241 Z-2.000000 I13.032566 J-4.275514
G03 X205.345640 Y165.560640 Z-2.000000 I-2.334928 J3.487941
G01 X204.266950 Y167.613660 Z-2.000000
G03 X202.840827 Y167.742746 Z-2.000000 I-1.001834 J-3.125769
G03 X196.391290 Y165.676630 Z-2.000000 I2.439569 J-18.714713
G03 X189.015717 Y159.319134 Z-2.000000 I9.781052 J-18.804462
G03 X179.352510 Y140.425830 Z-2.000000 I55.683423 J-40.397787
G03 X178.683836 Y125.489783 Z-2.000000 I26.424653 J-8.666000
G03 X185.128760 Y118.445910 Z-2.000000 I9.465932 J2.190644
G03 X197.009486 Y120.741258 Z-2.000000 I3.878938 J11.817616
G03 X205.009270 Y132.573370 Z-2.000000 I-16.774180 J19.961568
G03 X205.833807 Y139.141791 Z-2.000000 I-16.405218 J5.395317
G03 X203.687000 Y143.754710 Z-2.000000 I-7.062626 J-0.480865
G01 X203.675400 Y143.754710 Z-2.000000
G00 Z5.000000

(End cutting path id: path840)


(Start cutting path id: path840)
(Change tool to Default tool)

G00 Z5.000000
G00 X203.675400 Y143.754710

G01 Z-3.000000 F100.0(Penetrate)
G02 X198.401366 Y151.434868 Z-3.000000 I13.136411 J14.671834 F400.000000
G02 X198.293510 Y156.269930 Z-3.000000 I6.766450 J2.569673
G02 X203.696044 Y163.392241 Z-3.000000 I13.032566 J-4.275514
G03 X205.345640 Y165.560640 Z-3.000000 I-2.334928 J3.487941
G01 X204.266950 Y167.613660 Z-3.000000
G03 X202.840827 Y167.742746 Z-3.000000 I-1.001834 J-3.125769
G03 X196.391290 Y165.676630 Z-3.000000 I2.439569 J-18.714713
G03 X189.015717 Y159.319134 Z-3.000000 I9.781052 J-18.804462
G03 X179.352510 Y140.425830 Z-3.000000 I55.683423 J-40.397787
G03 X178.683836 Y125.489783 Z-3.000000 I26.424653 J-8.666000
G03 X185.128760 Y118.445910 Z-3.000000 I9.465932 J2.190644
G03 X197.009486 Y120.741258 Z-3.000000 I3.878938 J11.817616
G03 X205.009270 Y132.573370 Z-3.000000 I-16.774180 J19.961568
G03 X205.833807 Y139.141791 Z-3.000000 I-16.405218 J5.395317
G03 X203.687000 Y143.754710 Z-3.000000 I-7.062626 J-0.480865
G01 X203.675400 Y143.754710 Z-3.000000
G00 Z5.000000

(End cutting path id: path840)


(Start cutting path id: path840)
(Change tool to Default tool)

G00 Z5.000000
G00 X203.675400 Y143.754710

G01 Z-4.000000 F100.0(Penetrate)
G02 X198.401366 Y151.434868 Z-4.000000 I13.136411 J14.671834 F400.000000
G02 X198.293510 Y156.269930 Z-4.000000 I6.766450 J2.569673
G02 X203.696044 Y163.392241 Z-4.000000 I13.032566 J-4.275514
G03 X205.345640 Y165.560640 Z-4.000000 I-2.334928 J3.487941
G01 X204.266950 Y167.613660 Z-4.000000
G03 X202.840827 Y167.742746 Z-4.000000 I-1.001834 J-3.125769
G03 X196.391290 Y165.676630 Z-4.000000 I2.439569 J-18.714713
G03 X189.015717 Y159.319134 Z-4.000000 I9.781052 J-18.804462
G03 X179.352510 Y140.425830 Z-4.000000 I55.683423 J-40.397787
G03 X178.683836 Y125.489783 Z-4.000000 I26.424653 J-8.666000
G03 X185.128760 Y118.445910 Z-4.000000 I9.465932 J2.190644
G03 X197.009486 Y120.741258 Z-4.000000 I3.878938 J11.817616
G03 X205.009270 Y132.573370 Z-4.000000 I-16.774180 J19.961568
G03 X205.833807 Y139.141791 Z-4.000000 I-16.405218 J5.395317
G03 X203.687000 Y143.754710 Z-4.000000 I-7.062626 J-0.480865
G01 X203.675400 Y143.754710 Z-4.000000
G00 Z5.000000

(End cutting path id: path840)


(Start cutting path id: path840)
(Change tool to Default tool)

G00 Z5.000000
G00 X203.675400 Y143.754710

G01 Z-5.000000 F100.0(Penetrate)
G02 X198.401366 Y151.434868 Z-5.000000 I13.136411 J14.671834 F400.000000
G02 X198.293510 Y156.269930 Z-5.000000 I6.766450 J2.569673
G02 X203.696044 Y163.392241 Z-5.000000 I13.032566 J-4.275514
G03 X205.345640 Y165.560640 Z-5.000000 I-2.334928 J3.487941
G01 X204.266950 Y167.613660 Z-5.000000
G03 X202.840827 Y167.742746 Z-5.000000 I-1.001834 J-3.125769
G03 X196.391290 Y165.676630 Z-5.000000 I2.439569 J-18.714713
G03 X189.015717 Y159.319134 Z-5.000000 I9.781052 J-18.804462
G03 X179.352510 Y140.425830 Z-5.000000 I55.683423 J-40.397787
G03 X178.683836 Y125.489783 Z-5.000000 I26.424653 J-8.666000
G03 X185.128760 Y118.445910 Z-5.000000 I9.465932 J2.190644
G03 X197.009486 Y120.741258 Z-5.000000 I3.878938 J11.817616
G03 X205.009270 Y132.573370 Z-5.000000 I-16.774180 J19.961568
G03 X205.833807 Y139.141791 Z-5.000000 I-16.405218 J5.395317
G03 X203.687000 Y143.754710 Z-5.000000 I-7.062626 J-0.480865
G01 X203.675400 Y143.754710 Z-5.000000
G00 Z5.000000

(End cutting path id: path840)


(Start cutting path id: path840)
(Change tool to Default tool)

G00 Z5.000000
G00 X203.675400 Y143.754710

G01 Z-6.000000 F100.0(Penetrate)
G02 X198.401366 Y151.434868 Z-6.000000 I13.136411 J14.671834 F400.000000
G02 X198.293510 Y156.269930 Z-6.000000 I6.766450 J2.569673
G02 X203.696044 Y163.392241 Z-6.000000 I13.032566 J-4.275514
G03 X205.345640 Y165.560640 Z-6.000000 I-2.334928 J3.487941
G01 X204.266950 Y167.613660 Z-6.000000
G03 X202.840827 Y167.742746 Z-6.000000 I-1.001834 J-3.125769
G03 X196.391290 Y165.676630 Z-6.000000 I2.439569 J-18.714713
G03 X189.015717 Y159.319134 Z-6.000000 I9.781052 J-18.804462
G03 X179.352510 Y140.425830 Z-6.000000 I55.683423 J-40.397787
G03 X178.683836 Y125.489783 Z-6.000000 I26.424653 J-8.666000
G03 X185.128760 Y118.445910 Z-6.000000 I9.465932 J2.190644
G03 X197.009486 Y120.741258 Z-6.000000 I3.878938 J11.817616
G03 X205.009270 Y132.573370 Z-6.000000 I-16.774180 J19.961568
G03 X205.833807 Y139.141791 Z-6.000000 I-16.405218 J5.395317
G03 X203.687000 Y143.754710 Z-6.000000 I-7.062626 J-0.480865
G01 X203.675400 Y143.754710 Z-6.000000
G00 Z5.000000

(End cutting path id: path840)


(Start cutting path id: path840)
(Change tool to Default tool)

G00 Z5.000000
G00 X203.675400 Y143.754710

G01 Z-6.300000 F100.0(Penetrate)
G02 X198.401366 Y151.434868 Z-6.300000 I13.136411 J14.671834 F400.000000
G02 X198.293510 Y156.269930 Z-6.300000 I6.766450 J2.569673
G02 X203.696044 Y163.392241 Z-6.300000 I13.032566 J-4.275514
G03 X205.345640 Y165.560640 Z-6.300000 I-2.334928 J3.487941
G01 X204.266950 Y167.613660 Z-6.300000
G03 X202.840827 Y167.742746 Z-6.300000 I-1.001834 J-3.125769
G03 X196.391290 Y165.676630 Z-6.300000 I2.439569 J-18.714713
G03 X189.015717 Y159.319134 Z-6.300000 I9.781052 J-18.804462
G03 X179.352510 Y140.425830 Z-6.300000 I55.683423 J-40.397787
G03 X178.683836 Y125.489783 Z-6.300000 I26.424653 J-8.666000
G03 X185.128760 Y118.445910 Z-6.300000 I9.465932 J2.190644
G03 X197.009486 Y120.741258 Z-6.300000 I3.878938 J11.817616
G03 X205.009270 Y132.573370 Z-6.300000 I-16.774180 J19.961568
G03 X205.833807 Y139.141791 Z-6.300000 I-16.405218 J5.395317
G03 X203.687000 Y143.754710 Z-6.300000 I-7.062626 J-0.480865
G01 X203.675400 Y143.754710 Z-6.300000
G00 Z5.000000

(End cutting path id: path840)


(Start cutting path id: path830)
(Change tool to Default tool)

G00 Z5.000000
G00 X133.905436 Y168.894110

G01 Z-1.000000 F100.0(Penetrate)
G02 X137.195465 Y146.779003 Z-1.000000 I-77.620743 J-22.849792 F400.000000
G02 X133.847437 Y128.660424 Z-1.000000 I-48.325639 J-0.438806
G02 X123.929819 Y114.242970 Z-1.000000 I-36.022621 J14.159751
G02 X104.699406 Y103.406720 Z-1.000000 I-33.064380 J36.195650
G02 X77.368620 Y105.666083 Z-1.000000 I-10.744983 J36.456946
G02 X59.463693 Y126.801700 Z-1.000000 I14.943304 J30.810982
G02 X61.844601 Y162.826954 Z-1.000000 I50.186664 J14.774469
G02 X94.585166 Y191.511963 Z-1.000000 I47.394470 J-21.067958
G02 X119.444248 Y188.045956 Z-1.000000 I8.601860 J-29.186112
G02 X133.905436 Y168.894110 Z-1.000000 I-18.181078 J-28.763783
G01 X133.905436 Y168.894110 Z-1.000000
G00 Z5.000000

(End cutting path id: path830)


(Start cutting path id: path830)
(Change tool to Default tool)

G00 Z5.000000
G00 X133.905436 Y168.894110

G01 Z-2.000000 F100.0(Penetrate)
G02 X137.195465 Y146.779003 Z-2.000000 I-77.620743 J-22.849792 F400.000000
G02 X133.847437 Y128.660424 Z-2.000000 I-48.325639 J-0.438806
G02 X123.929819 Y114.242970 Z-2.000000 I-36.022621 J14.159751
G02 X104.699406 Y103.406720 Z-2.000000 I-33.064380 J36.195650
G02 X77.368620 Y105.666083 Z-2.000000 I-10.744983 J36.456946
G02 X59.463693 Y126.801700 Z-2.000000 I14.943304 J30.810982
G02 X61.844601 Y162.826954 Z-2.000000 I50.186664 J14.774469
G02 X94.585166 Y191.511963 Z-2.000000 I47.394470 J-21.067958
G02 X119.444248 Y188.045956 Z-2.000000 I8.601860 J-29.186112
G02 X133.905436 Y168.894110 Z-2.000000 I-18.181078 J-28.763783
G01 X133.905436 Y168.894110 Z-2.000000
G00 Z5.000000

(End cutting path id: path830)


(Start cutting path id: path830)
(Change tool to Default tool)

G00 Z5.000000
G00 X133.905436 Y168.894110

G01 Z-3.000000 F100.0(Penetrate)
G02 X137.195465 Y146.779003 Z-3.000000 I-77.620743 J-22.849792 F400.000000
G02 X133.847437 Y128.660424 Z-3.000000 I-48.325639 J-0.438806
G02 X123.929819 Y114.242970 Z-3.000000 I-36.022621 J14.159751
G02 X104.699406 Y103.406720 Z-3.000000 I-33.064380 J36.195650
G02 X77.368620 Y105.666083 Z-3.000000 I-10.744983 J36.456946
G02 X59.463693 Y126.801700 Z-3.000000 I14.943304 J30.810982
G02 X61.844601 Y162.826954 Z-3.000000 I50.186664 J14.774469
G02 X94.585166 Y191.511963 Z-3.000000 I47.394470 J-21.067958
G02 X119.444248 Y188.045956 Z-3.000000 I8.601860 J-29.186112
G02 X133.905436 Y168.894110 Z-3.000000 I-18.181078 J-28.763783
G01 X133.905436 Y168.894110 Z-3.000000
G00 Z5.000000

(End cutting path id: path830)


(Start cutting path id: path830)
(Change tool to Default tool)

G00 Z5.000000
G00 X133.905436 Y168.894110

G01 Z-4.000000 F100.0(Penetrate)
G02 X137.195465 Y146.779003 Z-4.000000 I-77.620743 J-22.849792 F400.000000
G02 X133.847437 Y128.660424 Z-4.000000 I-48.325639 J-0.438806
G02 X123.929819 Y114.242970 Z-4.000000 I-36.022621 J14.159751
G02 X104.699406 Y103.406720 Z-4.000000 I-33.064380 J36.195650
G02 X77.368620 Y105.666083 Z-4.000000 I-10.744983 J36.456946
G02 X59.463693 Y126.801700 Z-4.000000 I14.943304 J30.810982
G02 X61.844601 Y162.826954 Z-4.000000 I50.186664 J14.774469
G02 X94.585166 Y191.511963 Z-4.000000 I47.394470 J-21.067958
G02 X119.444248 Y188.045956 Z-4.000000 I8.601860 J-29.186112
G02 X133.905436 Y168.894110 Z-4.000000 I-18.181078 J-28.763783
G01 X133.905436 Y168.894110 Z-4.000000
G00 Z5.000000

(End cutting path id: path830)


(Start cutting path id: path830)
(Change tool to Default tool)

G00 Z5.000000
G00 X133.905436 Y168.894110

G01 Z-5.000000 F100.0(Penetrate)
G02 X137.195465 Y146.779003 Z-5.000000 I-77.620743 J-22.849792 F400.000000
G02 X133.847437 Y128.660424 Z-5.000000 I-48.325639 J-0.438806
G02 X123.929819 Y114.242970 Z-5.000000 I-36.022621 J14.159751
G02 X104.699406 Y103.406720 Z-5.000000 I-33.064380 J36.195650
G02 X77.368620 Y105.666083 Z-5.000000 I-10.744983 J36.456946
G02 X59.463693 Y126.801700 Z-5.000000 I14.943304 J30.810982
G02 X61.844601 Y162.826954 Z-5.000000 I50.186664 J14.774469
G02 X94.585166 Y191.511963 Z-5.000000 I47.394470 J-21.067958
G02 X119.444248 Y188.045956 Z-5.000000 I8.601860 J-29.186112
G02 X133.905436 Y168.894110 Z-5.000000 I-18.181078 J-28.763783
G01 X133.905436 Y168.894110 Z-5.000000
G00 Z5.000000

(End cutting path id: path830)


(Start cutting path id: path830)
(Change tool to Default tool)

G00 Z5.000000
G00 X133.905436 Y168.894110

G01 Z-6.000000 F100.0(Penetrate)
G02 X137.195465 Y146.779003 Z-6.000000 I-77.620743 J-22.849792 F400.000000
G02 X133.847437 Y128.660424 Z-6.000000 I-48.325639 J-0.438806
G02 X123.929819 Y114.242970 Z-6.000000 I-36.022621 J14.159751
G02 X104.699406 Y103.406720 Z-6.000000 I-33.064380 J36.195650
G02 X77.368620 Y105.666083 Z-6.000000 I-10.744983 J36.456946
G02 X59.463693 Y126.801700 Z-6.000000 I14.943304 J30.810982
G02 X61.844601 Y162.826954 Z-6.000000 I50.186664 J14.774469
G02 X94.585166 Y191.511963 Z-6.000000 I47.394470 J-21.067958
G02 X119.444248 Y188.045956 Z-6.000000 I8.601860 J-29.186112
G02 X133.905436 Y168.894110 Z-6.000000 I-18.181078 J-28.763783
G01 X133.905436 Y168.894110 Z-6.000000
G00 Z5.000000

(End cutting path id: path830)


(Start cutting path id: path830)
(Change tool to Default tool)

G00 Z5.000000
G00 X133.905436 Y168.894110

G01 Z-6.300000 F100.0(Penetrate)
G02 X137.195465 Y146.779003 Z-6.300000 I-77.620743 J-22.849792 F400.000000
G02 X133.847437 Y128.660424 Z-6.300000 I-48.325639 J-0.438806
G02 X123.929819 Y114.242970 Z-6.300000 I-36.022621 J14.159751
G02 X104.699406 Y103.406720 Z-6.300000 I-33.064380 J36.195650
G02 X77.368620 Y105.666083 Z-6.300000 I-10.744983 J36.456946
G02 X59.463693 Y126.801700 Z-6.300000 I14.943304 J30.810982
G02 X61.844601 Y162.826954 Z-6.300000 I50.186664 J14.774469
G02 X94.585166 Y191.511963 Z-6.300000 I47.394470 J-21.067958
G02 X119.444248 Y188.045956 Z-6.300000 I8.601860 J-29.186112
G02 X133.905436 Y168.894110 Z-6.300000 I-18.181078 J-28.763783
G01 X133.905436 Y168.894110 Z-6.300000
G00 Z5.000000

(End cutting path id: path830)


(Start cutting path id: path830)
(Change tool to Default tool)

G00 Z5.000000
G00 X110.533646 Y157.527190

G01 Z-1.000000 F100.0(Penetrate)
G02 X101.829448 Y160.861639 Z-1.000000 I2.507072 J19.572305 F400.000000
G02 X98.992746 Y164.776500 Z-1.000000 I4.124566 J5.973820
G02 X99.394818 Y173.700095 Z-1.000000 I13.128065 J3.879343
G03 X99.526296 Y176.421793 Z-1.000000 I-3.918861 J1.553335
G01 X97.473286 Y177.500493 Z-1.000000
G03 X96.220095 Y176.801219 Z-1.000000 I0.896439 J-3.079116
G03 X92.091396 Y171.434270 Z-1.000000 I12.644747 J-13.998921
G03 X89.629035 Y162.015047 Z-1.000000 I18.774690 J-9.939519
G03 X92.404566 Y140.975550 Z-1.000000 I68.423858 J-1.676347
G03 X100.329388 Y128.302260 Z-1.000000 I26.684734 J7.872007
G03 X109.640536 Y126.152160 Z-1.000000 I6.563748 J7.188421
G03 X118.114912 Y134.784091 Z-1.000000 I-3.515815 J11.927456
G03 X117.980146 Y149.071590 Z-1.000000 I-25.131137 J6.907338
G03 X114.930152 Y154.948745 Z-1.000000 I-16.555201 J-4.861461
G03 X110.545246 Y157.527190 Z-1.000000 I-5.541648 J-4.406420
G01 X110.533646 Y157.527190 Z-1.000000
G00 Z5.000000

(End cutting path id: path830)


(Start cutting path id: path830)
(Change tool to Default tool)

G00 Z5.000000
G00 X110.533646 Y157.527190

G01 Z-2.000000 F100.0(Penetrate)
G02 X101.829448 Y160.861639 Z-2.000000 I2.507072 J19.572305 F400.000000
G02 X98.992746 Y164.776500 Z-2.000000 I4.124566 J5.973820
G02 X99.394818 Y173.700095 Z-2.000000 I13.128065 J3.879343
G03 X99.526296 Y176.421793 Z-2.000000 I-3.918861 J1.553335
G01 X97.473286 Y177.500493 Z-2.000000
G03 X96.220095 Y176.801219 Z-2.000000 I0.896439 J-3.079116
G03 X92.091396 Y171.434270 Z-2.000000 I12.644747 J-13.998921
G03 X89.629035 Y162.015047 Z-2.000000 I18.774690 J-9.939519
G03 X92.404566 Y140.975550 Z-2.000000 I68.423858 J-1.676347
G03 X100.329388 Y128.302260 Z-2.000000 I26.684734 J7.872007
G03 X109.640536 Y126.152160 Z-2.000000 I6.563748 J7.188421
G03 X118.114912 Y134.784091 Z-2.000000 I-3.515815 J11.927456
G03 X117.980146 Y149.071590 Z-2.000000 I-25.131137 J6.907338
G03 X114.930152 Y154.948745 Z-2.000000 I-16.555201 J-4.861461
G03 X110.545246 Y157.527190 Z-2.000000 I-5.541648 J-4.406420
G01 X110.533646 Y157.527190 Z-2.000000
G00 Z5.000000

(End cutting path id: path830)


(Start cutting path id: path830)
(Change tool to Default tool)

G00 Z5.000000
G00 X110.533646 Y157.527190

G01 Z-3.000000 F100.0(Penetrate)
G02 X101.829448 Y160.861639 Z-3.000000 I2.507072 J19.572305 F400.000000
G02 X98.992746 Y164.776500 Z-3.000000 I4.124566 J5.973820
G02 X99.394818 Y173.700095 Z-3.000000 I13.128065 J3.879343
G03 X99.526296 Y176.421793 Z-3.000000 I-3.918861 J1.553335
G01 X97.473286 Y177.500493 Z-3.000000
G03 X96.220095 Y176.801219 Z-3.000000 I0.896439 J-3.079116
G03 X92.091396 Y171.434270 Z-3.000000 I12.644747 J-13.998921
G03 X89.629035 Y162.015047 Z-3.000000 I18.774690 J-9.939519
G03 X92.404566 Y140.975550 Z-3.000000 I68.423858 J-1.676347
G03 X100.329388 Y128.302260 Z-3.000000 I26.684734 J7.872007
G03 X109.640536 Y126.152160 Z-3.000000 I6.563748 J7.188421
G03 X118.114912 Y134.784091 Z-3.000000 I-3.515815 J11.927456
G03 X117.980146 Y149.071590 Z-3.000000 I-25.131137 J6.907338
G03 X114.930152 Y154.948745 Z-3.000000 I-16.555201 J-4.861461
G03 X110.545246 Y157.527190 Z-3.000000 I-5.541648 J-4.406420
G01 X110.533646 Y157.527190 Z-3.000000
G00 Z5.000000

(End cutting path id: path830)


(Start cutting path id: path830)
(Change tool to Default tool)

G00 Z5.000000
G00 X110.533646 Y157.527190

G01 Z-4.000000 F100.0(Penetrate)
G02 X101.829448 Y160.861639 Z-4.000000 I2.507072 J19.572305 F400.000000
G02 X98.992746 Y164.776500 Z-4.000000 I4.124566 J5.973820
G02 X99.394818 Y173.700095 Z-4.000000 I13.128065 J3.879343
G03 X99.526296 Y176.421793 Z-4.000000 I-3.918861 J1.553335
G01 X97.473286 Y177.500493 Z-4.000000
G03 X96.220095 Y176.801219 Z-4.000000 I0.896439 J-3.079116
G03 X92.091396 Y171.434270 Z-4.000000 I12.644747 J-13.998921
G03 X89.629035 Y162.015047 Z-4.000000 I18.774690 J-9.939519
G03 X92.404566 Y140.975550 Z-4.000000 I68.423858 J-1.676347
G03 X100.329388 Y128.302260 Z-4.000000 I26.684734 J7.872007
G03 X109.640536 Y126.152160 Z-4.000000 I6.563748 J7.188421
G03 X118.114912 Y134.784091 Z-4.000000 I-3.515815 J11.927456
G03 X117.980146 Y149.071590 Z-4.000000 I-25.131137 J6.907338
G03 X114.930152 Y154.948745 Z-4.000000 I-16.555201 J-4.861461
G03 X110.545246 Y157.527190 Z-4.000000 I-5.541648 J-4.406420
G01 X110.533646 Y157.527190 Z-4.000000
G00 Z5.000000

(End cutting path id: path830)


(Start cutting path id: path830)
(Change tool to Default tool)

G00 Z5.000000
G00 X110.533646 Y157.527190

G01 Z-5.000000 F100.0(Penetrate)
G02 X101.829448 Y160.861639 Z-5.000000 I2.507072 J19.572305 F400.000000
G02 X98.992746 Y164.776500 Z-5.000000 I4.124566 J5.973820
G02 X99.394818 Y173.700095 Z-5.000000 I13.128065 J3.879343
G03 X99.526296 Y176.421793 Z-5.000000 I-3.918861 J1.553335
G01 X97.473286 Y177.500493 Z-5.000000
G03 X96.220095 Y176.801219 Z-5.000000 I0.896439 J-3.079116
G03 X92.091396 Y171.434270 Z-5.000000 I12.644747 J-13.998921
G03 X89.629035 Y162.015047 Z-5.000000 I18.774690 J-9.939519
G03 X92.404566 Y140.975550 Z-5.000000 I68.423858 J-1.676347
G03 X100.329388 Y128.302260 Z-5.000000 I26.684734 J7.872007
G03 X109.640536 Y126.152160 Z-5.000000 I6.563748 J7.188421
G03 X118.114912 Y134.784091 Z-5.000000 I-3.515815 J11.927456
G03 X117.980146 Y149.071590 Z-5.000000 I-25.131137 J6.907338
G03 X114.930152 Y154.948745 Z-5.000000 I-16.555201 J-4.861461
G03 X110.545246 Y157.527190 Z-5.000000 I-5.541648 J-4.406420
G01 X110.533646 Y157.527190 Z-5.000000
G00 Z5.000000

(End cutting path id: path830)


(Start cutting path id: path830)
(Change tool to Default tool)

G00 Z5.000000
G00 X110.533646 Y157.527190

G01 Z-6.000000 F100.0(Penetrate)
G02 X101.829448 Y160.861639 Z-6.000000 I2.507072 J19.572305 F400.000000
G02 X98.992746 Y164.776500 Z-6.000000 I4.124566 J5.973820
G02 X99.394818 Y173.700095 Z-6.000000 I13.128065 J3.879343
G03 X99.526296 Y176.421793 Z-6.000000 I-3.918861 J1.553335
G01 X97.473286 Y177.500493 Z-6.000000
G03 X96.220095 Y176.801219 Z-6.000000 I0.896439 J-3.079116
G03 X92.091396 Y171.434270 Z-6.000000 I12.644747 J-13.998921
G03 X89.629035 Y162.015047 Z-6.000000 I18.774690 J-9.939519
G03 X92.404566 Y140.975550 Z-6.000000 I68.423858 J-1.676347
G03 X100.329388 Y128.302260 Z-6.000000 I26.684734 J7.872007
G03 X109.640536 Y126.152160 Z-6.000000 I6.563748 J7.188421
G03 X118.114912 Y134.784091 Z-6.000000 I-3.515815 J11.927456
G03 X117.980146 Y149.071590 Z-6.000000 I-25.131137 J6.907338
G03 X114.930152 Y154.948745 Z-6.000000 I-16.555201 J-4.861461
G03 X110.545246 Y157.527190 Z-6.000000 I-5.541648 J-4.406420
G01 X110.533646 Y157.527190 Z-6.000000
G00 Z5.000000

(End cutting path id: path830)


(Start cutting path id: path830)
(Change tool to Default tool)

G00 Z5.000000
G00 X110.533646 Y157.527190

G01 Z-6.300000 F100.0(Penetrate)
G02 X101.829448 Y160.861639 Z-6.300000 I2.507072 J19.572305 F400.000000
G02 X98.992746 Y164.776500 Z-6.300000 I4.124566 J5.973820
G02 X99.394818 Y173.700095 Z-6.300000 I13.128065 J3.879343
G03 X99.526296 Y176.421793 Z-6.300000 I-3.918861 J1.553335
G01 X97.473286 Y177.500493 Z-6.300000
G03 X96.220095 Y176.801219 Z-6.300000 I0.896439 J-3.079116
G03 X92.091396 Y171.434270 Z-6.300000 I12.644747 J-13.998921
G03 X89.629035 Y162.015047 Z-6.300000 I18.774690 J-9.939519
G03 X92.404566 Y140.975550 Z-6.300000 I68.423858 J-1.676347
G03 X100.329388 Y128.302260 Z-6.300000 I26.684734 J7.872007
G03 X109.640536 Y126.152160 Z-6.300000 I6.563748 J7.188421
G03 X118.114912 Y134.784091 Z-6.300000 I-3.515815 J11.927456
G03 X117.980146 Y149.071590 Z-6.300000 I-25.131137 J6.907338
G03 X114.930152 Y154.948745 Z-6.300000 I-16.555201 J-4.861461
G03 X110.545246 Y157.527190 Z-6.300000 I-5.541648 J-4.406420
G01 X110.533646 Y157.527190 Z-6.300000
G00 Z5.000000

(End cutting path id: path830)


(Start cutting path id: path832)
(Change tool to Default tool)

G00 Z5.000000
G00 X123.869116 Y78.954350

G01 Z-1.000000 F100.0(Penetrate)
G03 X119.494518 Y75.620949 Z-1.000000 I1.090774 J-5.968688 F400.000000
G03 X115.388869 Y62.988460 Z-1.000000 I44.431841 J-21.424096
G03 X114.058637 Y49.090564 Z-1.000000 I82.099796 J-14.870756
G03 X115.251126 Y35.017710 Z-1.000000 I73.517932 J-0.857277
G03 X118.512174 Y27.808316 Z-1.000000 I16.040556 J2.913438
G03 X122.639626 Y26.260540 Z-1.000000 I3.348594 J2.652470
G03 X126.838467 Y29.906864 Z-1.000000 I-0.983103 J5.372771
G03 X130.006382 Y44.894174 Z-1.000000 I-64.276882 J21.414872
G03 X130.477369 Y61.136470 Z-1.000000 I-122.587418 J11.682713
G03 X128.995826 Y74.697550 Z-1.000000 I-95.037543 J-3.521349
G03 X127.054477 Y78.090737 Z-1.000000 I-5.779389 J-1.054623
G03 X123.880716 Y78.954350 Z-1.000000 I-2.489388 J-2.884891
G01 X123.880716 Y78.954350 Z-1.000000
G01 X123.869116 Y78.954350 Z-1.000000
G00 Z5.000000

(End cutting path id: path832)


(Start cutting path id: path832)
(Change tool to Default tool)

G00 Z5.000000
G00 X123.869116 Y78.954350

G01 Z-2.000000 F100.0(Penetrate)
G03 X119.494518 Y75.620949 Z-2.000000 I1.090774 J-5.968688 F400.000000
G03 X115.388869 Y62.988460 Z-2.000000 I44.431841 J-21.424096
G03 X114.058637 Y49.090564 Z-2.000000 I82.099796 J-14.870756
G03 X115.251126 Y35.017710 Z-2.000000 I73.517932 J-0.857277
G03 X118.512174 Y27.808316 Z-2.000000 I16.040556 J2.913438
G03 X122.639626 Y26.260540 Z-2.000000 I3.348594 J2.652470
G03 X126.838467 Y29.906864 Z-2.000000 I-0.983103 J5.372771
G03 X130.006382 Y44.894174 Z-2.000000 I-64.276882 J21.414872
G03 X130.477369 Y61.136470 Z-2.000000 I-122.587418 J11.682713
G03 X128.995826 Y74.697550 Z-2.000000 I-95.037543 J-3.521349
G03 X127.054477 Y78.090737 Z-2.000000 I-5.779389 J-1.054623
G03 X123.880716 Y78.954350 Z-2.000000 I-2.489388 J-2.884891
G01 X123.880716 Y78.954350 Z-2.000000
G01 X123.869116 Y78.954350 Z-2.000000
G00 Z5.000000

(End cutting path id: path832)


(Start cutting path id: path832)
(Change tool to Default tool)

G00 Z5.000000
G00 X123.869116 Y78.954350

G01 Z-3.000000 F100.0(Penetrate)
G03 X119.494518 Y75.620949 Z-3.000000 I1.090774 J-5.968688 F400.000000
G03 X115.388869 Y62.988460 Z-3.000000 I44.431841 J-21.424096
G03 X114.058637 Y49.090564 Z-3.000000 I82.099796 J-14.870756
G03 X115.251126 Y35.017710 Z-3.000000 I73.517932 J-0.857277
G03 X118.512174 Y27.808316 Z-3.000000 I16.040556 J2.913438
G03 X122.639626 Y26.260540 Z-3.000000 I3.348594 J2.652470
G03 X126.838467 Y29.906864 Z-3.000000 I-0.983103 J5.372771
G03 X130.006382 Y44.894174 Z-3.000000 I-64.276882 J21.414872
G03 X130.477369 Y61.136470 Z-3.000000 I-122.587418 J11.682713
G03 X128.995826 Y74.697550 Z-3.000000 I-95.037543 J-3.521349
G03 X127.054477 Y78.090737 Z-3.000000 I-5.779389 J-1.054623
G03 X123.880716 Y78.954350 Z-3.000000 I-2.489388 J-2.884891
G01 X123.880716 Y78.954350 Z-3.000000
G01 X123.869116 Y78.954350 Z-3.000000
G00 Z5.000000

(End cutting path id: path832)


(Start cutting path id: path832)
(Change tool to Default tool)

G00 Z5.000000
G00 X123.869116 Y78.954350

G01 Z-4.000000 F100.0(Penetrate)
G03 X119.494518 Y75.620949 Z-4.000000 I1.090774 J-5.968688 F400.000000
G03 X115.388869 Y62.988460 Z-4.000000 I44.431841 J-21.424096
G03 X114.058637 Y49.090564 Z-4.000000 I82.099796 J-14.870756
G03 X115.251126 Y35.017710 Z-4.000000 I73.517932 J-0.857277
G03 X118.512174 Y27.808316 Z-4.000000 I16.040556 J2.913438
G03 X122.639626 Y26.260540 Z-4.000000 I3.348594 J2.652470
G03 X126.838467 Y29.906864 Z-4.000000 I-0.983103 J5.372771
G03 X130.006382 Y44.894174 Z-4.000000 I-64.276882 J21.414872
G03 X130.477369 Y61.136470 Z-4.000000 I-122.587418 J11.682713
G03 X128.995826 Y74.697550 Z-4.000000 I-95.037543 J-3.521349
G03 X127.054477 Y78.090737 Z-4.000000 I-5.779389 J-1.054623
G03 X123.880716 Y78.954350 Z-4.000000 I-2.489388 J-2.884891
G01 X123.880716 Y78.954350 Z-4.000000
G01 X123.869116 Y78.954350 Z-4.000000
G00 Z5.000000

(End cutting path id: path832)


(Start cutting path id: path832)
(Change tool to Default tool)

G00 Z5.000000
G00 X123.869116 Y78.954350

G01 Z-5.000000 F100.0(Penetrate)
G03 X119.494518 Y75.620949 Z-5.000000 I1.090774 J-5.968688 F400.000000
G03 X115.388869 Y62.988460 Z-5.000000 I44.431841 J-21.424096
G03 X114.058637 Y49.090564 Z-5.000000 I82.099796 J-14.870756
G03 X115.251126 Y35.017710 Z-5.000000 I73.517932 J-0.857277
G03 X118.512174 Y27.808316 Z-5.000000 I16.040556 J2.913438
G03 X122.639626 Y26.260540 Z-5.000000 I3.348594 J2.652470
G03 X126.838467 Y29.906864 Z-5.000000 I-0.983103 J5.372771
G03 X130.006382 Y44.894174 Z-5.000000 I-64.276882 J21.414872
G03 X130.477369 Y61.136470 Z-5.000000 I-122.587418 J11.682713
G03 X128.995826 Y74.697550 Z-5.000000 I-95.037543 J-3.521349
G03 X127.054477 Y78.090737 Z-5.000000 I-5.779389 J-1.054623
G03 X123.880716 Y78.954350 Z-5.000000 I-2.489388 J-2.884891
G01 X123.880716 Y78.954350 Z-5.000000
G01 X123.869116 Y78.954350 Z-5.000000
G00 Z5.000000

(End cutting path id: path832)


(Start cutting path id: path832)
(Change tool to Default tool)

G00 Z5.000000
G00 X123.869116 Y78.954350

G01 Z-6.000000 F100.0(Penetrate)
G03 X119.494518 Y75.620949 Z-6.000000 I1.090774 J-5.968688 F400.000000
G03 X115.388869 Y62.988460 Z-6.000000 I44.431841 J-21.424096
G03 X114.058637 Y49.090564 Z-6.000000 I82.099796 J-14.870756
G03 X115.251126 Y35.017710 Z-6.000000 I73.517932 J-0.857277
G03 X118.512174 Y27.808316 Z-6.000000 I16.040556 J2.913438
G03 X122.639626 Y26.260540 Z-6.000000 I3.348594 J2.652470
G03 X126.838467 Y29.906864 Z-6.000000 I-0.983103 J5.372771
G03 X130.006382 Y44.894174 Z-6.000000 I-64.276882 J21.414872
G03 X130.477369 Y61.136470 Z-6.000000 I-122.587418 J11.682713
G03 X128.995826 Y74.697550 Z-6.000000 I-95.037543 J-3.521349
G03 X127.054477 Y78.090737 Z-6.000000 I-5.779389 J-1.054623
G03 X123.880716 Y78.954350 Z-6.000000 I-2.489388 J-2.884891
G01 X123.880716 Y78.954350 Z-6.000000
G01 X123.869116 Y78.954350 Z-6.000000
G00 Z5.000000

(End cutting path id: path832)


(Start cutting path id: path832)
(Change tool to Default tool)

G00 Z5.000000
G00 X123.869116 Y78.954350

G01 Z-6.300000 F100.0(Penetrate)
G03 X119.494518 Y75.620949 Z-6.300000 I1.090774 J-5.968688 F400.000000
G03 X115.388869 Y62.988460 Z-6.300000 I44.431841 J-21.424096
G03 X114.058637 Y49.090564 Z-6.300000 I82.099796 J-14.870756
G03 X115.251126 Y35.017710 Z-6.300000 I73.517932 J-0.857277
G03 X118.512174 Y27.808316 Z-6.300000 I16.040556 J2.913438
G03 X122.639626 Y26.260540 Z-6.300000 I3.348594 J2.652470
G03 X126.838467 Y29.906864 Z-6.300000 I-0.983103 J5.372771
G03 X130.006382 Y44.894174 Z-6.300000 I-64.276882 J21.414872
G03 X130.477369 Y61.136470 Z-6.300000 I-122.587418 J11.682713
G03 X128.995826 Y74.697550 Z-6.300000 I-95.037543 J-3.521349
G03 X127.054477 Y78.090737 Z-6.300000 I-5.779389 J-1.054623
G03 X123.880716 Y78.954350 Z-6.300000 I-2.489388 J-2.884891
G01 X123.880716 Y78.954350 Z-6.300000
G01 X123.869116 Y78.954350 Z-6.300000
G00 Z5.000000

(End cutting path id: path832)


(Start cutting path id: path832)
(Change tool to Default tool)

G00 Z5.000000
G00 X160.104080 Y13.977310

G01 Z-1.000000 F100.0(Penetrate)
G02 X139.920747 Y21.969054 Z-1.000000 I-3.691126 J20.160582 F400.000000
G02 X138.448926 Y24.230740 Z-1.000000 I18.483538 J13.638149
G03 X137.799608 Y23.123197 Z-1.000000 I42.547312 J-25.688264
G02 X112.710976 Y5.312930 Z-1.000000 I-31.652256 J18.011481
G02 X94.077606 Y9.244674 Z-1.000000 I-4.519440 J24.701035
G02 X79.735296 Y31.259670 Z-1.000000 I19.119617 J28.135388
G02 X78.898639 Y51.273005 Z-1.000000 I71.225604 J13.001741
G02 X84.290766 Y69.566488 Z-1.000000 I50.347133 J-4.898732
G02 X95.794107 Y83.260205 Z-1.000000 I36.028494 J-18.587041
G02 X117.466516 Y92.815030 Z-1.000000 I30.836885 J-40.588455
G02 X134.137018 Y91.869688 Z-1.000000 I6.381829 J-34.920001
G03 X139.168066 Y91.585550 Z-1.000000 I3.102066 J10.243464
G03 X149.997657 Y96.270899 Z-1.000000 I-4.707941 J25.740095
G02 X159.964890 Y100.574700 Z-1.000000 I14.251849 J-19.312530
G02 X162.352632 Y100.070689 Z-1.000000 I0.577942 J-3.169954
G02 X164.186890 Y97.245810 Z-1.000000 I-2.437613 J-3.590750
G02 X164.310186 Y85.699411 Z-1.000000 I-33.542224 J-6.132027
G03 X164.708840 Y48.147670 Z-1.000000 I109.528144 J-17.615240
G03 X169.365156 Y40.143228 Z-1.000000 I13.405097 J2.441417
G03 X174.625900 Y38.752560 Z-1.000000 I4.112053 J4.909704
G03 X178.918438 Y41.135652 Z-1.000000 I-1.361410 J7.509742
G03 X182.478360 Y45.932280 Z-1.000000 I-22.600936 J20.493130
G02 X184.430975 Y48.474049 Z-1.000000 I12.413179 J-7.515047
G02 X185.969630 Y49.307560 Z-1.000000 I2.076589 J-1.996438
G02 X188.800384 Y48.385943 Z-1.000000 I0.561936 J-3.082161
G02 X189.913250 Y46.199050 Z-1.000000 I-3.104674 J-2.956510
G02 X189.690755 Y42.352069 Z-1.000000 I-8.004545 J-1.466972
G02 X187.721060 Y37.059120 Z-1.000000 I-45.442766 J13.897904
G02 X180.064681 Y25.207648 Z-1.000000 I-42.269595 J18.908477
G02 X160.092480 Y13.977310 Z-1.000000 I-26.271314 J23.346697
G01 X160.104080 Y13.977310 Z-1.000000
G00 Z5.000000

(End cutting path id: path832)


(Start cutting path id: path832)
(Change tool to Default tool)

G00 Z5.000000
G00 X160.104080 Y13.977310

G01 Z-2.000000 F100.0(Penetrate)
G02 X139.920747 Y21.969054 Z-2.000000 I-3.691126 J20.160582 F400.000000
G02 X138.448926 Y24.230740 Z-2.000000 I18.483538 J13.638149
G03 X137.799608 Y23.123197 Z-2.000000 I42.547312 J-25.688264
G02 X112.710976 Y5.312930 Z-2.000000 I-31.652256 J18.011481
G02 X94.077606 Y9.244674 Z-2.000000 I-4.519440 J24.701035
G02 X79.735296 Y31.259670 Z-2.000000 I19.119617 J28.135388
G02 X78.898639 Y51.273005 Z-2.000000 I71.225604 J13.001741
G02 X84.290766 Y69.566488 Z-2.000000 I50.347133 J-4.898732
G02 X95.794107 Y83.260205 Z-2.000000 I36.028494 J-18.587041
G02 X117.466516 Y92.815030 Z-2.000000 I30.836885 J-40.588455
G02 X134.137018 Y91.869688 Z-2.000000 I6.381829 J-34.920001
G03 X139.168066 Y91.585550 Z-2.000000 I3.102066 J10.243464
G03 X149.997657 Y96.270899 Z-2.000000 I-4.707941 J25.740095
G02 X159.964890 Y100.574700 Z-2.000000 I14.251849 J-19.312530
G02 X162.352632 Y100.070689 Z-2.000000 I0.577942 J-3.169954
G02 X164.186890 Y97.245810 Z-2.000000 I-2.437613 J-3.590750
G02 X164.310186 Y85.699411 Z-2.000000 I-33.542224 J-6.132027
G03 X164.708840 Y48.147670 Z-2.000000 I109.528144 J-17.615240
G03 X169.365156 Y40.143228 Z-2.000000 I13.405097 J2.441417
G03 X174.625900 Y38.752560 Z-2.000000 I4.112053 J4.909704
G03 X178.918438 Y41.135652 Z-2.000000 I-1.361410 J7.509742
G03 X182.478360 Y45.932280 Z-2.000000 I-22.600936 J20.493130
G02 X184.430975 Y48.474049 Z-2.000000 I12.413179 J-7.515047
G02 X185.969630 Y49.307560 Z-2.000000 I2.076589 J-1.996438
G02 X188.800384 Y48.385943 Z-2.000000 I0.561936 J-3.082161
G02 X189.913250 Y46.199050 Z-2.000000 I-3.104674 J-2.956510
G02 X189.690755 Y42.352069 Z-2.000000 I-8.004545 J-1.466972
G02 X187.721060 Y37.059120 Z-2.000000 I-45.442766 J13.897904
G02 X180.064681 Y25.207648 Z-2.000000 I-42.269595 J18.908477
G02 X160.092480 Y13.977310 Z-2.000000 I-26.271314 J23.346697
G01 X160.104080 Y13.977310 Z-2.000000
G00 Z5.000000

(End cutting path id: path832)


(Start cutting path id: path832)
(Change tool to Default tool)

G00 Z5.000000
G00 X160.104080 Y13.977310

G01 Z-3.000000 F100.0(Penetrate)
G02 X139.920747 Y21.969054 Z-3.000000 I-3.691126 J20.160582 F400.000000
G02 X138.448926 Y24.230740 Z-3.000000 I18.483538 J13.638149
G03 X137.799608 Y23.123197 Z-3.000000 I42.547312 J-25.688264
G02 X112.710976 Y5.312930 Z-3.000000 I-31.652256 J18.011481
G02 X94.077606 Y9.244674 Z-3.000000 I-4.519440 J24.701035
G02 X79.735296 Y31.259670 Z-3.000000 I19.119617 J28.135388
G02 X78.898639 Y51.273005 Z-3.000000 I71.225604 J13.001741
G02 X84.290766 Y69.566488 Z-3.000000 I50.347133 J-4.898732
G02 X95.794107 Y83.260205 Z-3.000000 I36.028494 J-18.587041
G02 X117.466516 Y92.815030 Z-3.000000 I30.836885 J-40.588455
G02 X134.137018 Y91.869688 Z-3.000000 I6.381829 J-34.920001
G03 X139.168066 Y91.585550 Z-3.000000 I3.102066 J10.243464
G03 X149.997657 Y96.270899 Z-3.000000 I-4.707941 J25.740095
G02 X159.964890 Y100.574700 Z-3.000000 I14.251849 J-19.312530
G02 X162.352632 Y100.070689 Z-3.000000 I0.577942 J-3.169954
G02 X164.186890 Y97.245810 Z-3.000000 I-2.437613 J-3.590750
G02 X164.310186 Y85.699411 Z-3.000000 I-33.542224 J-6.132027
G03 X164.708840 Y48.147670 Z-3.000000 I109.528144 J-17.615240
G03 X169.365156 Y40.143228 Z-3.000000 I13.405097 J2.441417
G03 X174.625900 Y38.752560 Z-3.000000 I4.112053 J4.909704
G03 X178.918438 Y41.135652 Z-3.000000 I-1.361410 J7.509742
G03 X182.478360 Y45.932280 Z-3.000000 I-22.600936 J20.493130
G02 X184.430975 Y48.474049 Z-3.000000 I12.413179 J-7.515047
G02 X185.969630 Y49.307560 Z-3.000000 I2.076589 J-1.996438
G02 X188.800384 Y48.385943 Z-3.000000 I0.561936 J-3.082161
G02 X189.913250 Y46.199050 Z-3.000000 I-3.104674 J-2.956510
G02 X189.690755 Y42.352069 Z-3.000000 I-8.004545 J-1.466972
G02 X187.721060 Y37.059120 Z-3.000000 I-45.442766 J13.897904
G02 X180.064681 Y25.207648 Z-3.000000 I-42.269595 J18.908477
G02 X160.092480 Y13.977310 Z-3.000000 I-26.271314 J23.346697
G01 X160.104080 Y13.977310 Z-3.000000
G00 Z5.000000

(End cutting path id: path832)


(Start cutting path id: path832)
(Change tool to Default tool)

G00 Z5.000000
G00 X160.104080 Y13.977310

G01 Z-4.000000 F100.0(Penetrate)
G02 X139.920747 Y21.969054 Z-4.000000 I-3.691126 J20.160582 F400.000000
G02 X138.448926 Y24.230740 Z-4.000000 I18.483538 J13.638149
G03 X137.799608 Y23.123197 Z-4.000000 I42.547312 J-25.688264
G02 X112.710976 Y5.312930 Z-4.000000 I-31.652256 J18.011481
G02 X94.077606 Y9.244674 Z-4.000000 I-4.519440 J24.701035
G02 X79.735296 Y31.259670 Z-4.000000 I19.119617 J28.135388
G02 X78.898639 Y51.273005 Z-4.000000 I71.225604 J13.001741
G02 X84.290766 Y69.566488 Z-4.000000 I50.347133 J-4.898732
G02 X95.794107 Y83.260205 Z-4.000000 I36.028494 J-18.587041
G02 X117.466516 Y92.815030 Z-4.000000 I30.836885 J-40.588455
G02 X134.137018 Y91.869688 Z-4.000000 I6.381829 J-34.920001
G03 X139.168066 Y91.585550 Z-4.000000 I3.102066 J10.243464
G03 X149.997657 Y96.270899 Z-4.000000 I-4.707941 J25.740095
G02 X159.964890 Y100.574700 Z-4.000000 I14.251849 J-19.312530
G02 X162.352632 Y100.070689 Z-4.000000 I0.577942 J-3.169954
G02 X164.186890 Y97.245810 Z-4.000000 I-2.437613 J-3.590750
G02 X164.310186 Y85.699411 Z-4.000000 I-33.542224 J-6.132027
G03 X164.708840 Y48.147670 Z-4.000000 I109.528144 J-17.615240
G03 X169.365156 Y40.143228 Z-4.000000 I13.405097 J2.441417
G03 X174.625900 Y38.752560 Z-4.000000 I4.112053 J4.909704
G03 X178.918438 Y41.135652 Z-4.000000 I-1.361410 J7.509742
G03 X182.478360 Y45.932280 Z-4.000000 I-22.600936 J20.493130
G02 X184.430975 Y48.474049 Z-4.000000 I12.413179 J-7.515047
G02 X185.969630 Y49.307560 Z-4.000000 I2.076589 J-1.996438
G02 X188.800384 Y48.385943 Z-4.000000 I0.561936 J-3.082161
G02 X189.913250 Y46.199050 Z-4.000000 I-3.104674 J-2.956510
G02 X189.690755 Y42.352069 Z-4.000000 I-8.004545 J-1.466972
G02 X187.721060 Y37.059120 Z-4.000000 I-45.442766 J13.897904
G02 X180.064681 Y25.207648 Z-4.000000 I-42.269595 J18.908477
G02 X160.092480 Y13.977310 Z-4.000000 I-26.271314 J23.346697
G01 X160.104080 Y13.977310 Z-4.000000
G00 Z5.000000

(End cutting path id: path832)


(Start cutting path id: path832)
(Change tool to Default tool)

G00 Z5.000000
G00 X160.104080 Y13.977310

G01 Z-5.000000 F100.0(Penetrate)
G02 X139.920747 Y21.969054 Z-5.000000 I-3.691126 J20.160582 F400.000000
G02 X138.448926 Y24.230740 Z-5.000000 I18.483538 J13.638149
G03 X137.799608 Y23.123197 Z-5.000000 I42.547312 J-25.688264
G02 X112.710976 Y5.312930 Z-5.000000 I-31.652256 J18.011481
G02 X94.077606 Y9.244674 Z-5.000000 I-4.519440 J24.701035
G02 X79.735296 Y31.259670 Z-5.000000 I19.119617 J28.135388
G02 X78.898639 Y51.273005 Z-5.000000 I71.225604 J13.001741
G02 X84.290766 Y69.566488 Z-5.000000 I50.347133 J-4.898732
G02 X95.794107 Y83.260205 Z-5.000000 I36.028494 J-18.587041
G02 X117.466516 Y92.815030 Z-5.000000 I30.836885 J-40.588455
G02 X134.137018 Y91.869688 Z-5.000000 I6.381829 J-34.920001
G03 X139.168066 Y91.585550 Z-5.000000 I3.102066 J10.243464
G03 X149.997657 Y96.270899 Z-5.000000 I-4.707941 J25.740095
G02 X159.964890 Y100.574700 Z-5.000000 I14.251849 J-19.312530
G02 X162.352632 Y100.070689 Z-5.000000 I0.577942 J-3.169954
G02 X164.186890 Y97.245810 Z-5.000000 I-2.437613 J-3.590750
G02 X164.310186 Y85.699411 Z-5.000000 I-33.542224 J-6.132027
G03 X164.708840 Y48.147670 Z-5.000000 I109.528144 J-17.615240
G03 X169.365156 Y40.143228 Z-5.000000 I13.405097 J2.441417
G03 X174.625900 Y38.752560 Z-5.000000 I4.112053 J4.909704
G03 X178.918438 Y41.135652 Z-5.000000 I-1.361410 J7.509742
G03 X182.478360 Y45.932280 Z-5.000000 I-22.600936 J20.493130
G02 X184.430975 Y48.474049 Z-5.000000 I12.413179 J-7.515047
G02 X185.969630 Y49.307560 Z-5.000000 I2.076589 J-1.996438
G02 X188.800384 Y48.385943 Z-5.000000 I0.561936 J-3.082161
G02 X189.913250 Y46.199050 Z-5.000000 I-3.104674 J-2.956510
G02 X189.690755 Y42.352069 Z-5.000000 I-8.004545 J-1.466972
G02 X187.721060 Y37.059120 Z-5.000000 I-45.442766 J13.897904
G02 X180.064681 Y25.207648 Z-5.000000 I-42.269595 J18.908477
G02 X160.092480 Y13.977310 Z-5.000000 I-26.271314 J23.346697
G01 X160.104080 Y13.977310 Z-5.000000
G00 Z5.000000

(End cutting path id: path832)


(Start cutting path id: path832)
(Change tool to Default tool)

G00 Z5.000000
G00 X160.104080 Y13.977310

G01 Z-6.000000 F100.0(Penetrate)
G02 X139.920747 Y21.969054 Z-6.000000 I-3.691126 J20.160582 F400.000000
G02 X138.448926 Y24.230740 Z-6.000000 I18.483538 J13.638149
G03 X137.799608 Y23.123197 Z-6.000000 I42.547312 J-25.688264
G02 X112.710976 Y5.312930 Z-6.000000 I-31.652256 J18.011481
G02 X94.077606 Y9.244674 Z-6.000000 I-4.519440 J24.701035
G02 X79.735296 Y31.259670 Z-6.000000 I19.119617 J28.135388
G02 X78.898639 Y51.273005 Z-6.000000 I71.225604 J13.001741
G02 X84.290766 Y69.566488 Z-6.000000 I50.347133 J-4.898732
G02 X95.794107 Y83.260205 Z-6.000000 I36.028494 J-18.587041
G02 X117.466516 Y92.815030 Z-6.000000 I30.836885 J-40.588455
G02 X134.137018 Y91.869688 Z-6.000000 I6.381829 J-34.920001
G03 X139.168066 Y91.585550 Z-6.000000 I3.102066 J10.243464
G03 X149.997657 Y96.270899 Z-6.000000 I-4.707941 J25.740095
G02 X159.964890 Y100.574700 Z-6.000000 I14.251849 J-19.312530
G02 X162.352632 Y100.070689 Z-6.000000 I0.577942 J-3.169954
G02 X164.186890 Y97.245810 Z-6.000000 I-2.437613 J-3.590750
G02 X164.310186 Y85.699411 Z-6.000000 I-33.542224 J-6.132027
G03 X164.708840 Y48.147670 Z-6.000000 I109.528144 J-17.615240
G03 X169.365156 Y40.143228 Z-6.000000 I13.405097 J2.441417
G03 X174.625900 Y38.752560 Z-6.000000 I4.112053 J4.909704
G03 X178.918438 Y41.135652 Z-6.000000 I-1.361410 J7.509742
G03 X182.478360 Y45.932280 Z-6.000000 I-22.600936 J20.493130
G02 X184.430975 Y48.474049 Z-6.000000 I12.413179 J-7.515047
G02 X185.969630 Y49.307560 Z-6.000000 I2.076589 J-1.996438
G02 X188.800384 Y48.385943 Z-6.000000 I0.561936 J-3.082161
G02 X189.913250 Y46.199050 Z-6.000000 I-3.104674 J-2.956510
G02 X189.690755 Y42.352069 Z-6.000000 I-8.004545 J-1.466972
G02 X187.721060 Y37.059120 Z-6.000000 I-45.442766 J13.897904
G02 X180.064681 Y25.207648 Z-6.000000 I-42.269595 J18.908477
G02 X160.092480 Y13.977310 Z-6.000000 I-26.271314 J23.346697
G01 X160.104080 Y13.977310 Z-6.000000
G00 Z5.000000

(End cutting path id: path832)


(Start cutting path id: path832)
(Change tool to Default tool)

G00 Z5.000000
G00 X160.104080 Y13.977310

G01 Z-6.300000 F100.0(Penetrate)
G02 X139.920747 Y21.969054 Z-6.300000 I-3.691126 J20.160582 F400.000000
G02 X138.448926 Y24.230740 Z-6.300000 I18.483538 J13.638149
G03 X137.799608 Y23.123197 Z-6.300000 I42.547312 J-25.688264
G02 X112.710976 Y5.312930 Z-6.300000 I-31.652256 J18.011481
G02 X94.077606 Y9.244674 Z-6.300000 I-4.519440 J24.701035
G02 X79.735296 Y31.259670 Z-6.300000 I19.119617 J28.135388
G02 X78.898639 Y51.273005 Z-6.300000 I71.225604 J13.001741
G02 X84.290766 Y69.566488 Z-6.300000 I50.347133 J-4.898732
G02 X95.794107 Y83.260205 Z-6.300000 I36.028494 J-18.587041
G02 X117.466516 Y92.815030 Z-6.300000 I30.836885 J-40.588455
G02 X134.137018 Y91.869688 Z-6.300000 I6.381829 J-34.920001
G03 X139.168066 Y91.585550 Z-6.300000 I3.102066 J10.243464
G03 X149.997657 Y96.270899 Z-6.300000 I-4.707941 J25.740095
G02 X159.964890 Y100.574700 Z-6.300000 I14.251849 J-19.312530
G02 X162.352632 Y100.070689 Z-6.300000 I0.577942 J-3.169954
G02 X164.186890 Y97.245810 Z-6.300000 I-2.437613 J-3.590750
G02 X164.310186 Y85.699411 Z-6.300000 I-33.542224 J-6.132027
G03 X164.708840 Y48.147670 Z-6.300000 I109.528144 J-17.615240
G03 X169.365156 Y40.143228 Z-6.300000 I13.405097 J2.441417
G03 X174.625900 Y38.752560 Z-6.300000 I4.112053 J4.909704
G03 X178.918438 Y41.135652 Z-6.300000 I-1.361410 J7.509742
G03 X182.478360 Y45.932280 Z-6.300000 I-22.600936 J20.493130
G02 X184.430975 Y48.474049 Z-6.300000 I12.413179 J-7.515047
G02 X185.969630 Y49.307560 Z-6.300000 I2.076589 J-1.996438
G02 X188.800384 Y48.385943 Z-6.300000 I0.561936 J-3.082161
G02 X189.913250 Y46.199050 Z-6.300000 I-3.104674 J-2.956510
G02 X189.690755 Y42.352069 Z-6.300000 I-8.004545 J-1.466972
G02 X187.721060 Y37.059120 Z-6.300000 I-45.442766 J13.897904
G02 X180.064681 Y25.207648 Z-6.300000 I-42.269595 J18.908477
G02 X160.092480 Y13.977310 Z-6.300000 I-26.271314 J23.346697
G01 X160.104080 Y13.977310 Z-6.300000
G00 Z5.000000

(End cutting path id: path832)


(Start cutting path id: path828)
(Change tool to Default tool)

G00 Z5.000000
G00 X48.119402 Y99.596440

G01 Z-1.000000 F100.0(Penetrate)
G03 X50.130564 Y85.040504 Z-1.000000 I513.583174 J63.543772 F400.000000
G03 X54.232022 Y69.427700 Z-1.000000 I75.842548 J11.578587
G03 X60.226745 Y63.086418 Z-1.000000 I10.589957 J4.007009
G03 X66.608049 Y62.909120 Z-1.000000 I3.406238 J7.670717
G03 X71.970778 Y67.343923 Z-1.000000 I-3.822215 J10.081772
G03 X75.794377 Y74.160050 Z-1.000000 I-83.213714 J51.160379
G03 X77.746933 Y77.890412 Z-1.000000 I-363.893833 J192.846411
G02 X79.216056 Y79.193980 Z-1.000000 I2.425337 J-1.253724
G02 X81.771785 Y78.992454 Z-1.000000 I1.064403 J-2.807846
G02 X83.240866 Y77.268560 Z-1.000000 I-1.661608 J-2.903916
G02 X83.597398 Y74.981710 Z-1.000000 I-5.299156 J-1.997384
G02 X82.869706 Y70.228030 Z-1.000000 I-23.872207 J1.221813
G02 X75.362057 Y51.914296 Z-1.000000 I-64.511617 J15.750568
G02 X54.545192 Y34.468620 Z-1.000000 I-35.494299 J21.210603
G02 X34.079468 Y36.225679 Z-1.000000 I-8.403674 J22.184396
G02 X22.532228 Y49.929950 Z-1.000000 I13.769804 J23.319454
G02 X17.616142 Y74.542944 Z-1.000000 I71.294835 J27.037556
G03 X13.775059 Y93.762190 Z-1.000000 I-59.469905 J-1.891966
G03 X10.342008 Y95.234637 Z-1.000000 I-2.427316 J-0.921003
G02 X5.586235 Y97.276660 Z-1.000000 I-1.392937 J3.314913
G02 X4.389796 Y102.468082 Z-1.000000 I18.543372 J7.007171
G02 X6.595340 Y105.999030 Z-1.000000 I3.424846 J0.315031
G03 X20.336823 Y118.462134 Z-1.000000 I-9.017195 J23.749163
G03 X28.262085 Y141.236490 Z-1.000000 I-86.309731 J42.801111
G02 X30.802639 Y147.529122 Z-1.000000 I19.368875 J-4.160715
G02 X33.040832 Y149.378920 Z-1.000000 I3.870592 J-2.404318
G02 X36.143727 Y149.116599 Z-1.000000 I1.278755 J-3.356738
G02 X38.527111 Y146.282010 Z-1.000000 I-2.827771 J-4.796947
G02 X40.966884 Y134.549678 Z-1.000000 I-35.683734 J-13.540383
G03 X42.853501 Y125.496780 Z-1.000000 I29.340511 J1.391507
G03 X45.324416 Y123.050395 Z-1.000000 I3.918584 J1.486838
G03 X51.633868 Y123.084210 Z-1.000000 I3.109539 J8.448411
G02 X53.960190 Y123.182034 Z-1.000000 I1.310599 J-3.457251
G02 X55.786275 Y121.495160 Z-1.000000 I-0.757732 J-2.652093
G02 X56.357070 Y113.839620 Z-1.000000 I-12.653298 J-4.792475
G02 X53.918852 Y111.009760 Z-1.000000 I-3.821607 J0.827392
G03 X49.311188 Y106.777395 Z-1.000000 I2.979170 J-7.867647
G03 X48.096204 Y99.596440 Z-1.000000 I11.915238 J-5.709265
G01 X48.119402 Y99.596440 Z-1.000000
G00 Z5.000000

(End cutting path id: path828)


(Start cutting path id: path828)
(Change tool to Default tool)

G00 Z5.000000
G00 X48.119402 Y99.596440

G01 Z-2.000000 F100.0(Penetrate)
G03 X50.130564 Y85.040504 Z-2.000000 I513.583174 J63.543772 F400.000000
G03 X54.232022 Y69.427700 Z-2.000000 I75.842548 J11.578587
G03 X60.226745 Y63.086418 Z-2.000000 I10.589957 J4.007009
G03 X66.608049 Y62.909120 Z-2.000000 I3.406238 J7.670717
G03 X71.970778 Y67.343923 Z-2.000000 I-3.822215 J10.081772
G03 X75.794377 Y74.160050 Z-2.000000 I-83.213714 J51.160379
G03 X77.746933 Y77.890412 Z-2.000000 I-363.893833 J192.846411
G02 X79.216056 Y79.193980 Z-2.000000 I2.425337 J-1.253724
G02 X81.771785 Y78.992454 Z-2.000000 I1.064403 J-2.807846
G02 X83.240866 Y77.268560 Z-2.000000 I-1.661608 J-2.903916
G02 X83.597398 Y74.981710 Z-2.000000 I-5.299156 J-1.997384
G02 X82.869706 Y70.228030 Z-2.000000 I-23.872207 J1.221813
G02 X75.362057 Y51.914296 Z-2.000000 I-64.511617 J15.750568
G02 X54.545192 Y34.468620 Z-2.000000 I-35.494299 J21.210603
G02 X34.079468 Y36.225679 Z-2.000000 I-8.403674 J22.184396
G02 X22.532228 Y49.929950 Z-2.000000 I13.769804 J23.319454
G02 X17.616142 Y74.542944 Z-2.000000 I71.294835 J27.037556
G03 X13.775059 Y93.762190 Z-2.000000 I-59.469905 J-1.891966
G03 X10.342008 Y95.234637 Z-2.000000 I-2.427316 J-0.921003
G02 X5.586235 Y97.276660 Z-2.000000 I-1.392937 J3.314913
G02 X4.389796 Y102.468082 Z-2.000000 I18.543372 J7.007171
G02 X6.595340 Y105.999030 Z-2.000000 I3.424846 J0.315031
G03 X20.336823 Y118.462134 Z-2.000000 I-9.017195 J23.749163
G03 X28.262085 Y141.236490 Z-2.000000 I-86.309731 J42.801111
G02 X30.802639 Y147.529122 Z-2.000000 I19.368875 J-4.160715
G02 X33.040832 Y149.378920 Z-2.000000 I3.870592 J-2.404318
G02 X36.143727 Y149.116599 Z-2.000000 I1.278755 J-3.356738
G02 X38.527111 Y146.282010 Z-2.000000 I-2.827771 J-4.796947
G02 X40.966884 Y134.549678 Z-2.000000 I-35.683734 J-13.540383
G03 X42.853501 Y125.496780 Z-2.000000 I29.340511 J1.391507
G03 X45.324416 Y123.050395 Z-2.000000 I3.918584 J1.486838
G03 X51.633868 Y123.084210 Z-2.000000 I3.109539 J8.448411
G02 X53.960190 Y123.182034 Z-2.000000 I1.310599 J-3.457251
G02 X55.786275 Y121.495160 Z-2.000000 I-0.757732 J-2.652093
G02 X56.357070 Y113.839620 Z-2.000000 I-12.653298 J-4.792475
G02 X53.918852 Y111.009760 Z-2.000000 I-3.821607 J0.827392
G03 X49.311188 Y106.777395 Z-2.000000 I2.979170 J-7.867647
G03 X48.096204 Y99.596440 Z-2.000000 I11.915238 J-5.709265
G01 X48.119402 Y99.596440 Z-2.000000
G00 Z5.000000

(End cutting path id: path828)


(Start cutting path id: path828)
(Change tool to Default tool)

G00 Z5.000000
G00 X48.119402 Y99.596440

G01 Z-3.000000 F100.0(Penetrate)
G03 X50.130564 Y85.040504 Z-3.000000 I513.583174 J63.543772 F400.000000
G03 X54.232022 Y69.427700 Z-3.000000 I75.842548 J11.578587
G03 X60.226745 Y63.086418 Z-3.000000 I10.589957 J4.007009
G03 X66.608049 Y62.909120 Z-3.000000 I3.406238 J7.670717
G03 X71.970778 Y67.343923 Z-3.000000 I-3.822215 J10.081772
G03 X75.794377 Y74.160050 Z-3.000000 I-83.213714 J51.160379
G03 X77.746933 Y77.890412 Z-3.000000 I-363.893833 J192.846411
G02 X79.216056 Y79.193980 Z-3.000000 I2.425337 J-1.253724
G02 X81.771785 Y78.992454 Z-3.000000 I1.064403 J-2.807846
G02 X83.240866 Y77.268560 Z-3.000000 I-1.661608 J-2.903916
G02 X83.597398 Y74.981710 Z-3.000000 I-5.299156 J-1.997384
G02 X82.869706 Y70.228030 Z-3.000000 I-23.872207 J1.221813
G02 X75.362057 Y51.914296 Z-3.000000 I-64.511617 J15.750568
G02 X54.545192 Y34.468620 Z-3.000000 I-35.494299 J21.210603
G02 X34.079468 Y36.225679 Z-3.000000 I-8.403674 J22.184396
G02 X22.532228 Y49.929950 Z-3.000000 I13.769804 J23.319454
G02 X17.616142 Y74.542944 Z-3.000000 I71.294835 J27.037556
G03 X13.775059 Y93.762190 Z-3.000000 I-59.469905 J-1.891966
G03 X10.342008 Y95.234637 Z-3.000000 I-2.427316 J-0.921003
G02 X5.586235 Y97.276660 Z-3.000000 I-1.392937 J3.314913
G02 X4.389796 Y102.468082 Z-3.000000 I18.543372 J7.007171
G02 X6.595340 Y105.999030 Z-3.000000 I3.424846 J0.315031
G03 X20.336823 Y118.462134 Z-3.000000 I-9.017195 J23.749163
G03 X28.262085 Y141.236490 Z-3.000000 I-86.309731 J42.801111
G02 X30.802639 Y147.529122 Z-3.000000 I19.368875 J-4.160715
G02 X33.040832 Y149.378920 Z-3.000000 I3.870592 J-2.404318
G02 X36.143727 Y149.116599 Z-3.000000 I1.278755 J-3.356738
G02 X38.527111 Y146.282010 Z-3.000000 I-2.827771 J-4.796947
G02 X40.966884 Y134.549678 Z-3.000000 I-35.683734 J-13.540383
G03 X42.853501 Y125.496780 Z-3.000000 I29.340511 J1.391507
G03 X45.324416 Y123.050395 Z-3.000000 I3.918584 J1.486838
G03 X51.633868 Y123.084210 Z-3.000000 I3.109539 J8.448411
G02 X53.960190 Y123.182034 Z-3.000000 I1.310599 J-3.457251
G02 X55.786275 Y121.495160 Z-3.000000 I-0.757732 J-2.652093
G02 X56.357070 Y113.839620 Z-3.000000 I-12.653298 J-4.792475
G02 X53.918852 Y111.009760 Z-3.000000 I-3.821607 J0.827392
G03 X49.311188 Y106.777395 Z-3.000000 I2.979170 J-7.867647
G03 X48.096204 Y99.596440 Z-3.000000 I11.915238 J-5.709265
G01 X48.119402 Y99.596440 Z-3.000000
G00 Z5.000000

(End cutting path id: path828)


(Start cutting path id: path828)
(Change tool to Default tool)

G00 Z5.000000
G00 X48.119402 Y99.596440

G01 Z-4.000000 F100.0(Penetrate)
G03 X50.130564 Y85.040504 Z-4.000000 I513.583174 J63.543772 F400.000000
G03 X54.232022 Y69.427700 Z-4.000000 I75.842548 J11.578587
G03 X60.226745 Y63.086418 Z-4.000000 I10.589957 J4.007009
G03 X66.608049 Y62.909120 Z-4.000000 I3.406238 J7.670717
G03 X71.970778 Y67.343923 Z-4.000000 I-3.822215 J10.081772
G03 X75.794377 Y74.160050 Z-4.000000 I-83.213714 J51.160379
G03 X77.746933 Y77.890412 Z-4.000000 I-363.893833 J192.846411
G02 X79.216056 Y79.193980 Z-4.000000 I2.425337 J-1.253724
G02 X81.771785 Y78.992454 Z-4.000000 I1.064403 J-2.807846
G02 X83.240866 Y77.268560 Z-4.000000 I-1.661608 J-2.903916
G02 X83.597398 Y74.981710 Z-4.000000 I-5.299156 J-1.997384
G02 X82.869706 Y70.228030 Z-4.000000 I-23.872207 J1.221813
G02 X75.362057 Y51.914296 Z-4.000000 I-64.511617 J15.750568
G02 X54.545192 Y34.468620 Z-4.000000 I-35.494299 J21.210603
G02 X34.079468 Y36.225679 Z-4.000000 I-8.403674 J22.184396
G02 X22.532228 Y49.929950 Z-4.000000 I13.769804 J23.319454
G02 X17.616142 Y74.542944 Z-4.000000 I71.294835 J27.037556
G03 X13.775059 Y93.762190 Z-4.000000 I-59.469905 J-1.891966
G03 X10.342008 Y95.234637 Z-4.000000 I-2.427316 J-0.921003
G02 X5.586235 Y97.276660 Z-4.000000 I-1.392937 J3.314913
G02 X4.389796 Y102.468082 Z-4.000000 I18.543372 J7.007171
G02 X6.595340 Y105.999030 Z-4.000000 I3.424846 J0.315031
G03 X20.336823 Y118.462134 Z-4.000000 I-9.017195 J23.749163
G03 X28.262085 Y141.236490 Z-4.000000 I-86.309731 J42.801111
G02 X30.802639 Y147.529122 Z-4.000000 I19.368875 J-4.160715
G02 X33.040832 Y149.378920 Z-4.000000 I3.870592 J-2.404318
G02 X36.143727 Y149.116599 Z-4.000000 I1.278755 J-3.356738
G02 X38.527111 Y146.282010 Z-4.000000 I-2.827771 J-4.796947
G02 X40.966884 Y134.549678 Z-4.000000 I-35.683734 J-13.540383
G03 X42.853501 Y125.496780 Z-4.000000 I29.340511 J1.391507
G03 X45.324416 Y123.050395 Z-4.000000 I3.918584 J1.486838
G03 X51.633868 Y123.084210 Z-4.000000 I3.109539 J8.448411
G02 X53.960190 Y123.182034 Z-4.000000 I1.310599 J-3.457251
G02 X55.786275 Y121.495160 Z-4.000000 I-0.757732 J-2.652093
G02 X56.357070 Y113.839620 Z-4.000000 I-12.653298 J-4.792475
G02 X53.918852 Y111.009760 Z-4.000000 I-3.821607 J0.827392
G03 X49.311188 Y106.777395 Z-4.000000 I2.979170 J-7.867647
G03 X48.096204 Y99.596440 Z-4.000000 I11.915238 J-5.709265
G01 X48.119402 Y99.596440 Z-4.000000
G00 Z5.000000

(End cutting path id: path828)


(Start cutting path id: path828)
(Change tool to Default tool)

G00 Z5.000000
G00 X48.119402 Y99.596440

G01 Z-5.000000 F100.0(Penetrate)
G03 X50.130564 Y85.040504 Z-5.000000 I513.583174 J63.543772 F400.000000
G03 X54.232022 Y69.427700 Z-5.000000 I75.842548 J11.578587
G03 X60.226745 Y63.086418 Z-5.000000 I10.589957 J4.007009
G03 X66.608049 Y62.909120 Z-5.000000 I3.406238 J7.670717
G03 X71.970778 Y67.343923 Z-5.000000 I-3.822215 J10.081772
G03 X75.794377 Y74.160050 Z-5.000000 I-83.213714 J51.160379
G03 X77.746933 Y77.890412 Z-5.000000 I-363.893833 J192.846411
G02 X79.216056 Y79.193980 Z-5.000000 I2.425337 J-1.253724
G02 X81.771785 Y78.992454 Z-5.000000 I1.064403 J-2.807846
G02 X83.240866 Y77.268560 Z-5.000000 I-1.661608 J-2.903916
G02 X83.597398 Y74.981710 Z-5.000000 I-5.299156 J-1.997384
G02 X82.869706 Y70.228030 Z-5.000000 I-23.872207 J1.221813
G02 X75.362057 Y51.914296 Z-5.000000 I-64.511617 J15.750568
G02 X54.545192 Y34.468620 Z-5.000000 I-35.494299 J21.210603
G02 X34.079468 Y36.225679 Z-5.000000 I-8.403674 J22.184396
G02 X22.532228 Y49.929950 Z-5.000000 I13.769804 J23.319454
G02 X17.616142 Y74.542944 Z-5.000000 I71.294835 J27.037556
G03 X13.775059 Y93.762190 Z-5.000000 I-59.469905 J-1.891966
G03 X10.342008 Y95.234637 Z-5.000000 I-2.427316 J-0.921003
G02 X5.586235 Y97.276660 Z-5.000000 I-1.392937 J3.314913
G02 X4.389796 Y102.468082 Z-5.000000 I18.543372 J7.007171
G02 X6.595340 Y105.999030 Z-5.000000 I3.424846 J0.315031
G03 X20.336823 Y118.462134 Z-5.000000 I-9.017195 J23.749163
G03 X28.262085 Y141.236490 Z-5.000000 I-86.309731 J42.801111
G02 X30.802639 Y147.529122 Z-5.000000 I19.368875 J-4.160715
G02 X33.040832 Y149.378920 Z-5.000000 I3.870592 J-2.404318
G02 X36.143727 Y149.116599 Z-5.000000 I1.278755 J-3.356738
G02 X38.527111 Y146.282010 Z-5.000000 I-2.827771 J-4.796947
G02 X40.966884 Y134.549678 Z-5.000000 I-35.683734 J-13.540383
G03 X42.853501 Y125.496780 Z-5.000000 I29.340511 J1.391507
G03 X45.324416 Y123.050395 Z-5.000000 I3.918584 J1.486838
G03 X51.633868 Y123.084210 Z-5.000000 I3.109539 J8.448411
G02 X53.960190 Y123.182034 Z-5.000000 I1.310599 J-3.457251
G02 X55.786275 Y121.495160 Z-5.000000 I-0.757732 J-2.652093
G02 X56.357070 Y113.839620 Z-5.000000 I-12.653298 J-4.792475
G02 X53.918852 Y111.009760 Z-5.000000 I-3.821607 J0.827392
G03 X49.311188 Y106.777395 Z-5.000000 I2.979170 J-7.867647
G03 X48.096204 Y99.596440 Z-5.000000 I11.915238 J-5.709265
G01 X48.119402 Y99.596440 Z-5.000000
G00 Z5.000000

(End cutting path id: path828)


(Start cutting path id: path828)
(Change tool to Default tool)

G00 Z5.000000
G00 X48.119402 Y99.596440

G01 Z-6.000000 F100.0(Penetrate)
G03 X50.130564 Y85.040504 Z-6.000000 I513.583174 J63.543772 F400.000000
G03 X54.232022 Y69.427700 Z-6.000000 I75.842548 J11.578587
G03 X60.226745 Y63.086418 Z-6.000000 I10.589957 J4.007009
G03 X66.608049 Y62.909120 Z-6.000000 I3.406238 J7.670717
G03 X71.970778 Y67.343923 Z-6.000000 I-3.822215 J10.081772
G03 X75.794377 Y74.160050 Z-6.000000 I-83.213714 J51.160379
G03 X77.746933 Y77.890412 Z-6.000000 I-363.893833 J192.846411
G02 X79.216056 Y79.193980 Z-6.000000 I2.425337 J-1.253724
G02 X81.771785 Y78.992454 Z-6.000000 I1.064403 J-2.807846
G02 X83.240866 Y77.268560 Z-6.000000 I-1.661608 J-2.903916
G02 X83.597398 Y74.981710 Z-6.000000 I-5.299156 J-1.997384
G02 X82.869706 Y70.228030 Z-6.000000 I-23.872207 J1.221813
G02 X75.362057 Y51.914296 Z-6.000000 I-64.511617 J15.750568
G02 X54.545192 Y34.468620 Z-6.000000 I-35.494299 J21.210603
G02 X34.079468 Y36.225679 Z-6.000000 I-8.403674 J22.184396
G02 X22.532228 Y49.929950 Z-6.000000 I13.769804 J23.319454
G02 X17.616142 Y74.542944 Z-6.000000 I71.294835 J27.037556
G03 X13.775059 Y93.762190 Z-6.000000 I-59.469905 J-1.891966
G03 X10.342008 Y95.234637 Z-6.000000 I-2.427316 J-0.921003
G02 X5.586235 Y97.276660 Z-6.000000 I-1.392937 J3.314913
G02 X4.389796 Y102.468082 Z-6.000000 I18.543372 J7.007171
G02 X6.595340 Y105.999030 Z-6.000000 I3.424846 J0.315031
G03 X20.336823 Y118.462134 Z-6.000000 I-9.017195 J23.749163
G03 X28.262085 Y141.236490 Z-6.000000 I-86.309731 J42.801111
G02 X30.802639 Y147.529122 Z-6.000000 I19.368875 J-4.160715
G02 X33.040832 Y149.378920 Z-6.000000 I3.870592 J-2.404318
G02 X36.143727 Y149.116599 Z-6.000000 I1.278755 J-3.356738
G02 X38.527111 Y146.282010 Z-6.000000 I-2.827771 J-4.796947
G02 X40.966884 Y134.549678 Z-6.000000 I-35.683734 J-13.540383
G03 X42.853501 Y125.496780 Z-6.000000 I29.340511 J1.391507
G03 X45.324416 Y123.050395 Z-6.000000 I3.918584 J1.486838
G03 X51.633868 Y123.084210 Z-6.000000 I3.109539 J8.448411
G02 X53.960190 Y123.182034 Z-6.000000 I1.310599 J-3.457251
G02 X55.786275 Y121.495160 Z-6.000000 I-0.757732 J-2.652093
G02 X56.357070 Y113.839620 Z-6.000000 I-12.653298 J-4.792475
G02 X53.918852 Y111.009760 Z-6.000000 I-3.821607 J0.827392
G03 X49.311188 Y106.777395 Z-6.000000 I2.979170 J-7.867647
G03 X48.096204 Y99.596440 Z-6.000000 I11.915238 J-5.709265
G01 X48.119402 Y99.596440 Z-6.000000
G00 Z5.000000

(End cutting path id: path828)


(Start cutting path id: path828)
(Change tool to Default tool)

G00 Z5.000000
G00 X48.119402 Y99.596440

G01 Z-6.300000 F100.0(Penetrate)
G03 X50.130564 Y85.040504 Z-6.300000 I513.583174 J63.543772 F400.000000
G03 X54.232022 Y69.427700 Z-6.300000 I75.842548 J11.578587
G03 X60.226745 Y63.086418 Z-6.300000 I10.589957 J4.007009
G03 X66.608049 Y62.909120 Z-6.300000 I3.406238 J7.670717
G03 X71.970778 Y67.343923 Z-6.300000 I-3.822215 J10.081772
G03 X75.794377 Y74.160050 Z-6.300000 I-83.213714 J51.160379
G03 X77.746933 Y77.890412 Z-6.300000 I-363.893833 J192.846411
G02 X79.216056 Y79.193980 Z-6.300000 I2.425337 J-1.253724
G02 X81.771785 Y78.992454 Z-6.300000 I1.064403 J-2.807846
G02 X83.240866 Y77.268560 Z-6.300000 I-1.661608 J-2.903916
G02 X83.597398 Y74.981710 Z-6.300000 I-5.299156 J-1.997384
G02 X82.869706 Y70.228030 Z-6.300000 I-23.872207 J1.221813
G02 X75.362057 Y51.914296 Z-6.300000 I-64.511617 J15.750568
G02 X54.545192 Y34.468620 Z-6.300000 I-35.494299 J21.210603
G02 X34.079468 Y36.225679 Z-6.300000 I-8.403674 J22.184396
G02 X22.532228 Y49.929950 Z-6.300000 I13.769804 J23.319454
G02 X17.616142 Y74.542944 Z-6.300000 I71.294835 J27.037556
G03 X13.775059 Y93.762190 Z-6.300000 I-59.469905 J-1.891966
G03 X10.342008 Y95.234637 Z-6.300000 I-2.427316 J-0.921003
G02 X5.586235 Y97.276660 Z-6.300000 I-1.392937 J3.314913
G02 X4.389796 Y102.468082 Z-6.300000 I18.543372 J7.007171
G02 X6.595340 Y105.999030 Z-6.300000 I3.424846 J0.315031
G03 X20.336823 Y118.462134 Z-6.300000 I-9.017195 J23.749163
G03 X28.262085 Y141.236490 Z-6.300000 I-86.309731 J42.801111
G02 X30.802639 Y147.529122 Z-6.300000 I19.368875 J-4.160715
G02 X33.040832 Y149.378920 Z-6.300000 I3.870592 J-2.404318
G02 X36.143727 Y149.116599 Z-6.300000 I1.278755 J-3.356738
G02 X38.527111 Y146.282010 Z-6.300000 I-2.827771 J-4.796947
G02 X40.966884 Y134.549678 Z-6.300000 I-35.683734 J-13.540383
G03 X42.853501 Y125.496780 Z-6.300000 I29.340511 J1.391507
G03 X45.324416 Y123.050395 Z-6.300000 I3.918584 J1.486838
G03 X51.633868 Y123.084210 Z-6.300000 I3.109539 J8.448411
G02 X53.960190 Y123.182034 Z-6.300000 I1.310599 J-3.457251
G02 X55.786275 Y121.495160 Z-6.300000 I-0.757732 J-2.652093
G02 X56.357070 Y113.839620 Z-6.300000 I-12.653298 J-4.792475
G02 X53.918852 Y111.009760 Z-6.300000 I-3.821607 J0.827392
G03 X49.311188 Y106.777395 Z-6.300000 I2.979170 J-7.867647
G03 X48.096204 Y99.596440 Z-6.300000 I11.915238 J-5.709265
G01 X48.119402 Y99.596440 Z-6.300000
G00 Z5.000000

(End cutting path id: path828)


(Start cutting path id: path834)
(Change tool to Default tool)

G00 Z5.000000
G00 X334.690350 Y240.829030

G01 Z-1.000000 F100.0(Penetrate)
G02 X347.575701 Y236.196799 Z-1.000000 I1.042699 J-17.337084 F400.000000
G02 X354.106360 Y222.329030 Z-1.000000 I-14.075212 J-15.099954
G02 X352.357697 Y208.110752 Z-1.000000 I-39.481582 J-2.360950
G02 X345.237003 Y195.711631 Z-1.000000 I-31.702900 J9.962434
G02 X333.878505 Y187.481698 Z-1.000000 I-25.406268 J23.111174
G02 X313.454020 Y182.473558 Z-1.000000 I-23.901991 J53.326247
G02 X302.707159 Y182.314770 Z-1.000000 I-7.120381 J118.155426
G02 X291.762610 Y183.332938 Z-1.000000 I2.712217 J88.486314
G01 X291.750910 Y183.332938 Z-1.000000
G02 X301.181732 Y210.950982 Z-1.000000 I182.955262 J-47.055112
G02 X309.984548 Y226.025762 Z-1.000000 I65.799729 J-28.315743
G02 X322.413634 Y237.077810 Z-1.000000 I34.446125 J-26.223094
G02 X334.690370 Y240.829030 Z-1.000000 I13.904279 J-23.540131
G01 X334.690350 Y240.829030 Z-1.000000
G00 Z5.000000

(End cutting path id: path834)


(Start cutting path id: path834)
(Change tool to Default tool)

G00 Z5.000000
G00 X334.690350 Y240.829030

G01 Z-2.000000 F100.0(Penetrate)
G02 X347.575701 Y236.196799 Z-2.000000 I1.042699 J-17.337084 F400.000000
G02 X354.106360 Y222.329030 Z-2.000000 I-14.075212 J-15.099954
G02 X352.357697 Y208.110752 Z-2.000000 I-39.481582 J-2.360950
G02 X345.237003 Y195.711631 Z-2.000000 I-31.702900 J9.962434
G02 X333.878505 Y187.481698 Z-2.000000 I-25.406268 J23.111174
G02 X313.454020 Y182.473558 Z-2.000000 I-23.901991 J53.326247
G02 X302.707159 Y182.314770 Z-2.000000 I-7.120381 J118.155426
G02 X291.762610 Y183.332938 Z-2.000000 I2.712217 J88.486314
G01 X291.750910 Y183.332938 Z-2.000000
G02 X301.181732 Y210.950982 Z-2.000000 I182.955262 J-47.055112
G02 X309.984548 Y226.025762 Z-2.000000 I65.799729 J-28.315743
G02 X322.413634 Y237.077810 Z-2.000000 I34.446125 J-26.223094
G02 X334.690370 Y240.829030 Z-2.000000 I13.904279 J-23.540131
G01 X334.690350 Y240.829030 Z-2.000000
G00 Z5.000000

(End cutting path id: path834)


(Start cutting path id: path834)
(Change tool to Default tool)

G00 Z5.000000
G00 X334.690350 Y240.829030

G01 Z-3.000000 F100.0(Penetrate)
G02 X347.575701 Y236.196799 Z-3.000000 I1.042699 J-17.337084 F400.000000
G02 X354.106360 Y222.329030 Z-3.000000 I-14.075212 J-15.099954
G02 X352.357697 Y208.110752 Z-3.000000 I-39.481582 J-2.360950
G02 X345.237003 Y195.711631 Z-3.000000 I-31.702900 J9.962434
G02 X333.878505 Y187.481698 Z-3.000000 I-25.406268 J23.111174
G02 X313.454020 Y182.473558 Z-3.000000 I-23.901991 J53.326247
G02 X302.707159 Y182.314770 Z-3.000000 I-7.120381 J118.155426
G02 X291.762610 Y183.332938 Z-3.000000 I2.712217 J88.486314
G01 X291.750910 Y183.332938 Z-3.000000
G02 X301.181732 Y210.950982 Z-3.000000 I182.955262 J-47.055112
G02 X309.984548 Y226.025762 Z-3.000000 I65.799729 J-28.315743
G02 X322.413634 Y237.077810 Z-3.000000 I34.446125 J-26.223094
G02 X334.690370 Y240.829030 Z-3.000000 I13.904279 J-23.540131
G01 X334.690350 Y240.829030 Z-3.000000
G00 Z5.000000

(End cutting path id: path834)


(Start cutting path id: path834)
(Change tool to Default tool)

G00 Z5.000000
G00 X334.690350 Y240.829030

G01 Z-4.000000 F100.0(Penetrate)
G02 X347.575701 Y236.196799 Z-4.000000 I1.042699 J-17.337084 F400.000000
G02 X354.106360 Y222.329030 Z-4.000000 I-14.075212 J-15.099954
G02 X352.357697 Y208.110752 Z-4.000000 I-39.481582 J-2.360950
G02 X345.237003 Y195.711631 Z-4.000000 I-31.702900 J9.962434
G02 X333.878505 Y187.481698 Z-4.000000 I-25.406268 J23.111174
G02 X313.454020 Y182.473558 Z-4.000000 I-23.901991 J53.326247
G02 X302.707159 Y182.314770 Z-4.000000 I-7.120381 J118.155426
G02 X291.762610 Y183.332938 Z-4.000000 I2.712217 J88.486314
G01 X291.750910 Y183.332938 Z-4.000000
G02 X301.181732 Y210.950982 Z-4.000000 I182.955262 J-47.055112
G02 X309.984548 Y226.025762 Z-4.000000 I65.799729 J-28.315743
G02 X322.413634 Y237.077810 Z-4.000000 I34.446125 J-26.223094
G02 X334.690370 Y240.829030 Z-4.000000 I13.904279 J-23.540131
G01 X334.690350 Y240.829030 Z-4.000000
G00 Z5.000000

(End cutting path id: path834)


(Start cutting path id: path834)
(Change tool to Default tool)

G00 Z5.000000
G00 X334.690350 Y240.829030

G01 Z-5.000000 F100.0(Penetrate)
G02 X347.575701 Y236.196799 Z-5.000000 I1.042699 J-17.337084 F400.000000
G02 X354.106360 Y222.329030 Z-5.000000 I-14.075212 J-15.099954
G02 X352.357697 Y208.110752 Z-5.000000 I-39.481582 J-2.360950
G02 X345.237003 Y195.711631 Z-5.000000 I-31.702900 J9.962434
G02 X333.878505 Y187.481698 Z-5.000000 I-25.406268 J23.111174
G02 X313.454020 Y182.473558 Z-5.000000 I-23.901991 J53.326247
G02 X302.707159 Y182.314770 Z-5.000000 I-7.120381 J118.155426
G02 X291.762610 Y183.332938 Z-5.000000 I2.712217 J88.486314
G01 X291.750910 Y183.332938 Z-5.000000
G02 X301.181732 Y210.950982 Z-5.000000 I182.955262 J-47.055112
G02 X309.984548 Y226.025762 Z-5.000000 I65.799729 J-28.315743
G02 X322.413634 Y237.077810 Z-5.000000 I34.446125 J-26.223094
G02 X334.690370 Y240.829030 Z-5.000000 I13.904279 J-23.540131
G01 X334.690350 Y240.829030 Z-5.000000
G00 Z5.000000

(End cutting path id: path834)


(Start cutting path id: path834)
(Change tool to Default tool)

G00 Z5.000000
G00 X334.690350 Y240.829030

G01 Z-6.000000 F100.0(Penetrate)
G02 X347.575701 Y236.196799 Z-6.000000 I1.042699 J-17.337084 F400.000000
G02 X354.106360 Y222.329030 Z-6.000000 I-14.075212 J-15.099954
G02 X352.357697 Y208.110752 Z-6.000000 I-39.481582 J-2.360950
G02 X345.237003 Y195.711631 Z-6.000000 I-31.702900 J9.962434
G02 X333.878505 Y187.481698 Z-6.000000 I-25.406268 J23.111174
G02 X313.454020 Y182.473558 Z-6.000000 I-23.901991 J53.326247
G02 X302.707159 Y182.314770 Z-6.000000 I-7.120381 J118.155426
G02 X291.762610 Y183.332938 Z-6.000000 I2.712217 J88.486314
G01 X291.750910 Y183.332938 Z-6.000000
G02 X301.181732 Y210.950982 Z-6.000000 I182.955262 J-47.055112
G02 X309.984548 Y226.025762 Z-6.000000 I65.799729 J-28.315743
G02 X322.413634 Y237.077810 Z-6.000000 I34.446125 J-26.223094
G02 X334.690370 Y240.829030 Z-6.000000 I13.904279 J-23.540131
G01 X334.690350 Y240.829030 Z-6.000000
G00 Z5.000000

(End cutting path id: path834)


(Start cutting path id: path834)
(Change tool to Default tool)

G00 Z5.000000
G00 X334.690350 Y240.829030

G01 Z-6.300000 F100.0(Penetrate)
G02 X347.575701 Y236.196799 Z-6.300000 I1.042699 J-17.337084 F400.000000
G02 X354.106360 Y222.329030 Z-6.300000 I-14.075212 J-15.099954
G02 X352.357697 Y208.110752 Z-6.300000 I-39.481582 J-2.360950
G02 X345.237003 Y195.711631 Z-6.300000 I-31.702900 J9.962434
G02 X333.878505 Y187.481698 Z-6.300000 I-25.406268 J23.111174
G02 X313.454020 Y182.473558 Z-6.300000 I-23.901991 J53.326247
G02 X302.707159 Y182.314770 Z-6.300000 I-7.120381 J118.155426
G02 X291.762610 Y183.332938 Z-6.300000 I2.712217 J88.486314
G01 X291.750910 Y183.332938 Z-6.300000
G02 X301.181732 Y210.950982 Z-6.300000 I182.955262 J-47.055112
G02 X309.984548 Y226.025762 Z-6.300000 I65.799729 J-28.315743
G02 X322.413634 Y237.077810 Z-6.300000 I34.446125 J-26.223094
G02 X334.690370 Y240.829030 Z-6.300000 I13.904279 J-23.540131
G01 X334.690350 Y240.829030 Z-6.300000
G00 Z5.000000

(End cutting path id: path834)


(Start cutting path id: path834)
(Change tool to Default tool)

G00 Z5.000000
G00 X344.938390 Y291.297780

G01 Z-1.000000 F100.0(Penetrate)
G03 X342.184249 Y291.312195 Z-1.000000 I-1.704603 J-62.572190 F400.000000
G03 X339.295820 Y291.202080 Z-1.000000 I1.135828 J-67.732323
G03 X314.608040 Y283.968071 Z-1.000000 I3.435230 J-57.467015
G03 X291.639040 Y264.590126 Z-1.000000 I38.779857 J-69.268149
G03 X275.414885 Y237.879644 Z-1.000000 I91.164178 J-73.656414
G03 X260.702070 Y193.342705 Z-1.000000 I231.240081 J-101.089017
G02 X218.943061 Y215.083448 Z-1.000000 I114.468145 J270.842341
G03 X170.810714 Y243.599742 Z-1.000000 I-587.534493 J-936.813979
G03 X121.704542 Y266.478650 Z-1.000000 I-179.801467 J-321.778104
G03 X76.430577 Y273.387624 Z-1.000000 I-38.764020 J-102.224731
G03 X26.878918 Y249.530442 Z-1.000000 I4.315905 J-72.352482
G03 X9.897375 Y201.008718 Z-1.000000 I49.487365 J-44.551942
G03 X16.708443 Y175.395477 Z-1.000000 I66.550765 J3.984948
G03 X27.430574 Y160.281086 Z-1.000000 I53.099014 J26.308045
G03 X43.328201 Y148.897505 Z-1.000000 I40.071851 J39.169320
G03 X51.862217 Y147.225520 Z-1.000000 I7.506086 J15.696653
G01 X54.241127 Y151.133720 Z-1.000000
G03 X53.035036 Y155.064565 Z-1.000000 I-8.679109 J-0.512536
G02 X48.639567 Y169.379810 Z-1.000000 I27.239282 J16.196202
G02 X50.194227 Y183.402540 Z-1.000000 I41.624290 J2.482780
G02 X56.809520 Y195.891409 Z-1.000000 I33.084632 J-9.528288
G02 X67.533436 Y204.338717 Z-1.000000 I25.201018 J-20.962170
G02 X86.440347 Y209.336843 Z-1.000000 I21.845747 J-44.378498
G02 X134.135589 Y206.809220 Z-1.000000 I12.661280 J-212.345634
G02 X172.863391 Y197.421114 Z-1.000000 I-45.377412 J-271.764818
G02 X211.018690 Y183.708279 Z-1.000000 I-177.769260 J-554.573390
G03 X255.354410 Y167.698170 Z-1.000000 I262.480512 J657.476650
G03 X248.431715 Y135.763573 Z-1.000000 I459.648028 J-116.358884
G03 X243.256750 Y103.416920 Z-1.000000 I791.309351 J-143.184568
G03 X239.420877 Y105.288543 Z-1.000000 I-8.856467 J-13.284642
G03 X226.403240 Y106.989190 Z-1.000000 I-10.930861 J-32.998286
G03 X195.375512 Y90.258424 Z-1.000000 I2.480882 J-41.737202
G03 X183.416910 Y50.293880 Z-1.000000 I48.701513 J-36.344428
G03 X186.476432 Y36.212076 Z-1.000000 I46.758549 J2.785854
G03 X191.954136 Y27.712051 Z-1.000000 I23.274547 J8.983886
G03 X200.349540 Y22.389414 Z-1.000000 I15.603619 J15.329252
G03 X212.043860 Y20.762630 Z-1.000000 I9.909966 J28.392538
G03 X228.275279 Y25.535269 Z-1.000000 I-2.252165 J37.646748
G03 X240.623940 Y35.934500 Z-1.000000 I-21.200175 J37.705720
G03 X247.083123 Y27.371472 Z-1.000000 I17.307914 J6.337913
G03 X259.901280 Y23.616140 Z-1.000000 I11.645201 J15.994909
G03 X277.734356 Y29.984593 Z-1.000000 I-2.023338 J33.818295
G03 X287.555580 Y39.524340 Z-1.000000 I-27.840935 J38.487780
G02 X286.009504 Y44.296408 Z-1.000000 I17.642583 J8.352410
G02 X285.731360 Y49.829030 Z-1.000000 I20.345111 J3.796121
G02 X285.940314 Y51.459219 Z-1.000000 I18.719057 J-1.570887
G02 X286.262610 Y52.938410 Z-1.000000 I17.235035 J-2.980570
G01 X285.998940 Y52.647390 Z-1.000000
G02 X281.889221 Y48.330865 Z-1.000000 I-24.141036 J18.869757
G02 X277.334880 Y46.477470 Z-1.000000 I-5.018007 J5.808351
G02 X272.816144 Y48.621367 Z-1.000000 I-0.309751 J5.181196
G02 X269.805580 Y57.067310 Z-1.000000 I13.033679 J9.405398
G02 X270.470391 Y77.249583 Z-1.000000 I109.454465 J6.496617
G02 X275.783854 Y112.399901 Z-1.000000 I708.730161 J-89.157721
G02 X282.764444 Y147.754551 Z-1.000000 I886.223375 J-156.613696
G02 X286.346600 Y162.547780 Z-1.000000 I328.803037 J-71.788789
G03 X299.631275 Y160.577706 Z-1.000000 I31.146758 J164.254060
G03 X311.678630 Y160.286060 Z-1.000000 I7.779872 J72.399309
G03 X343.117707 Y166.977059 Z-1.000000 I-6.377683 J107.173979
G03 X368.909030 Y182.815441 Z-1.000000 I-28.111890 J74.696150
G03 X385.426582 Y206.324487 Z-1.000000 I-45.097989 J49.243205
G03 X391.629800 Y242.881765 Z-1.000000 I-75.834891 J31.672970
G03 X387.074918 Y263.351525 Z-1.000000 I-65.898519 J-3.921929
G03 X377.974140 Y277.565418 Z-1.000000 I-41.295914 J-16.420238
G03 X364.285565 Y287.067170 Z-1.000000 I-29.871869 J-28.423509
G03 X344.938390 Y291.297780 Z-1.000000 I-20.789722 J-48.720342
G01 X344.938390 Y291.297780 Z-1.000000
G00 Z5.000000

(End cutting path id: path834)


(Start cutting path id: path834)
(Change tool to Default tool)

G00 Z5.000000
G00 X344.938390 Y291.297780

G01 Z-2.000000 F100.0(Penetrate)
G03 X342.184249 Y291.312195 Z-2.000000 I-1.704603 J-62.572190 F400.000000
G03 X339.295820 Y291.202080 Z-2.000000 I1.135828 J-67.732323
G03 X314.608040 Y283.968071 Z-2.000000 I3.435230 J-57.467015
G03 X291.639040 Y264.590126 Z-2.000000 I38.779857 J-69.268149
G03 X275.414885 Y237.879644 Z-2.000000 I91.164178 J-73.656414
G03 X260.702070 Y193.342705 Z-2.000000 I231.240081 J-101.089017
G02 X218.943061 Y215.083448 Z-2.000000 I114.468145 J270.842341
G03 X170.810714 Y243.599742 Z-2.000000 I-587.534493 J-936.813979
G03 X121.704542 Y266.478650 Z-2.000000 I-179.801467 J-321.778104
G03 X76.430577 Y273.387624 Z-2.000000 I-38.764020 J-102.224731
G03 X26.878918 Y249.530442 Z-2.000000 I4.315905 J-72.352482
G03 X9.897375 Y201.008718 Z-2.000000 I49.487365 J-44.551942
G03 X16.708443 Y175.395477 Z-2.000000 I66.550765 J3.984948
