%
(Header)
(Generated by gcodetools from Inkscape.)
(Using default header. To add your own header create file "header" in the output dir.)
M3
S1000
(Header end.)
G21 (All units in mm)


(Start cutting path id: path836-3)
(Change tool to Cylindrical cutter)

G00 Z5.000000
G00 X95.449290 Y139.771590

G01 Z-12.000000 F100.0(Penetrate)
G03 X70.866695 Y127.599253 Z-12.000000 I2.197195 J-35.346345 F200.000000
G03 X58.808510 Y95.079960 Z-12.000000 I37.397862 J-32.362404
G03 X52.717685 Y96.285700 Z-12.000000 I-13.320425 J-51.301591
G03 X47.179250 Y96.660300 Z-12.000000 I-5.467879 J-39.712259
G03 X20.253542 Y87.450414 Z-12.000000 I0.134781 J-44.358525
G03 X11.664990 Y69.928150 Z-12.000000 I13.435672 J-17.451481
G03 X15.956078 Y57.015025 Z-12.000000 I21.786140 J0.070093
G03 X23.362781 Y49.024743 Z-12.000000 I40.182721 J29.819918
G02 X31.412084 Y41.368161 Z-12.000000 I-78.780515 J-90.880690
G02 X35.047410 Y32.364130 Z-12.000000 I-9.438630 J-9.046680
G02 X33.645732 Y28.017893 Z-12.000000 I-7.338182 J-0.032549
G02 X30.560270 Y26.440740 Z-12.000000 I-3.095602 J2.249381
G02 X26.432278 Y28.801719 Z-12.000000 I-0.014275 J4.764270
G02 X24.592480 Y35.558840 Z-12.000000 I11.633782 J6.796619
G03 X21.065885 Y43.587976 Z-12.000000 I-10.966668 J-0.027780
G03 X14.829870 Y46.011410 Z-12.000000 I-6.196726 J-6.710485
G03 X6.996948 Y42.576770 Z-12.000000 I0.023192 J-10.701957
G03 X2.771020 Y31.728340 Z-12.000000 I11.666091 J-10.791747
G03 X11.395895 Y15.539819 Z-12.000000 I19.625310 J0.064088
G03 X34.649730 Y8.449410 Z-12.000000 I23.126081 J34.167663
G03 X60.701275 Y17.804994 Z-12.000000 I-0.138086 J41.333854
G03 X70.160220 Y37.869200 Z-12.000000 I-16.357835 J19.973373
G03 X65.476158 Y49.957922 Z-12.000000 I-18.092767 J-0.058635
G03 X56.921351 Y57.652811 Z-12.000000 I-41.797720 J-37.865834
G02 X48.036073 Y65.160784 Z-12.000000 I48.166258 J66.013758
G02 X43.692960 Y75.420160 Z-12.000000 I10.045479 J10.301539
G02 X46.303362 Y82.468562 Z-12.000000 I10.728567 J0.034223
G02 X50.308410 Y84.311820 Z-12.000000 I4.028680 J-3.480822
G02 X53.800717 Y83.134450 Z-12.000000 I0.017461 J-5.716322
G02 X55.073420 Y80.560500 Z-12.000000 I-1.972985 J-2.577175
G02 X54.374074 Y77.531493 Z-12.000000 I-6.742790 J-0.038442
G03 X53.205080 Y72.491960 Z-12.000000 I10.100998 J-4.998424
G03 X56.087381 Y66.844821 Z-12.000000 I7.014462 J0.021050
G03 X61.779530 Y64.997870 Z-12.000000 I5.668862 J7.776119
G03 X69.450070 Y68.720550 Z-12.000000 I-0.033435 J9.832763
G03 X72.649790 Y77.941790 Z-12.000000 I-11.579487 J9.183782
G03 X71.984206 Y86.024644 Z-12.000000 I-51.166734 J-0.144501
G02 X71.168030 Y95.953450 Z-12.000000 I61.923696 J10.088250
G02 X78.361202 Y116.680119 Z-12.000000 I33.158336 J0.103955
G02 X88.406920 Y121.551380 Z-12.000000 I10.089920 J-8.013873
G02 X92.557148 Y119.526495 Z-12.000000 I0.003916 J-5.257595
G02 X94.361800 Y114.306480 Z-12.000000 I-6.733535 J-5.249860
G02 X90.293026 Y100.526591 Z-12.000000 I-25.086363 J-0.083411
G02 X83.275670 Y93.297420 Z-12.000000 I-22.005461 J14.340242
G03 X80.450017 Y90.900206 Z-12.000000 I10.281828 J-14.983376
G03 X79.253800 Y87.904880 Z-12.000000 I3.096147 J-2.973005
G03 X82.561581 Y83.350055 Z-12.000000 I4.811926 J0.015999
G02 X85.686990 Y79.047110 Z-12.000000 I-1.421216 J-4.318818
G02 X82.623072 Y59.698168 Z-12.000000 I-61.608576 J-0.161300
G03 X78.705900 Y34.938780 Z-12.000000 I74.849578 J-24.531477
G03 X84.690531 Y18.044318 Z-12.000000 I27.029822 J0.067726
G03 X103.231190 Y9.208860 Z-12.000000 I18.469539 J14.886242
G03 X126.093661 Y16.552493 Z-12.000000 I-0.127237 J39.656079
G03 X140.245860 Y29.951330 Z-12.000000 I-40.577457 J57.032342
G03 X150.716999 Y11.949706 Z-12.000000 I31.092454 J6.039555
G03 X171.858320 Y2.522100 Z-12.000000 I26.395228 J30.772644
G03 X193.831689 Y4.663943 Z-12.000000 I6.348088 J48.658730
G03 X208.733666 Y13.841704 Z-12.000000 I-12.330463 J36.708125
G03 X219.121854 Y29.058720 Z-12.000000 I-33.979130 J34.350862
G03 X225.052630 Y50.616690 Z-12.000000 I-74.253377 J32.022505
G03 X219.566521 Y73.970752 Z-12.000000 I-33.744094 J4.394569
G03 X198.227530 Y87.193300 Z-12.000000 I-25.273411 J-16.957014
G03 X156.668796 Y74.185306 Z-12.000000 I-6.703720 J-51.473731
G03 X139.930600 Y42.204870 Z-12.000000 I35.109216 J-38.746273
G03 X139.884575 Y41.785611 Z-12.000000 I10.281720 J-1.340855
G02 X139.842900 Y41.369830 Z-12.000000 I-19.092791 J1.703745
G03 X138.667571 Y40.352257 Z-12.000000 I12.132712 J-15.201228
G02 X137.065880 Y38.891800 Z-12.000000 I-52.040119 J55.464144
G02 X131.082377 Y33.845859 Z-12.000000 I-65.554235 J71.663948
G02 X124.512250 Y31.586280 Z-12.000000 I-6.593775 J8.490877
G02 X118.608753 Y34.000960 Z-12.000000 I-0.013274 J8.391428
G02 X115.226530 Y42.033530 Z-12.000000 I7.965202 J8.082208
G01 X115.238130 Y42.034520 Z-12.000000
G02 X116.887224 Y58.099594 Z-12.000000 I76.488057 J0.265612
G02 X120.125030 Y72.431580 Z-12.000000 I508.834741 J-107.421519
G02 X124.276112 Y79.873160 Z-12.000000 I15.998186 J-4.045578
G02 X130.764170 Y83.759360 Z-12.000000 I10.514506 J-10.195048
G03 X134.547532 Y86.318033 Z-12.000000 I-2.286219 J7.456955
G03 X135.729130 Y89.689260 Z-12.000000 I-4.145838 J3.345780
G03 X134.522404 Y92.234427 Z-12.000000 I-3.327444 J-0.018970
G03 X132.629830 Y92.911880 Z-12.000000 I-1.882106 J-2.275634
G02 X125.958658 Y95.417991 Z-12.000000 I-0.040038 J10.025678
G02 X124.547120 Y98.527620 Z-12.000000 I2.757400 J3.126834
G02 X124.906182 Y104.979382 Z-12.000000 I57.187531 J0.053199
G03 X125.223900 Y110.893420 Z-12.000000 I-50.373237 J5.671741
G03 X122.959139 Y123.864919 Z-12.000000 I-39.037087 J-0.132228
G03 X117.762357 Y132.238388 Z-12.000000 I-21.944230 J-7.819772
G03 X109.569099 Y137.625586 Z-12.000000 I-16.109355 J-15.576263
G03 X97.357360 Y139.832630 Z-12.000000 I-12.093366 J-32.025736
G03 X96.400130 Y139.816069 Z-12.000000 I0.105945 J-33.796985
G03 X95.449170 Y139.771530 Z-12.000000 I0.976205 J-31.017114
G01 X95.449290 Y139.771590 Z-12.000000
G00 Z5.000000

(End cutting path id: path836-3)



G00 Z5.000000
G00 X140.939490 Y135.265660

G01 Z-12.000000 F100.0(Penetrate)
G03 X164.367647 Y149.534187 Z-12.000000 I-5.269463 J35.020328 F200.000000
G03 X173.545710 Y182.980680 Z-12.000000 I-40.076147 J28.979833
G03 X179.718436 Y182.310381 Z-12.000000 I8.798555 J52.267951
G03 X185.268450 Y182.419910 Z-12.000000 I1.985946 J40.037828
G03 X211.288999 Y193.941485 Z-12.000000 I-4.000402 J44.178031
G03 X218.317710 Y212.145610 Z-12.000000 I-14.905545 J16.214085
G03 X212.917492 Y224.635601 Z-12.000000 I-21.697135 J-1.968627
G03 X204.842572 Y231.949940 Z-12.000000 I-37.430862 J-33.208645
G02 X196.156585 Y238.875842 Z-12.000000 I70.559815 J97.400868
G02 X191.750340 Y247.528770 Z-12.000000 I8.614243 J9.834885
G02 X192.767896 Y251.980630 Z-12.000000 I7.307568 J0.671939
G02 X195.704150 Y253.820700 Z-12.000000 I3.279858 J-1.970999
G02 X200.022210 Y251.828486 Z-12.000000 I0.429460 J-4.744893
G02 X202.443930 Y245.257430 Z-12.000000 I-10.997155 J-7.784713
G03 X206.656893 Y237.566207 Z-12.000000 I10.922529 J0.983488
G03 X213.080390 Y235.695500 Z-12.000000 I5.588284 J7.225021
G03 X220.584150 Y239.799769 Z-12.000000 I-0.955897 J10.659277
G03 X223.848500 Y250.975220 Z-12.000000 I-12.562240 J9.733916
G03 X213.845548 Y266.350435 Z-12.000000 I-19.544957 J-1.774227
G03 X190.062200 Y271.387150 Z-12.000000 I-20.060185 J-36.053321
G03 X164.925193 Y259.796621 Z-12.000000 I3.740095 J-41.164602
G03 X157.250950 Y238.984370 Z-12.000000 I18.036362 J-18.471684
G03 X162.970802 Y227.349889 Z-12.000000 I18.018853 J1.635333
G03 X172.163704 Y220.429884 Z-12.000000 I38.338488 J41.364706
G02 X181.669523 Y213.724885 Z-12.000000 I-42.229441 J-69.960384
G02 X186.890270 Y203.883080 Z-12.000000 I-9.109424 J-11.137861
G02 X184.904100 Y196.633989 Z-12.000000 I-10.684952 J-0.969082
G02 X181.074950 Y194.448680 Z-12.000000 I-4.316698 J3.116402
G02 X177.493324 Y195.317229 Z-12.000000 I-0.515458 J5.693443
G02 X176.001130 Y197.770420 Z-12.000000 I1.740784 J2.739282
G02 X176.433800 Y200.848857 Z-12.000000 I6.713421 J0.626062
G03 X177.159140 Y205.971100 Z-12.000000 I-10.498069 J4.099066
G03 X173.795637 Y211.345543 Z-12.000000 I-6.985863 J-0.632266
G03 X167.964160 Y212.689360 Z-12.000000 I-4.969579 J-8.240710
G03 X160.647268 Y208.312315 Z-12.000000 I0.890295 J-9.792430
G03 X158.263410 Y198.847290 Z-12.000000 I12.335838 J-8.139611
G03 X159.630915 Y190.853197 Z-12.000000 I50.956995 J4.602924
G02 X161.309350 Y181.033310 Z-12.000000 I-60.808100 J-15.446835
G02 X155.950003 Y159.758585 Z-12.000000 I-33.022965 J-2.993540
G02 X146.367060 Y154.030320 Z-12.000000 I-10.749992 J7.104009
G02 X142.056141 Y155.685733 Z-12.000000 I-0.462271 J5.236999
G02 X139.803410 Y160.728650 Z-12.000000 I6.250543 J5.816811
G02 X142.655689 Y174.810725 Z-12.000000 I24.983302 J2.269610
G02 X149.016290 Y182.623980 Z-12.000000 I23.171669 J-12.367912
G03 X151.622263 Y185.258345 Z-12.000000 I-11.548573 J14.030232
G03 X152.552870 Y188.346530 Z-12.000000 I-3.343485 J2.691850
G03 X148.860689 Y192.595729 Z-12.000000 I-4.792243 J-0.435348
G02 X145.372150 Y196.609910 Z-12.000000 I1.039407 J4.426255
G02 X146.738021 Y216.152254 Z-12.000000 I61.359161 J5.530331
G03 X148.482380 Y241.158830 Z-12.000000 I-76.702374 J17.914581
G03 X141.048089 Y257.467416 Z-12.000000 I-26.920914 J-2.423177
G03 X121.807910 Y264.653320 Z-12.000000 I-17.101844 J-16.439364
G03 X99.672476 Y255.345022 Z-12.000000 I3.583123 J-39.494318
G03 X86.741920 Y240.763740 Z-12.000000 I45.393313 J-53.278397
G03 X74.741675 Y257.784249 Z-12.000000 I-30.447770 J-8.726467
G03 X52.859130 Y265.333390 Z-12.000000 I-23.612768 J-32.956039
G03 X31.156055 Y261.284592 Z-12.000000 I-2.083041 J-49.026828
G03 X17.110680 Y250.842961 Z-12.000000 I15.482868 J-35.493766
G03 X8.088274 Y234.778460 Z-12.000000 I36.843705 J-31.258665
G03 X4.058970 Y212.785620 Z-12.000000 I76.761762 J-25.429032
G03 X11.559635 Y189.998578 Z-12.000000 I33.998667 J-1.436870
G03 X33.969850 Y178.686160 Z-12.000000 I23.699340 J19.095212
G03 X74.236721 Y195.266740 Z-12.000000 I2.191980 J51.862124
G03 X88.123940 Y228.584310 Z-12.000000 I-38.352575 J35.538855
G03 X88.133254 Y229.005979 Z-12.000000 I-10.365993 J0.439905
G02 X88.138540 Y229.423820 Z-12.000000 I19.182025 J-0.033715
G03 X89.220705 Y230.539948 Z-12.000000 I-13.411781 J14.086346
G02 X90.689020 Y232.134450 Z-12.000000 I56.687725 J-50.728230
G02 X96.209967 Y237.682685 Z-12.000000 I71.550826 J-65.677902
G02 X102.558160 Y240.506290 Z-12.000000 I7.308707 J-7.883870
G02 X108.649645 Y238.615334 Z-12.000000 I0.744619 J-8.358266
G02 X112.719080 Y230.908100 Z-12.000000 I-7.230511 J-8.745677
G01 X112.707580 Y230.906100 Z-12.000000
G02 X112.464933 Y214.758429 Z-12.000000 I-76.173010 J-6.931028
G02 X110.488560 Y200.198790 Z-12.000000 I-516.275750 J62.667016
G02 X107.001849 Y192.423736 Z-12.000000 I-16.289903 J2.635850
G02 X100.877180 Y187.986850 Z-12.000000 I-11.363061 J9.239863
G03 X97.331219 Y185.108172 Z-12.000000 I2.927430 J-7.229313
G03 X96.447940 Y181.646790 Z-12.000000 I4.421673 J-2.971717
G03 X97.871917 Y179.216487 Z-12.000000 I3.313216 J0.308975
G03 X99.816320 Y178.706560 Z-12.000000 I1.676593 J2.430955
G02 X106.680523 Y176.791409 Z-12.000000 I0.913643 J-9.984125
G02 X108.357710 Y173.816640 Z-12.000000 I-2.474365 J-3.355244
G02 X108.562186 Y167.358125 Z-12.000000 I-57.035524 J-5.038233
G03 X108.761260 Y161.438910 Z-12.000000 I50.696806 J-1.257928
G03 X112.147941 Y148.714157 Z-12.000000 I38.877003 J3.534021
G03 X118.054742 Y140.825483 Z-12.000000 I21.179173 J9.702571
G03 X126.686348 Y136.172875 Z-12.000000 I14.690492 J16.921016
G03 X139.043980 Y135.038550 Z-12.000000 I9.256133 J32.957929
G03 X139.996123 Y135.138475 Z-12.000000 I-3.051754 J33.665196
G03 X140.939580 Y135.265710 Z-12.000000 I-3.678915 J30.840896
G01 X140.939490 Y135.265660 Z-12.000000
G00 Z5.000000

(End cutting path id: path836)


(Start cutting path id: path836-3)
(Change tool to Cylindrical cutter)

G00 Z5.000000
G00 X194.755390 Y73.232090

G01 Z-12.000000 F100.0(Penetrate)
G02 X195.023187 Y73.239455 Z-12.000000 I0.220313 J-3.138491 F200.000000
G02 X195.200970 Y73.226090 Z-12.000000 I-0.022459 J-1.487891
G02 X196.334310 Y72.566121 Z-12.000000 I-0.218121 J-1.677677
G02 X196.640380 Y71.407120 Z-12.000000 I-1.267816 J-0.954721
G02 X195.428190 Y68.964997 Z-12.000000 I-4.155285 J0.540641
G03 X191.452850 Y60.962130 Z-12.000000 I9.654363 J-9.784490
G03 X192.462051 Y56.232195 Z-12.000000 I7.180840 J-0.940495
G03 X199.077220 Y49.671550 Z-12.000000 I16.777481 J10.301521
G02 X202.045300 Y45.542584 Z-12.000000 I-3.879611 J-5.920108
G02 X202.461720 Y38.931530 Z-12.000000 I-16.711830 J-4.371293
G02 X196.815340 Y25.819888 Z-12.000000 I-25.825820 J3.350001
G02 X185.568490 Y21.349310 Z-12.000000 I-9.636796 J7.861343
G02 X177.919954 Y27.071463 Z-12.000000 I1.248262 J9.641292
G02 X175.797270 Y41.872670 Z-12.000000 I25.421936 J11.198647
G02 X181.765203 Y62.231351 Z-12.000000 I67.824390 J-8.827947
G02 X187.822150 Y69.855300 Z-12.000000 I19.273479 J-9.094084
G02 X192.914237 Y72.815608 Z-12.000000 I12.237245 J-15.189884
G02 X194.755380 Y73.232200 Z-12.000000 I2.275708 J-5.780773
G01 X194.755390 Y73.232090 Z-12.000000
G00 Z5.000000

(End cutting path id: path836-3)


(Start cutting path id: path836)
(Change tool to Cylindrical cutter)

G00 Z5.000000
G00 X36.211980 Y192.896860

G01 Z-12.000000 F100.0(Penetrate)
G02 X35.945827 Y192.866285 Z-12.000000 I-0.487304 J3.068272 F200.000000
G02 X35.767560 Y192.864060 Z-12.000000 I-0.108048 J1.514005
G02 X34.581018 Y193.422742 Z-12.000000 I0.071084 J1.690313
G02 X34.175100 Y194.550660 Z-12.000000 I1.179778 J1.061582
G02 X35.169888 Y197.089142 Z-12.000000 I4.186993 J-0.176650
G03 X38.432550 Y205.408030 Z-12.000000 I-10.470674 J8.905841
G03 X37.014949 Y210.032003 Z-12.000000 I-7.235462 J0.311067
G03 X29.853150 Y215.991130 Z-12.000000 I-15.815816 J-11.724607
G02 X26.536505 Y219.845700 Z-12.000000 I3.348895 J6.235719
G02 X25.545480 Y226.395310 Z-12.000000 I16.267223 J5.811184
G02 X30.027615 Y239.949168 Z-12.000000 I26.019526 J-1.086386
G02 X40.842030 Y245.382960 Z-12.000000 I10.285278 J-6.991515
G02 X48.960178 Y240.349201 Z-12.000000 I-0.403212 J-9.713390
G02 X52.364800 Y225.789320 Z-12.000000 I-24.349176 J-13.371712
G02 X48.193951 Y204.987972 Z-12.000000 I-68.335639 J2.883062
G02 X42.824520 Y196.865130 Z-12.000000 I-19.992779 J7.379704
G02 X38.009821 Y193.472289 Z-12.000000 I-13.514501 J14.065470
G02 X36.211990 Y192.896810 Z-12.000000 I-2.770939 J5.560577
G01 X36.211980 Y192.896860 Z-12.000000
G00 Z5.000000

(End cutting path id: path836)



(Footer)
M5
G00 X0.0000 Y0.0000
M2
(Using default footer. To add your own footer create file "footer" in the output dir.)
(end)
%
