%
(Header)
(Generated by gcodetools from Inkscape.)
(Using default header. To add your own header create file "header" in the output dir.)
M3
(Header end.)
G21 (All units in mm)

(Start cutting path id: path838)
(Change tool to Cylindrical cutter)

G00 Z5.000000
G00 X399.239687 Y35.660241

G01 Z-1.000000 F100.0(Penetrate)
G02 X393.010112 Y18.892945 Z-1.000000 I-63.176967 J13.931331 F200.000000
G02 X383.670483 Y7.489992 Z-1.000000 I-34.024509 J18.341590
G02 X371.154668 Y1.214759 Z-1.000000 I-19.783051 J23.837984
G02 X353.493625 Y1.039844 Z-1.000000 I-9.209330 J38.160668
G02 X335.210943 Y13.172490 Z-1.000000 I6.561252 J29.728558
G02 X330.815456 Y34.890074 Z-1.000000 I22.345097 J15.826091
G02 X346.384805 Y59.210667 Z-1.000000 I40.850694 J-9.007625
G02 X380.412352 Y66.680339 Z-1.000000 I25.096223 J-33.084172
G02 X396.496138 Y54.654746 Z-1.000000 I-5.239552 J-23.776239
G02 X399.239687 Y35.660241 Z-1.000000 I-23.843236 J-13.139285
G01 X399.239687 Y35.660241 Z-1.000000
G00 Z5.000000

(End cutting path id: path838)


(Start cutting path id: path838)
(Change tool to Cylindrical cutter)

G00 Z5.000000
G00 X399.239687 Y35.660241

G01 Z-2.000000 F100.0(Penetrate)
G02 X393.010112 Y18.892945 Z-2.000000 I-63.176967 J13.931331 F200.000000
G02 X383.670483 Y7.489992 Z-2.000000 I-34.024509 J18.341590
G02 X371.154668 Y1.214759 Z-2.000000 I-19.783051 J23.837984
G02 X353.493625 Y1.039844 Z-2.000000 I-9.209330 J38.160668
G02 X335.210943 Y13.172490 Z-2.000000 I6.561252 J29.728558
G02 X330.815456 Y34.890074 Z-2.000000 I22.345097 J15.826091
G02 X346.384805 Y59.210667 Z-2.000000 I40.850694 J-9.007625
G02 X380.412352 Y66.680339 Z-2.000000 I25.096223 J-33.084172
G02 X396.496138 Y54.654746 Z-2.000000 I-5.239552 J-23.776239
G02 X399.239687 Y35.660241 Z-2.000000 I-23.843236 J-13.139285
G01 X399.239687 Y35.660241 Z-2.000000
G00 Z5.000000

(End cutting path id: path838)


(Start cutting path id: path838)
(Change tool to Cylindrical cutter)

G00 Z5.000000
G00 X399.239687 Y35.660241

G01 Z-3.000000 F100.0(Penetrate)
G02 X393.010112 Y18.892945 Z-3.000000 I-63.176967 J13.931331 F200.000000
G02 X383.670483 Y7.489992 Z-3.000000 I-34.024509 J18.341590
G02 X371.154668 Y1.214759 Z-3.000000 I-19.783051 J23.837984
G02 X353.493625 Y1.039844 Z-3.000000 I-9.209330 J38.160668
G02 X335.210943 Y13.172490 Z-3.000000 I6.561252 J29.728558
G02 X330.815456 Y34.890074 Z-3.000000 I22.345097 J15.826091
G02 X346.384805 Y59.210667 Z-3.000000 I40.850694 J-9.007625
G02 X380.412352 Y66.680339 Z-3.000000 I25.096223 J-33.084172
G02 X396.496138 Y54.654746 Z-3.000000 I-5.239552 J-23.776239
G02 X399.239687 Y35.660241 Z-3.000000 I-23.843236 J-13.139285
G01 X399.239687 Y35.660241 Z-3.000000
G00 Z5.000000

(End cutting path id: path838)


(Start cutting path id: path838)
(Change tool to Cylindrical cutter)

G00 Z5.000000
G00 X399.239687 Y35.660241

G01 Z-4.000000 F100.0(Penetrate)
G02 X393.010112 Y18.892945 Z-4.000000 I-63.176967 J13.931331 F200.000000
G02 X383.670483 Y7.489992 Z-4.000000 I-34.024509 J18.341590
G02 X371.154668 Y1.214759 Z-4.000000 I-19.783051 J23.837984
G02 X353.493625 Y1.039844 Z-4.000000 I-9.209330 J38.160668
G02 X335.210943 Y13.172490 Z-4.000000 I6.561252 J29.728558
G02 X330.815456 Y34.890074 Z-4.000000 I22.345097 J15.826091
G02 X346.384805 Y59.210667 Z-4.000000 I40.850694 J-9.007625
G02 X380.412352 Y66.680339 Z-4.000000 I25.096223 J-33.084172
G02 X396.496138 Y54.654746 Z-4.000000 I-5.239552 J-23.776239
G02 X399.239687 Y35.660241 Z-4.000000 I-23.843236 J-13.139285
G01 X399.239687 Y35.660241 Z-4.000000
G00 Z5.000000

(End cutting path id: path838)


(Start cutting path id: path838)
(Change tool to Cylindrical cutter)

G00 Z5.000000
G00 X399.239687 Y35.660241

G01 Z-5.000000 F100.0(Penetrate)
G02 X393.010112 Y18.892945 Z-5.000000 I-63.176967 J13.931331 F200.000000
G02 X383.670483 Y7.489992 Z-5.000000 I-34.024509 J18.341590
G02 X371.154668 Y1.214759 Z-5.000000 I-19.783051 J23.837984
G02 X353.493625 Y1.039844 Z-5.000000 I-9.209330 J38.160668
G02 X335.210943 Y13.172490 Z-5.000000 I6.561252 J29.728558
G02 X330.815456 Y34.890074 Z-5.000000 I22.345097 J15.826091
G02 X346.384805 Y59.210667 Z-5.000000 I40.850694 J-9.007625
G02 X380.412352 Y66.680339 Z-5.000000 I25.096223 J-33.084172
G02 X396.496138 Y54.654746 Z-5.000000 I-5.239552 J-23.776239
G02 X399.239687 Y35.660241 Z-5.000000 I-23.843236 J-13.139285
G01 X399.239687 Y35.660241 Z-5.000000
G00 Z5.000000

(End cutting path id: path838)


(Start cutting path id: path838)
(Change tool to Cylindrical cutter)

G00 Z5.000000
G00 X399.239687 Y35.660241

G01 Z-6.000000 F100.0(Penetrate)
G02 X393.010112 Y18.892945 Z-6.000000 I-63.176967 J13.931331 F200.000000
G02 X383.670483 Y7.489992 Z-6.000000 I-34.024509 J18.341590
G02 X371.154668 Y1.214759 Z-6.000000 I-19.783051 J23.837984
G02 X353.493625 Y1.039844 Z-6.000000 I-9.209330 J38.160668
G02 X335.210943 Y13.172490 Z-6.000000 I6.561252 J29.728558
G02 X330.815456 Y34.890074 Z-6.000000 I22.345097 J15.826091
G02 X346.384805 Y59.210667 Z-6.000000 I40.850694 J-9.007625
G02 X380.412352 Y66.680339 Z-6.000000 I25.096223 J-33.084172
G02 X396.496138 Y54.654746 Z-6.000000 I-5.239552 J-23.776239
G02 X399.239687 Y35.660241 Z-6.000000 I-23.843236 J-13.139285
G01 X399.239687 Y35.660241 Z-6.000000
G00 Z5.000000

(End cutting path id: path838)


(Start cutting path id: path838)
(Change tool to Cylindrical cutter)

G00 Z5.000000
G00 X399.239687 Y35.660241

G01 Z-6.350000 F100.0(Penetrate)
G02 X393.010112 Y18.892945 Z-6.350000 I-63.176967 J13.931331 F200.000000
G02 X383.670483 Y7.489992 Z-6.350000 I-34.024509 J18.341590
G02 X371.154668 Y1.214759 Z-6.350000 I-19.783051 J23.837984
G02 X353.493625 Y1.039844 Z-6.350000 I-9.209330 J38.160668
G02 X335.210943 Y13.172490 Z-6.350000 I6.561252 J29.728558
G02 X330.815456 Y34.890074 Z-6.350000 I22.345097 J15.826091
G02 X346.384805 Y59.210667 Z-6.350000 I40.850694 J-9.007625
G02 X380.412352 Y66.680339 Z-6.350000 I25.096223 J-33.084172
G02 X396.496138 Y54.654746 Z-6.350000 I-5.239552 J-23.776239
G02 X399.239687 Y35.660241 Z-6.350000 I-23.843236 J-13.139285
G01 X399.239687 Y35.660241 Z-6.350000
G00 Z5.000000

(End cutting path id: path838)


(Start cutting path id: path838)
(Change tool to Cylindrical cutter)

G00 Z5.000000
G00 X378.473016 Y36.718061

G01 Z-1.000000 F100.0(Penetrate)
G02 X373.658426 Y42.407824 Z-1.000000 I9.274750 J12.730048 F200.000000
G02 X373.183918 Y46.247717 Z-1.000000 I5.182623 J2.589698
G02 X376.909873 Y52.347691 Z-1.000000 I10.735904 J-2.369729
G03 X378.046177 Y54.209202 Z-1.000000 I-2.137040 J2.582058
G01 X377.025474 Y55.758815 Z-1.000000
G03 X375.879414 Y55.753176 Z-1.000000 I-0.560781 J-2.492359
G03 X370.910533 Y53.587501 Z-1.000000 I3.470679 J-14.746140
G03 X365.551988 Y47.933824 Z-1.000000 I9.366625 J-14.243921
G03 X359.376587 Y32.124896 Z-1.000000 I47.267889 J-27.574738
G03 X360.036406 Y20.181700 Z-1.000000 I21.698242 J-4.791074
G03 X365.732785 Y15.088432 Z-1.000000 I7.363386 J2.503222
G03 X375.007505 Y17.866648 Z-1.000000 I2.143051 J9.716041
G03 X380.421631 Y27.921455 Z-1.000000 I-14.930209 J14.524396
G03 X380.550796 Y33.220002 Z-1.000000 I-13.497062 J2.979871
G03 X378.473016 Y36.718061 Z-1.000000 I-5.582844 J-0.949992
G01 X378.473016 Y36.718061 Z-1.000000
G00 Z5.000000

(End cutting path id: path838)


(Start cutting path id: path838)
(Change tool to Cylindrical cutter)

G00 Z5.000000
G00 X378.473016 Y36.718061

G01 Z-2.000000 F100.0(Penetrate)
G02 X373.658426 Y42.407824 Z-2.000000 I9.274750 J12.730048 F200.000000
G02 X373.183918 Y46.247717 Z-2.000000 I5.182623 J2.589698
G02 X376.909873 Y52.347691 Z-2.000000 I10.735904 J-2.369729
G03 X378.046177 Y54.209202 Z-2.000000 I-2.137040 J2.582058
G01 X377.025474 Y55.758815 Z-2.000000
G03 X375.879414 Y55.753176 Z-2.000000 I-0.560781 J-2.492359
G03 X370.910533 Y53.587501 Z-2.000000 I3.470679 J-14.746140
G03 X365.551988 Y47.933824 Z-2.000000 I9.366625 J-14.243921
G03 X359.376587 Y32.124896 Z-2.000000 I47.267889 J-27.574738
G03 X360.036406 Y20.181700 Z-2.000000 I21.698242 J-4.791074
G03 X365.732785 Y15.088432 Z-2.000000 I7.363386 J2.503222
G03 X375.007505 Y17.866648 Z-2.000000 I2.143051 J9.716041
G03 X380.421631 Y27.921455 Z-2.000000 I-14.930209 J14.524396
G03 X380.550796 Y33.220002 Z-2.000000 I-13.497062 J2.979871
G03 X378.473016 Y36.718061 Z-2.000000 I-5.582844 J-0.949992
G01 X378.473016 Y36.718061 Z-2.000000
G00 Z5.000000

(End cutting path id: path838)


(Start cutting path id: path838)
(Change tool to Cylindrical cutter)

G00 Z5.000000
G00 X378.473016 Y36.718061

G01 Z-3.000000 F100.0(Penetrate)
G02 X373.658426 Y42.407824 Z-3.000000 I9.274750 J12.730048 F200.000000
G02 X373.183918 Y46.247717 Z-3.000000 I5.182623 J2.589698
G02 X376.909873 Y52.347691 Z-3.000000 I10.735904 J-2.369729
G03 X378.046177 Y54.209202 Z-3.000000 I-2.137040 J2.582058
G01 X377.025474 Y55.758815 Z-3.000000
G03 X375.879414 Y55.753176 Z-3.000000 I-0.560781 J-2.492359
G03 X370.910533 Y53.587501 Z-3.000000 I3.470679 J-14.746140
G03 X365.551988 Y47.933824 Z-3.000000 I9.366625 J-14.243921
G03 X359.376587 Y32.124896 Z-3.000000 I47.267889 J-27.574738
G03 X360.036406 Y20.181700 Z-3.000000 I21.698242 J-4.791074
G03 X365.732785 Y15.088432 Z-3.000000 I7.363386 J2.503222
G03 X375.007505 Y17.866648 Z-3.000000 I2.143051 J9.716041
G03 X380.421631 Y27.921455 Z-3.000000 I-14.930209 J14.524396
G03 X380.550796 Y33.220002 Z-3.000000 I-13.497062 J2.979871
G03 X378.473016 Y36.718061 Z-3.000000 I-5.582844 J-0.949992
G01 X378.473016 Y36.718061 Z-3.000000
G00 Z5.000000

(End cutting path id: path838)


(Start cutting path id: path838)
(Change tool to Cylindrical cutter)

G00 Z5.000000
G00 X378.473016 Y36.718061

G01 Z-4.000000 F100.0(Penetrate)
G02 X373.658426 Y42.407824 Z-4.000000 I9.274750 J12.730048 F200.000000
G02 X373.183918 Y46.247717 Z-4.000000 I5.182623 J2.589698
G02 X376.909873 Y52.347691 Z-4.000000 I10.735904 J-2.369729
G03 X378.046177 Y54.209202 Z-4.000000 I-2.137040 J2.582058
G01 X377.025474 Y55.758815 Z-4.000000
G03 X375.879414 Y55.753176 Z-4.000000 I-0.560781 J-2.492359
G03 X370.910533 Y53.587501 Z-4.000000 I3.470679 J-14.746140
G03 X365.551988 Y47.933824 Z-4.000000 I9.366625 J-14.243921
G03 X359.376587 Y32.124896 Z-4.000000 I47.267889 J-27.574738
G03 X360.036406 Y20.181700 Z-4.000000 I21.698242 J-4.791074
G03 X365.732785 Y15.088432 Z-4.000000 I7.363386 J2.503222
G03 X375.007505 Y17.866648 Z-4.000000 I2.143051 J9.716041
G03 X380.421631 Y27.921455 Z-4.000000 I-14.930209 J14.524396
G03 X380.550796 Y33.220002 Z-4.000000 I-13.497062 J2.979871
G03 X378.473016 Y36.718061 Z-4.000000 I-5.582844 J-0.949992
G01 X378.473016 Y36.718061 Z-4.000000
G00 Z5.000000

(End cutting path id: path838)


(Start cutting path id: path838)
(Change tool to Cylindrical cutter)

G00 Z5.000000
G00 X378.473016 Y36.718061

G01 Z-5.000000 F100.0(Penetrate)
G02 X373.658426 Y42.407824 Z-5.000000 I9.274750 J12.730048 F200.000000
G02 X373.183918 Y46.247717 Z-5.000000 I5.182623 J2.589698
G02 X376.909873 Y52.347691 Z-5.000000 I10.735904 J-2.369729
G03 X378.046177 Y54.209202 Z-5.000000 I-2.137040 J2.582058
G01 X377.025474 Y55.758815 Z-5.000000
G03 X375.879414 Y55.753176 Z-5.000000 I-0.560781 J-2.492359
G03 X370.910533 Y53.587501 Z-5.000000 I3.470679 J-14.746140
G03 X365.551988 Y47.933824 Z-5.000000 I9.366625 J-14.243921
G03 X359.376587 Y32.124896 Z-5.000000 I47.267889 J-27.574738
G03 X360.036406 Y20.181700 Z-5.000000 I21.698242 J-4.791074
G03 X365.732785 Y15.088432 Z-5.000000 I7.363386 J2.503222
G03 X375.007505 Y17.866648 Z-5.000000 I2.143051 J9.716041
G03 X380.421631 Y27.921455 Z-5.000000 I-14.930209 J14.524396
G03 X380.550796 Y33.220002 Z-5.000000 I-13.497062 J2.979871
G03 X378.473016 Y36.718061 Z-5.000000 I-5.582844 J-0.949992
G01 X378.473016 Y36.718061 Z-5.000000
G00 Z5.000000

(End cutting path id: path838)


(Start cutting path id: path838)
(Change tool to Cylindrical cutter)

G00 Z5.000000
G00 X378.473016 Y36.718061

G01 Z-6.000000 F100.0(Penetrate)
G02 X373.658426 Y42.407824 Z-6.000000 I9.274750 J12.730048 F200.000000
G02 X373.183918 Y46.247717 Z-6.000000 I5.182623 J2.589698
G02 X376.909873 Y52.347691 Z-6.000000 I10.735904 J-2.369729
G03 X378.046177 Y54.209202 Z-6.000000 I-2.137040 J2.582058
G01 X377.025474 Y55.758815 Z-6.000000
G03 X375.879414 Y55.753176 Z-6.000000 I-0.560781 J-2.492359
G03 X370.910533 Y53.587501 Z-6.000000 I3.470679 J-14.746140
G03 X365.551988 Y47.933824 Z-6.000000 I9.366625 J-14.243921
G03 X359.376587 Y32.124896 Z-6.000000 I47.267889 J-27.574738
G03 X360.036406 Y20.181700 Z-6.000000 I21.698242 J-4.791074
G03 X365.732785 Y15.088432 Z-6.000000 I7.363386 J2.503222
G03 X375.007505 Y17.866648 Z-6.000000 I2.143051 J9.716041
G03 X380.421631 Y27.921455 Z-6.000000 I-14.930209 J14.524396
G03 X380.550796 Y33.220002 Z-6.000000 I-13.497062 J2.979871
G03 X378.473016 Y36.718061 Z-6.000000 I-5.582844 J-0.949992
G01 X378.473016 Y36.718061 Z-6.000000
G00 Z5.000000

(End cutting path id: path838)


(Start cutting path id: path838)
(Change tool to Cylindrical cutter)

G00 Z5.000000
G00 X378.473016 Y36.718061

G01 Z-6.350000 F100.0(Penetrate)
G02 X373.658426 Y42.407824 Z-6.350000 I9.274750 J12.730048 F200.000000
G02 X373.183918 Y46.247717 Z-6.350000 I5.182623 J2.589698
G02 X376.909873 Y52.347691 Z-6.350000 I10.735904 J-2.369729
G03 X378.046177 Y54.209202 Z-6.350000 I-2.137040 J2.582058
G01 X377.025474 Y55.758815 Z-6.350000
G03 X375.879414 Y55.753176 Z-6.350000 I-0.560781 J-2.492359
G03 X370.910533 Y53.587501 Z-6.350000 I3.470679 J-14.746140
G03 X365.551988 Y47.933824 Z-6.350000 I9.366625 J-14.243921
G03 X359.376587 Y32.124896 Z-6.350000 I47.267889 J-27.574738
G03 X360.036406 Y20.181700 Z-6.350000 I21.698242 J-4.791074
G03 X365.732785 Y15.088432 Z-6.350000 I7.363386 J2.503222
G03 X375.007505 Y17.866648 Z-6.350000 I2.143051 J9.716041
G03 X380.421631 Y27.921455 Z-6.350000 I-14.930209 J14.524396
G03 X380.550796 Y33.220002 Z-6.350000 I-13.497062 J2.979871
G03 X378.473016 Y36.718061 Z-6.350000 I-5.582844 J-0.949992
G01 X378.473016 Y36.718061 Z-6.350000
G00 Z5.000000

(End cutting path id: path838)


(Start cutting path id: path836)
(Change tool to Cylindrical cutter)

G00 Z5.000000
G00 X311.115884 Y36.486083

G01 Z-1.000000 F100.0(Penetrate)
G03 X313.250542 Y29.841224 Z-1.000000 I9.053908 J-0.756745 F200.000000
G03 X317.787571 Y27.503894 Z-1.000000 I5.111372 J4.349653
G03 X323.180793 Y28.846164 Z-1.000000 I0.730765 J8.569879
G03 X328.300814 Y32.449665 Z-1.000000 I-42.057570 J65.196469
G01 X332.513535 Y34.899353 Z-1.000000
G01 X334.759082 Y32.124896 Z-1.000000
G02 X334.222421 Y30.343010 Z-1.000000 I-4.523066 J0.390481
G02 X332.058858 Y27.169846 Z-1.000000 I-16.978709 J9.252443
G02 X320.311287 Y16.545697 Z-1.000000 I-41.125499 J33.667234
G02 X299.266448 Y11.154085 Z-1.000000 I-18.269846 J27.544378
G02 X285.106971 Y19.487722 Z-1.000000 I1.597279 J18.909726
G02 X281.515491 Y33.368298 Z-1.000000 I17.952696 J12.050026
G02 X286.363542 Y52.827953 Z-1.000000 I62.796253 J-5.310913
G03 X290.154352 Y68.035091 Z-1.000000 I-45.324684 J19.374512
G03 X287.963426 Y71.681777 Z-1.000000 I-3.623847 J0.304293
G02 X285.644700 Y75.541899 Z-1.000000 I1.516541 J3.537442
G02 X286.807026 Y77.846007 Z-1.000000 I3.423028 J-0.281548
G02 X289.226440 Y79.559758 Z-1.000000 I9.568872 J-10.944307
G03 X295.322856 Y84.831462 Z-1.000000 I-10.441581 J18.236000
G03 X299.526263 Y95.529123 Z-1.000000 I-15.792665 J12.380023
G03 X298.452059 Y99.815178 Z-1.000000 I-6.807112 J0.571590
G03 X295.285705 Y101.718296 Z-1.000000 I-3.529653 J-2.286933
G03 X286.939824 Y98.536592 Z-1.000000 I-0.863235 J-10.272493
G03 X279.761738 Y82.519797 Z-1.000000 I19.254094 J-18.245777
G03 X279.720302 Y74.550596 Z-1.000000 I49.973484 J-4.244541
G02 X279.687505 Y68.062928 Z-1.000000 I-40.790485 J-3.037708
G02 X276.493994 Y60.937180 Z-1.000000 I-11.779021 J1.000462
G02 X270.120732 Y58.505434 Z-1.000000 I-5.714187 J5.408494
G02 X265.713851 Y60.374098 Z-1.000000 I0.652255 J7.668933
G02 X263.810930 Y65.075051 Z-1.000000 I3.688317 J4.228634
G02 X265.093412 Y69.010151 Z-1.000000 I8.990483 J-0.753538
G03 X265.861616 Y71.375574 Z-1.000000 I-4.611533 J2.805112
G03 X265.026992 Y73.515581 Z-1.000000 I-2.587133 J0.223752
G03 X262.326271 Y74.697499 Z-1.000000 I-3.085417 J-3.373705
G03 X259.005856 Y73.507672 Z-1.000000 I-0.352384 J-4.244620
G03 X256.434030 Y68.072207 Z-1.000000 I5.981508 J-6.156361
G03 X264.990439 Y53.354593 Z-1.000000 I14.785878 J-1.249940
G02 X274.908758 Y36.300500 Z-1.000000 I-7.220676 J-15.610595
G02 X265.971317 Y20.969414 Z-1.000000 I-20.581697 J1.727711
G02 X244.556756 Y15.329689 Z-1.000000 I-18.642628 J27.311390
G02 X226.519023 Y22.602280 Z-1.000000 I2.774634 J32.886946
G02 X220.774372 Y36.105639 Z-1.000000 I9.901402 J12.185928
G02 X224.898649 Y44.455923 Z-1.000000 I12.667087 J-1.062733
G02 X231.380406 Y46.646719 Z-1.000000 I5.754068 J-6.340202
G02 X236.181453 Y44.280899 Z-1.000000 I-0.605662 J-7.283476
G02 X238.432537 Y37.636693 Z-1.000000 I-6.488807 J-5.901875
G03 X239.427400 Y32.123115 Z-1.000000 I10.742703 J-0.908146
G03 X242.552467 Y29.953582 Z-1.000000 I3.445840 J1.628010
G03 X245.121887 Y30.995194 Z-1.000000 I0.258827 J3.051429
G03 X246.542488 Y34.361164 Z-1.000000 I-4.427999 J3.851594
G03 X239.840381 Y47.570804 Z-1.000000 I-14.039030 J1.182115
G02 X230.526727 Y65.928730 Z-1.000000 I10.195910 J16.714305
G02 X238.592976 Y79.293860 Z-1.000000 I17.556461 J-1.479166
G02 X260.693146 Y84.756065 Z-1.000000 I19.114764 J-29.898723
G02 X265.081241 Y84.071881 Z-1.000000 I-2.743910 J-32.012286
G02 X269.851638 Y82.686821 Z-1.000000 I-9.391944 J-41.255127
G02 X282.338575 Y108.306546 Z-1.000000 I39.327220 J-3.315007
G02 X303.692588 Y115.664813 Z-1.000000 I19.004434 J-20.487423
G02 X318.598016 Y107.789274 Z-1.000000 I-1.802244 J-21.453916
G02 X323.883953 Y90.657585 Z-1.000000 I-18.607992 J-15.122772
G02 X323.218699 Y85.966390 Z-1.000000 I-40.464838 J3.345518
G03 X322.482806 Y80.849555 Z-1.000000 I44.936503 J-9.074009
G03 X323.390969 Y78.273109 Z-1.000000 I3.323117 J-0.276926
G03 X328.532792 Y75.810993 Z-1.000000 I5.809037 J5.531365
G01 X330.778339 Y73.027257 Z-1.000000
G02 X329.601551 Y70.422882 Z-1.000000 I-4.247472 J0.351169
G02 X326.407874 Y68.647512 Z-1.000000 I-4.495829 J4.327251
G03 X320.965603 Y66.002703 Z-1.000000 I2.227621 J-11.505550
G03 X317.138033 Y60.361258 Z-1.000000 I8.639400 J-9.980777
G03 X313.558924 Y49.165011 Z-1.000000 I393.119961 J-131.839011
G03 X311.125163 Y36.476803 Z-1.000000 I58.568976 J-17.811797
G01 X311.115884 Y36.476803 Z-1.000000
G01 X311.115884 Y36.486083 Z-1.000000
G00 Z5.000000

(End cutting path id: path836)


(Start cutting path id: path836)
(Change tool to Cylindrical cutter)

G00 Z5.000000
G00 X311.115884 Y36.486083

G01 Z-2.000000 F100.0(Penetrate)
G03 X313.250542 Y29.841224 Z-2.000000 I9.053908 J-0.756745 F200.000000
G03 X317.787571 Y27.503894 Z-2.000000 I5.111372 J4.349653
G03 X323.180793 Y28.846164 Z-2.000000 I0.730765 J8.569879
G03 X328.300814 Y32.449665 Z-2.000000 I-42.057570 J65.196469
G01 X332.513535 Y34.899353 Z-2.000000
G01 X334.759082 Y32.124896 Z-2.000000
G02 X334.222421 Y30.343010 Z-2.000000 I-4.523066 J0.390481
G02 X332.058858 Y27.169846 Z-2.000000 I-16.978709 J9.252443
G02 X320.311287 Y16.545697 Z-2.000000 I-41.125499 J33.667234
G02 X299.266448 Y11.154085 Z-2.000000 I-18.269846 J27.544378
G02 X285.106971 Y19.487722 Z-2.000000 I1.597279 J18.909726
G02 X281.515491 Y33.368298 Z-2.000000 I17.952696 J12.050026
G02 X286.363542 Y52.827953 Z-2.000000 I62.796253 J-5.310913
G03 X290.154352 Y68.035091 Z-2.000000 I-45.324684 J19.374512
G03 X287.963426 Y71.681777 Z-2.000000 I-3.623847 J0.304293
G02 X285.644700 Y75.541899 Z-2.000000 I1.516541 J3.537442
G02 X286.807026 Y77.846007 Z-2.000000 I3.423028 J-0.281548
G02 X289.226440 Y79.559758 Z-2.000000 I9.568872 J-10.944307
G03 X295.322856 Y84.831462 Z-2.000000 I-10.441581 J18.236000
G03 X299.526263 Y95.529123 Z-2.000000 I-15.792665 J12.380023
G03 X298.452059 Y99.815178 Z-2.000000 I-6.807112 J0.571590
G03 X295.285705 Y101.718296 Z-2.000000 I-3.529653 J-2.286933
G03 X286.939824 Y98.536592 Z-2.000000 I-0.863235 J-10.272493
G03 X279.761738 Y82.519797 Z-2.000000 I19.254094 J-18.245777
G03 X279.720302 Y74.550596 Z-2.000000 I49.973484 J-4.244541
G02 X279.687505 Y68.062928 Z-2.000000 I-40.790485 J-3.037708
G02 X276.493994 Y60.937180 Z-2.000000 I-11.779021 J1.000462
G02 X270.120732 Y58.505434 Z-2.000000 I-5.714187 J5.408494
G02 X265.713851 Y60.374098 Z-2.000000 I0.652255 J7.668933
G02 X263.810930 Y65.075051 Z-2.000000 I3.688317 J4.228634
G02 X265.093412 Y69.010151 Z-2.000000 I8.990483 J-0.753538
G03 X265.861616 Y71.375574 Z-2.000000 I-4.611533 J2.805112
G03 X265.026992 Y73.515581 Z-2.000000 I-2.587133 J0.223752
G03 X262.326271 Y74.697499 Z-2.000000 I-3.085417 J-3.373705
G03 X259.005856 Y73.507672 Z-2.000000 I-0.352384 J-4.244620
G03 X256.434030 Y68.072207 Z-2.000000 I5.981508 J-6.156361
G03 X264.990439 Y53.354593 Z-2.000000 I14.785878 J-1.249940
G02 X274.908758 Y36.300500 Z-2.000000 I-7.220676 J-15.610595
G02 X265.971317 Y20.969414 Z-2.000000 I-20.581697 J1.727711
G02 X244.556756 Y15.329689 Z-2.000000 I-18.642628 J27.311390
G02 X226.519023 Y22.602280 Z-2.000000 I2.774634 J32.886946
G02 X220.774372 Y36.105639 Z-2.000000 I9.901402 J12.185928
G02 X224.898649 Y44.455923 Z-2.000000 I12.667087 J-1.062733
G02 X231.380406 Y46.646719 Z-2.000000 I5.754068 J-6.340202
G02 X236.181453 Y44.280899 Z-2.000000 I-0.605662 J-7.283476
G02 X238.432537 Y37.636693 Z-2.000000 I-6.488807 J-5.901875
G03 X239.427400 Y32.123115 Z-2.000000 I10.742703 J-0.908146
G03 X242.552467 Y29.953582 Z-2.000000 I3.445840 J1.628010
G03 X245.121887 Y30.995194 Z-2.000000 I0.258827 J3.051429
G03 X246.542488 Y34.361164 Z-2.000000 I-4.427999 J3.851594
G03 X239.840381 Y47.570804 Z-2.000000 I-14.039030 J1.182115
G02 X230.526727 Y65.928730 Z-2.000000 I10.195910 J16.714305
G02 X238.592976 Y79.293860 Z-2.000000 I17.556461 J-1.479166
G02 X260.693146 Y84.756065 Z-2.000000 I19.114764 J-29.898723
G02 X265.081241 Y84.071881 Z-2.000000 I-2.743910 J-32.012286
G02 X269.851638 Y82.686821 Z-2.000000 I-9.391944 J-41.255127
G02 X282.338575 Y108.306546 Z-2.000000 I39.327220 J-3.315007
G02 X303.692588 Y115.664813 Z-2.000000 I19.004434 J-20.487423
G02 X318.598016 Y107.789274 Z-2.000000 I-1.802244 J-21.453916
G02 X323.883953 Y90.657585 Z-2.000000 I-18.607992 J-15.122772
G02 X323.218699 Y85.966390 Z-2.000000 I-40.464838 J3.345518
G03 X322.482806 Y80.849555 Z-2.000000 I44.936503 J-9.074009
G03 X323.390969 Y78.273109 Z-2.000000 I3.323117 J-0.276926
G03 X328.532792 Y75.810993 Z-2.000000 I5.809037 J5.531365
G01 X330.778339 Y73.027257 Z-2.000000
G02 X329.601551 Y70.422882 Z-2.000000 I-4.247472 J0.351169
G02 X326.407874 Y68.647512 Z-2.000000 I-4.495829 J4.327251
G03 X320.965603 Y66.002703 Z-2.000000 I2.227621 J-11.505550
G03 X317.138033 Y60.361258 Z-2.000000 I8.639400 J-9.980777
G03 X313.558924 Y49.165011 Z-2.000000 I393.119961 J-131.839011
G03 X311.125163 Y36.476803 Z-2.000000 I58.568976 J-17.811797
G01 X311.115884 Y36.476803 Z-2.000000
G01 X311.115884 Y36.486083 Z-2.000000
G00 Z5.000000

(End cutting path id: path836)


(Start cutting path id: path836)
(Change tool to Cylindrical cutter)

G00 Z5.000000
G00 X311.115884 Y36.486083

G01 Z-3.000000 F100.0(Penetrate)
G03 X313.250542 Y29.841224 Z-3.000000 I9.053908 J-0.756745 F200.000000
G03 X317.787571 Y27.503894 Z-3.000000 I5.111372 J4.349653
G03 X323.180793 Y28.846164 Z-3.000000 I0.730765 J8.569879
G03 X328.300814 Y32.449665 Z-3.000000 I-42.057570 J65.196469
G01 X332.513535 Y34.899353 Z-3.000000
G01 X334.759082 Y32.124896 Z-3.000000
G02 X334.222421 Y30.343010 Z-3.000000 I-4.523066 J0.390481
G02 X332.058858 Y27.169846 Z-3.000000 I-16.978709 J9.252443
G02 X320.311287 Y16.545697 Z-3.000000 I-41.125499 J33.667234
G02 X299.266448 Y11.154085 Z-3.000000 I-18.269846 J27.544378
G02 X285.106971 Y19.487722 Z-3.000000 I1.597279 J18.909726
G02 X281.515491 Y33.368298 Z-3.000000 I17.952696 J12.050026
G02 X286.363542 Y52.827953 Z-3.000000 I62.796253 J-5.310913
G03 X290.154352 Y68.035091 Z-3.000000 I-45.324684 J19.374512
G03 X287.963426 Y71.681777 Z-3.000000 I-3.623847 J0.304293
G02 X285.644700 Y75.541899 Z-3.000000 I1.516541 J3.537442
G02 X286.807026 Y77.846007 Z-3.000000 I3.423028 J-0.281548
G02 X289.226440 Y79.559758 Z-3.000000 I9.568872 J-10.944307
G03 X295.322856 Y84.831462 Z-3.000000 I-10.441581 J18.236000
G03 X299.526263 Y95.529123 Z-3.000000 I-15.792665 J12.380023
G03 X298.452059 Y99.815178 Z-3.000000 I-6.807112 J0.571590
G03 X295.285705 Y101.718296 Z-3.000000 I-3.529653 J-2.286933
G03 X286.939824 Y98.536592 Z-3.000000 I-0.863235 J-10.272493
G03 X279.761738 Y82.519797 Z-3.000000 I19.254094 J-18.245777
G03 X279.720302 Y74.550596 Z-3.000000 I49.973484 J-4.244541
G02 X279.687505 Y68.062928 Z-3.000000 I-40.790485 J-3.037708
G02 X276.493994 Y60.937180 Z-3.000000 I-11.779021 J1.000462
G02 X270.120732 Y58.505434 Z-3.000000 I-5.714187 J5.408494
G02 X265.713851 Y60.374098 Z-3.000000 I0.652255 J7.668933
G02 X263.810930 Y65.075051 Z-3.000000 I3.688317 J4.228634
G02 X265.093412 Y69.010151 Z-3.000000 I8.990483 J-0.753538
G03 X265.861616 Y71.375574 Z-3.000000 I-4.611533 J2.805112
G03 X265.026992 Y73.515581 Z-3.000000 I-2.587133 J0.223752
G03 X262.326271 Y74.697499 Z-3.000000 I-3.085417 J-3.373705
G03 X259.005856 Y73.507672 Z-3.000000 I-0.352384 J-4.244620
G03 X256.434030 Y68.072207 Z-3.000000 I5.981508 J-6.156361
G03 X264.990439 Y53.354593 Z-3.000000 I14.785878 J-1.249940
G02 X274.908758 Y36.300500 Z-3.000000 I-7.220676 J-15.610595
G02 X265.971317 Y20.969414 Z-3.000000 I-20.581697 J1.727711
G02 X244.556756 Y15.329689 Z-3.000000 I-18.642628 J27.311390
G02 X226.519023 Y22.602280 Z-3.000000 I2.774634 J32.886946
G02 X220.774372 Y36.105639 Z-3.000000 I9.901402 J12.185928
G02 X224.898649 Y44.455923 Z-3.000000 I12.667087 J-1.062733
G02 X231.380406 Y46.646719 Z-3.000000 I5.754068 J-6.340202
G02 X236.181453 Y44.280899 Z-3.000000 I-0.605662 J-7.283476
G02 X238.432537 Y37.636693 Z-3.000000 I-6.488807 J-5.901875
G03 X239.427400 Y32.123115 Z-3.000000 I10.742703 J-0.908146
G03 X242.552467 Y29.953582 Z-3.000000 I3.445840 J1.628010
G03 X245.121887 Y30.995194 Z-3.000000 I0.258827 J3.051429
G03 X246.542488 Y34.361164 Z-3.000000 I-4.427999 J3.851594
G03 X239.840381 Y47.570804 Z-3.000000 I-14.039030 J1.182115
G02 X230.526727 Y65.928730 Z-3.000000 I10.195910 J16.714305
G02 X238.592976 Y79.293860 Z-3.000000 I17.556461 J-1.479166
G02 X260.693146 Y84.756065 Z-3.000000 I19.114764 J-29.898723
G02 X265.081241 Y84.071881 Z-3.000000 I-2.743910 J-32.012286
G02 X269.851638 Y82.686821 Z-3.000000 I-9.391944 J-41.255127
G02 X282.338575 Y108.306546 Z-3.000000 I39.327220 J-3.315007
G02 X303.692588 Y115.664813 Z-3.000000 I19.004434 J-20.487423
G02 X318.598016 Y107.789274 Z-3.000000 I-1.802244 J-21.453916
G02 X323.883953 Y90.657585 Z-3.000000 I-18.607992 J-15.122772
G02 X323.218699 Y85.966390 Z-3.000000 I-40.464838 J3.345518
G03 X322.482806 Y80.849555 Z-3.000000 I44.936503 J-9.074009
G03 X323.390969 Y78.273109 Z-3.000000 I3.323117 J-0.276926
G03 X328.532792 Y75.810993 Z-3.000000 I5.809037 J5.531365
G01 X330.778339 Y73.027257 Z-3.000000
G02 X329.601551 Y70.422882 Z-3.000000 I-4.247472 J0.351169
G02 X326.407874 Y68.647512 Z-3.000000 I-4.495829 J4.327251
G03 X320.965603 Y66.002703 Z-3.000000 I2.227621 J-11.505550
G03 X317.138033 Y60.361258 Z-3.000000 I8.639400 J-9.980777
G03 X313.558924 Y49.165011 Z-3.000000 I393.119961 J-131.839011
G03 X311.125163 Y36.476803 Z-3.000000 I58.568976 J-17.811797
G01 X311.115884 Y36.476803 Z-3.000000
G01 X311.115884 Y36.486083 Z-3.000000
G00 Z5.000000

(End cutting path id: path836)


(Start cutting path id: path836)
(Change tool to Cylindrical cutter)

G00 Z5.000000
G00 X311.115884 Y36.486083

G01 Z-4.000000 F100.0(Penetrate)
G03 X313.250542 Y29.841224 Z-4.000000 I9.053908 J-0.756745 F200.000000
G03 X317.787571 Y27.503894 Z-4.000000 I5.111372 J4.349653
G03 X323.180793 Y28.846164 Z-4.000000 I0.730765 J8.569879
G03 X328.300814 Y32.449665 Z-4.000000 I-42.057570 J65.196469
G01 X332.513535 Y34.899353 Z-4.000000
G01 X334.759082 Y32.124896 Z-4.000000
G02 X334.222421 Y30.343010 Z-4.000000 I-4.523066 J0.390481
G02 X332.058858 Y27.169846 Z-4.000000 I-16.978709 J9.252443
G02 X320.311287 Y16.545697 Z-4.000000 I-41.125499 J33.667234
G02 X299.266448 Y11.154085 Z-4.000000 I-18.269846 J27.544378
G02 X285.106971 Y19.487722 Z-4.000000 I1.597279 J18.909726
G02 X281.515491 Y33.368298 Z-4.000000 I17.952696 J12.050026
G02 X286.363542 Y52.827953 Z-4.000000 I62.796253 J-5.310913
G03 X290.154352 Y68.035091 Z-4.000000 I-45.324684 J19.374512
G03 X287.963426 Y71.681777 Z-4.000000 I-3.623847 J0.304293
G02 X285.644700 Y75.541899 Z-4.000000 I1.516541 J3.537442
G02 X286.807026 Y77.846007 Z-4.000000 I3.423028 J-0.281548
G02 X289.226440 Y79.559758 Z-4.000000 I9.568872 J-10.944307
G03 X295.322856 Y84.831462 Z-4.000000 I-10.441581 J18.236000
G03 X299.526263 Y95.529123 Z-4.000000 I-15.792665 J12.380023
G03 X298.452059 Y99.815178 Z-4.000000 I-6.807112 J0.571590
G03 X295.285705 Y101.718296 Z-4.000000 I-3.529653 J-2.286933
G03 X286.939824 Y98.536592 Z-4.000000 I-0.863235 J-10.272493
G03 X279.761738 Y82.519797 Z-4.000000 I19.254094 J-18.245777
G03 X279.720302 Y74.550596 Z-4.000000 I49.973484 J-4.244541
G02 X279.687505 Y68.062928 Z-4.000000 I-40.790485 J-3.037708
G02 X276.493994 Y60.937180 Z-4.000000 I-11.779021 J1.000462
G02 X270.120732 Y58.505434 Z-4.000000 I-5.714187 J5.408494
G02 X265.713851 Y60.374098 Z-4.000000 I0.652255 J7.668933
G02 X263.810930 Y65.075051 Z-4.000000 I3.688317 J4.228634
G02 X265.093412 Y69.010151 Z-4.000000 I8.990483 J-0.753538
G03 X265.861616 Y71.375574 Z-4.000000 I-4.611533 J2.805112
G03 X265.026992 Y73.515581 Z-4.000000 I-2.587133 J0.223752
G03 X262.326271 Y74.697499 Z-4.000000 I-3.085417 J-3.373705
G03 X259.005856 Y73.507672 Z-4.000000 I-0.352384 J-4.244620
G03 X256.434030 Y68.072207 Z-4.000000 I5.981508 J-6.156361
G03 X264.990439 Y53.354593 Z-4.000000 I14.785878 J-1.249940
G02 X274.908758 Y36.300500 Z-4.000000 I-7.220676 J-15.610595
G02 X265.971317 Y20.969414 Z-4.000000 I-20.581697 J1.727711
G02 X244.556756 Y15.329689 Z-4.000000 I-18.642628 J27.311390
G02 X226.519023 Y22.602280 Z-4.000000 I2.774634 J32.886946
G02 X220.774372 Y36.105639 Z-4.000000 I9.901402 J12.185928
G02 X224.898649 Y44.455923 Z-4.000000 I12.667087 J-1.062733
G02 X231.380406 Y46.646719 Z-4.000000 I5.754068 J-6.340202
G02 X236.181453 Y44.280899 Z-4.000000 I-0.605662 J-7.283476
G02 X238.432537 Y37.636693 Z-4.000000 I-6.488807 J-5.901875
G03 X239.427400 Y32.123115 Z-4.000000 I10.742703 J-0.908146
G03 X242.552467 Y29.953582 Z-4.000000 I3.445840 J1.628010
G03 X245.121887 Y30.995194 Z-4.000000 I0.258827 J3.051429
G03 X246.542488 Y34.361164 Z-4.000000 I-4.427999 J3.851594
G03 X239.840381 Y47.570804 Z-4.000000 I-14.039030 J1.182115
G02 X230.526727 Y65.928730 Z-4.000000 I10.195910 J16.714305
G02 X238.592976 Y79.293860 Z-4.000000 I17.556461 J-1.479166
G02 X260.693146 Y84.756065 Z-4.000000 I19.114764 J-29.898723
G02 X265.081241 Y84.071881 Z-4.000000 I-2.743910 J-32.012286
G02 X269.851638 Y82.686821 Z-4.000000 I-9.391944 J-41.255127
G02 X282.338575 Y108.306546 Z-4.000000 I39.327220 J-3.315007
G02 X303.692588 Y115.664813 Z-4.000000 I19.004434 J-20.487423
G02 X318.598016 Y107.789274 Z-4.000000 I-1.802244 J-21.453916
G02 X323.883953 Y90.657585 Z-4.000000 I-18.607992 J-15.122772
G02 X323.218699 Y85.966390 Z-4.000000 I-40.464838 J3.345518
G03 X322.482806 Y80.849555 Z-4.000000 I44.936503 J-9.074009
G03 X323.390969 Y78.273109 Z-4.000000 I3.323117 J-0.276926
G03 X328.532792 Y75.810993 Z-4.000000 I5.809037 J5.531365
G01 X330.778339 Y73.027257 Z-4.000000
G02 X329.601551 Y70.422882 Z-4.000000 I-4.247472 J0.351169
G02 X326.407874 Y68.647512 Z-4.000000 I-4.495829 J4.327251
G03 X320.965603 Y66.002703 Z-4.000000 I2.227621 J-11.505550
G03 X317.138033 Y60.361258 Z-4.000000 I8.639400 J-9.980777
G03 X313.558924 Y49.165011 Z-4.000000 I393.119961 J-131.839011
G03 X311.125163 Y36.476803 Z-4.000000 I58.568976 J-17.811797
G01 X311.115884 Y36.476803 Z-4.000000
G01 X311.115884 Y36.486083 Z-4.000000
G00 Z5.000000

(End cutting path id: path836)


(Start cutting path id: path836)
(Change tool to Cylindrical cutter)

G00 Z5.000000
G00 X311.115884 Y36.486083

G01 Z-5.000000 F100.0(Penetrate)
G03 X313.250542 Y29.841224 Z-5.000000 I9.053908 J-0.756745 F200.000000
G03 X317.787571 Y27.503894 Z-5.000000 I5.111372 J4.349653
G03 X323.180793 Y28.846164 Z-5.000000 I0.730765 J8.569879
G03 X328.300814 Y32.449665 Z-5.000000 I-42.057570 J65.196469
G01 X332.513535 Y34.899353 Z-5.000000
G01 X334.759082 Y32.124896 Z-5.000000
G02 X334.222421 Y30.343010 Z-5.000000 I-4.523066 J0.390481
G02 X332.058858 Y27.169846 Z-5.000000 I-16.978709 J9.252443
G02 X320.311287 Y16.545697 Z-5.000000 I-41.125499 J33.667234
G02 X299.266448 Y11.154085 Z-5.000000 I-18.269846 J27.544378
G02 X285.106971 Y19.487722 Z-5.000000 I1.597279 J18.909726
G02 X281.515491 Y33.368298 Z-5.000000 I17.952696 J12.050026
G02 X286.363542 Y52.827953 Z-5.000000 I62.796253 J-5.310913
G03 X290.154352 Y68.035091 Z-5.000000 I-45.324684 J19.374512
G03 X287.963426 Y71.681777 Z-5.000000 I-3.623847 J0.304293
G02 X285.644700 Y75.541899 Z-5.000000 I1.516541 J3.537442
G02 X286.807026 Y77.846007 Z-5.000000 I3.423028 J-0.281548
G02 X289.226440 Y79.559758 Z-5.000000 I9.568872 J-10.944307
G03 X295.322856 Y84.831462 Z-5.000000 I-10.441581 J18.236000
G03 X299.526263 Y95.529123 Z-5.000000 I-15.792665 J12.380023
G03 X298.452059 Y99.815178 Z-5.000000 I-6.807112 J0.571590
G03 X295.285705 Y101.718296 Z-5.000000 I-3.529653 J-2.286933
G03 X286.939824 Y98.536592 Z-5.000000 I-0.863235 J-10.272493
G03 X279.761738 Y82.519797 Z-5.000000 I19.254094 J-18.245777
G03 X279.720302 Y74.550596 Z-5.000000 I49.973484 J-4.244541
G02 X279.687505 Y68.062928 Z-5.000000 I-40.790485 J-3.037708
G02 X276.493994 Y60.937180 Z-5.000000 I-11.779021 J1.000462
G02 X270.120732 Y58.505434 Z-5.000000 I-5.714187 J5.408494
G02 X265.713851 Y60.374098 Z-5.000000 I0.652255 J7.668933
G02 X263.810930 Y65.075051 Z-5.000000 I3.688317 J4.228634
G02 X265.093412 Y69.010151 Z-5.000000 I8.990483 J-0.753538
G03 X265.861616 Y71.375574 Z-5.000000 I-4.611533 J2.805112
G03 X265.026992 Y73.515581 Z-5.000000 I-2.587133 J0.223752
G03 X262.326271 Y74.697499 Z-5.000000 I-3.085417 J-3.373705
G03 X259.005856 Y73.507672 Z-5.000000 I-0.352384 J-4.244620
G03 X256.434030 Y68.072207 Z-5.000000 I5.981508 J-6.156361
G03 X264.990439 Y53.354593 Z-5.000000 I14.785878 J-1.249940
G02 X274.908758 Y36.300500 Z-5.000000 I-7.220676 J-15.610595
G02 X265.971317 Y20.969414 Z-5.000000 I-20.581697 J1.727711
G02 X244.556756 Y15.329689 Z-5.000000 I-18.642628 J27.311390
G02 X226.519023 Y22.602280 Z-5.000000 I2.774634 J32.886946
G02 X220.774372 Y36.105639 Z-5.000000 I9.901402 J12.185928
G02 X224.898649 Y44.455923 Z-5.000000 I12.667087 J-1.062733
G02 X231.380406 Y46.646719 Z-5.000000 I5.754068 J-6.340202
G02 X236.181453 Y44.280899 Z-5.000000 I-0.605662 J-7.283476
G02 X238.432537 Y37.636693 Z-5.000000 I-6.488807 J-5.901875
G03 X239.427400 Y32.123115 Z-5.000000 I10.742703 J-0.908146
G03 X242.552467 Y29.953582 Z-5.000000 I3.445840 J1.628010
G03 X245.121887 Y30.995194 Z-5.000000 I0.258827 J3.051429
G03 X246.542488 Y34.361164 Z-5.000000 I-4.427999 J3.851594
G03 X239.840381 Y47.570804 Z-5.000000 I-14.039030 J1.182115
G02 X230.526727 Y65.928730 Z-5.000000 I10.195910 J16.714305
G02 X238.592976 Y79.293860 Z-5.000000 I17.556461 J-1.479166
G02 X260.693146 Y84.756065 Z-5.000000 I19.114764 J-29.898723
G02 X265.081241 Y84.071881 Z-5.000000 I-2.743910 J-32.012286
G02 X269.851638 Y82.686821 Z-5.000000 I-9.391944 J-41.255127
G02 X282.338575 Y108.306546 Z-5.000000 I39.327220 J-3.315007
G02 X303.692588 Y115.664813 Z-5.000000 I19.004434 J-20.487423
G02 X318.598016 Y107.789274 Z-5.000000 I-1.802244 J-21.453916
G02 X323.883953 Y90.657585 Z-5.000000 I-18.607992 J-15.122772
G02 X323.218699 Y85.966390 Z-5.000000 I-40.464838 J3.345518
G03 X322.482806 Y80.849555 Z-5.000000 I44.936503 J-9.074009
G03 X323.390969 Y78.273109 Z-5.000000 I3.323117 J-0.276926
G03 X328.532792 Y75.810993 Z-5.000000 I5.809037 J5.531365
G01 X330.778339 Y73.027257 Z-5.000000
G02 X329.601551 Y70.422882 Z-5.000000 I-4.247472 J0.351169
G02 X326.407874 Y68.647512 Z-5.000000 I-4.495829 J4.327251
G03 X320.965603 Y66.002703 Z-5.000000 I2.227621 J-11.505550
G03 X317.138033 Y60.361258 Z-5.000000 I8.639400 J-9.980777
G03 X313.558924 Y49.165011 Z-5.000000 I393.119961 J-131.839011
G03 X311.125163 Y36.476803 Z-5.000000 I58.568976 J-17.811797
G01 X311.115884 Y36.476803 Z-5.000000
G01 X311.115884 Y36.486083 Z-5.000000
G00 Z5.000000

(End cutting path id: path836)


(Start cutting path id: path836)
(Change tool to Cylindrical cutter)

G00 Z5.000000
G00 X311.115884 Y36.486083

G01 Z-6.000000 F100.0(Penetrate)
G03 X313.250542 Y29.841224 Z-6.000000 I9.053908 J-0.756745 F200.000000
G03 X317.787571 Y27.503894 Z-6.000000 I5.111372 J4.349653
G03 X323.180793 Y28.846164 Z-6.000000 I0.730765 J8.569879
G03 X328.300814 Y32.449665 Z-6.000000 I-42.057570 J65.196469
G01 X332.513535 Y34.899353 Z-6.000000
G01 X334.759082 Y32.124896 Z-6.000000
G02 X334.222421 Y30.343010 Z-6.000000 I-4.523066 J0.390481
G02 X332.058858 Y27.169846 Z-6.000000 I-16.978709 J9.252443
G02 X320.311287 Y16.545697 Z-6.000000 I-41.125499 J33.667234
G02 X299.266448 Y11.154085 Z-6.000000 I-18.269846 J27.544378
G02 X285.106971 Y19.487722 Z-6.000000 I1.597279 J18.909726
G02 X281.515491 Y33.368298 Z-6.000000 I17.952696 J12.050026
G02 X286.363542 Y52.827953 Z-6.000000 I62.796253 J-5.310913
G03 X290.154352 Y68.035091 Z-6.000000 I-45.324684 J19.374512
G03 X287.963426 Y71.681777 Z-6.000000 I-3.623847 J0.304293
G02 X285.644700 Y75.541899 Z-6.000000 I1.516541 J3.537442
G02 X286.807026 Y77.846007 Z-6.000000 I3.423028 J-0.281548
G02 X289.226440 Y79.559758 Z-6.000000 I9.568872 J-10.944307
G03 X295.322856 Y84.831462 Z-6.000000 I-10.441581 J18.236000
G03 X299.526263 Y95.529123 Z-6.000000 I-15.792665 J12.380023
G03 X298.452059 Y99.815178 Z-6.000000 I-6.807112 J0.571590
G03 X295.285705 Y101.718296 Z-6.000000 I-3.529653 J-2.286933
G03 X286.939824 Y98.536592 Z-6.000000 I-0.863235 J-10.272493
G03 X279.761738 Y82.519797 Z-6.000000 I19.254094 J-18.245777
G03 X279.720302 Y74.550596 Z-6.000000 I49.973484 J-4.244541
G02 X279.687505 Y68.062928 Z-6.000000 I-40.790485 J-3.037708
G02 X276.493994 Y60.937180 Z-6.000000 I-11.779021 J1.000462
G02 X270.120732 Y58.505434 Z-6.000000 I-5.714187 J5.408494
G02 X265.713851 Y60.374098 Z-6.000000 I0.652255 J7.668933
G02 X263.810930 Y65.075051 Z-6.000000 I3.688317 J4.228634
G02 X265.093412 Y69.010151 Z-6.000000 I8.990483 J-0.753538
G03 X265.861616 Y71.375574 Z-6.000000 I-4.611533 J2.805112
G03 X265.026992 Y73.515581 Z-6.000000 I-2.587133 J0.223752
G03 X262.326271 Y74.697499 Z-6.000000 I-3.085417 J-3.373705
G03 X259.005856 Y73.507672 Z-6.000000 I-0.352384 J-4.244620
G03 X256.434030 Y68.072207 Z-6.000000 I5.981508 J-6.156361
G03 X264.990439 Y53.354593 Z-6.000000 I14.785878 J-1.249940
G02 X274.908758 Y36.300500 Z-6.000000 I-7.220676 J-15.610595
G02 X265.971317 Y20.969414 Z-6.000000 I-20.581697 J1.727711
G02 X244.556756 Y15.329689 Z-6.000000 I-18.642628 J27.311390
G02 X226.519023 Y22.602280 Z-6.000000 I2.774634 J32.886946
G02 X220.774372 Y36.105639 Z-6.000000 I9.901402 J12.185928
G02 X224.898649 Y44.455923 Z-6.000000 I12.667087 J-1.062733
G02 X231.380406 Y46.646719 Z-6.000000 I5.754068 J-6.340202
G02 X236.181453 Y44.280899 Z-6.000000 I-0.605662 J-7.283476
G02 X238.432537 Y37.636693 Z-6.000000 I-6.488807 J-5.901875
G03 X239.427400 Y32.123115 Z-6.000000 I10.742703 J-0.908146
G03 X242.552467 Y29.953582 Z-6.000000 I3.445840 J1.628010
G03 X245.121887 Y30.995194 Z-6.000000 I0.258827 J3.051429
G03 X246.542488 Y34.361164 Z-6.000000 I-4.427999 J3.851594
G03 X239.840381 Y47.570804 Z-6.000000 I-14.039030 J1.182115
G02 X230.526727 Y65.928730 Z-6.000000 I10.195910 J16.714305
G02 X238.592976 Y79.293860 Z-6.000000 I17.556461 J-1.479166
G02 X260.693146 Y84.756065 Z-6.000000 I19.114764 J-29.898723
G02 X265.081241 Y84.071881 Z-6.000000 I-2.743910 J-32.012286
G02 X269.851638 Y82.686821 Z-6.000000 I-9.391944 J-41.255127
G02 X282.338575 Y108.306546 Z-6.000000 I39.327220 J-3.315007
G02 X303.692588 Y115.664813 Z-6.000000 I19.004434 J-20.487423
G02 X318.598016 Y107.789274 Z-6.000000 I-1.802244 J-21.453916
G02 X323.883953 Y90.657585 Z-6.000000 I-18.607992 J-15.122772
G02 X323.218699 Y85.966390 Z-6.000000 I-40.464838 J3.345518
G03 X322.482806 Y80.849555 Z-6.000000 I44.936503 J-9.074009
G03 X323.390969 Y78.273109 Z-6.000000 I3.323117 J-0.276926
G03 X328.532792 Y75.810993 Z-6.000000 I5.809037 J5.531365
G01 X330.778339 Y73.027257 Z-6.000000
G02 X329.601551 Y70.422882 Z-6.000000 I-4.247472 J0.351169
G02 X326.407874 Y68.647512 Z-6.000000 I-4.495829 J4.327251
G03 X320.965603 Y66.002703 Z-6.000000 I2.227621 J-11.505550
G03 X317.138033 Y60.361258 Z-6.000000 I8.639400 J-9.980777
G03 X313.558924 Y49.165011 Z-6.000000 I393.119961 J-131.839011
G03 X311.125163 Y36.476803 Z-6.000000 I58.568976 J-17.811797
G01 X311.115884 Y36.476803 Z-6.000000
G01 X311.115884 Y36.486083 Z-6.000000
G00 Z5.000000

(End cutting path id: path836)


(Start cutting path id: path836)
(Change tool to Cylindrical cutter)

G00 Z5.000000
G00 X311.115884 Y36.486083

G01 Z-6.350000 F100.0(Penetrate)
G03 X313.250542 Y29.841224 Z-6.350000 I9.053908 J-0.756745 F200.000000
G03 X317.787571 Y27.503894 Z-6.350000 I5.111372 J4.349653
G03 X323.180793 Y28.846164 Z-6.350000 I0.730765 J8.569879
G03 X328.300814 Y32.449665 Z-6.350000 I-42.057570 J65.196469
G01 X332.513535 Y34.899353 Z-6.350000
G01 X334.759082 Y32.124896 Z-6.350000
G02 X334.222421 Y30.343010 Z-6.350000 I-4.523066 J0.390481
G02 X332.058858 Y27.169846 Z-6.350000 I-16.978709 J9.252443
G02 X320.311287 Y16.545697 Z-6.350000 I-41.125499 J33.667234
G02 X299.266448 Y11.154085 Z-6.350000 I-18.269846 J27.544378
G02 X285.106971 Y19.487722 Z-6.350000 I1.597279 J18.909726
G02 X281.515491 Y33.368298 Z-6.350000 I17.952696 J12.050026
G02 X286.363542 Y52.827953 Z-6.350000 I62.796253 J-5.310913
G03 X290.154352 Y68.035091 Z-6.350000 I-45.324684 J19.374512
G03 X287.963426 Y71.681777 Z-6.350000 I-3.623847 J0.304293
G02 X285.644700 Y75.541899 Z-6.350000 I1.516541 J3.537442
G02 X286.807026 Y77.846007 Z-6.350000 I3.423028 J-0.281548
G02 X289.226440 Y79.559758 Z-6.350000 I9.568872 J-10.944307
G03 X295.322856 Y84.831462 Z-6.350000 I-10.441581 J18.236000
G03 X299.526263 Y95.529123 Z-6.350000 I-15.792665 J12.380023
G03 X298.452059 Y99.815178 Z-6.350000 I-6.807112 J0.571590
G03 X295.285705 Y101.718296 Z-6.350000 I-3.529653 J-2.286933
G03 X286.939824 Y98.536592 Z-6.350000 I-0.863235 J-10.272493
G03 X279.761738 Y82.519797 Z-6.350000 I19.254094 J-18.245777
G03 X279.720302 Y74.550596 Z-6.350000 I49.973484 J-4.244541
G02 X279.687505 Y68.062928 Z-6.350000 I-40.790485 J-3.037708
G02 X276.493994 Y60.937180 Z-6.350000 I-11.779021 J1.000462
G02 X270.120732 Y58.505434 Z-6.350000 I-5.714187 J5.408494
G02 X265.713851 Y60.374098 Z-6.350000 I0.652255 J7.668933
G02 X263.810930 Y65.075051 Z-6.350000 I3.688317 J4.228634
G02 X265.093412 Y69.010151 Z-6.350000 I8.990483 J-0.753538
G03 X265.861616 Y71.375574 Z-6.350000 I-4.611533 J2.805112
G03 X265.026992 Y73.515581 Z-6.350000 I-2.587133 J0.223752
G03 X262.326271 Y74.697499 Z-6.350000 I-3.085417 J-3.373705
G03 X259.005856 Y73.507672 Z-6.350000 I-0.352384 J-4.244620
G03 X256.434030 Y68.072207 Z-6.350000 I5.981508 J-6.156361
G03 X264.990439 Y53.354593 Z-6.350000 I14.785878 J-1.249940
G02 X274.908758 Y36.300500 Z-6.350000 I-7.220676 J-15.610595
G02 X265.971317 Y20.969414 Z-6.350000 I-20.581697 J1.727711
G02 X244.556756 Y15.329689 Z-6.350000 I-18.642628 J27.311390
G02 X226.519023 Y22.602280 Z-6.350000 I2.774634 J32.886946
G02 X220.774372 Y36.105639 Z-6.350000 I9.901402 J12.185928
G02 X224.898649 Y44.455923 Z-6.350000 I12.667087 J-1.062733
G02 X231.380406 Y46.646719 Z-6.350000 I5.754068 J-6.340202
G02 X236.181453 Y44.280899 Z-6.350000 I-0.605662 J-7.283476
G02 X238.432537 Y37.636693 Z-6.350000 I-6.488807 J-5.901875
G03 X239.427400 Y32.123115 Z-6.350000 I10.742703 J-0.908146
G03 X242.552467 Y29.953582 Z-6.350000 I3.445840 J1.628010
G03 X245.121887 Y30.995194 Z-6.350000 I0.258827 J3.051429
G03 X246.542488 Y34.361164 Z-6.350000 I-4.427999 J3.851594
G03 X239.840381 Y47.570804 Z-6.350000 I-14.039030 J1.182115
G02 X230.526727 Y65.928730 Z-6.350000 I10.195910 J16.714305
G02 X238.592976 Y79.293860 Z-6.350000 I17.556461 J-1.479166
G02 X260.693146 Y84.756065 Z-6.350000 I19.114764 J-29.898723
G02 X265.081241 Y84.071881 Z-6.350000 I-2.743910 J-32.012286
G02 X269.851638 Y82.686821 Z-6.350000 I-9.391944 J-41.255127
G02 X282.338575 Y108.306546 Z-6.350000 I39.327220 J-3.315007
G02 X303.692588 Y115.664813 Z-6.350000 I19.004434 J-20.487423
G02 X318.598016 Y107.789274 Z-6.350000 I-1.802244 J-21.453916
G02 X323.883953 Y90.657585 Z-6.350000 I-18.607992 J-15.122772
G02 X323.218699 Y85.966390 Z-6.350000 I-40.464838 J3.345518
G03 X322.482806 Y80.849555 Z-6.350000 I44.936503 J-9.074009
G03 X323.390969 Y78.273109 Z-6.350000 I3.323117 J-0.276926
G03 X328.532792 Y75.810993 Z-6.350000 I5.809037 J5.531365
G01 X330.778339 Y73.027257 Z-6.350000
G02 X329.601551 Y70.422882 Z-6.350000 I-4.247472 J0.351169
G02 X326.407874 Y68.647512 Z-6.350000 I-4.495829 J4.327251
G03 X320.965603 Y66.002703 Z-6.350000 I2.227621 J-11.505550
G03 X317.138033 Y60.361258 Z-6.350000 I8.639400 J-9.980777
G03 X313.558924 Y49.165011 Z-6.350000 I393.119961 J-131.839011
G03 X311.125163 Y36.476803 Z-6.350000 I58.568976 J-17.811797
G01 X311.115884 Y36.476803 Z-6.350000
G01 X311.115884 Y36.486083 Z-6.350000
G00 Z5.000000

(End cutting path id: path836)


(Start cutting path id: path834)
(Change tool to Cylindrical cutter)

G00 Z5.000000
G00 X208.034140 Y41.895809

G01 Z-1.000000 F100.0(Penetrate)
G03 X210.441888 Y35.139194 Z-1.000000 I12.838535 J0.767753 F200.000000
G03 X214.056289 Y33.423973 Z-1.000000 I3.366673 J2.428588
G03 X217.699907 Y34.906895 Z-1.000000 I-0.370927 J6.129132
G03 X220.987792 Y38.360465 Z-1.000000 I-16.032889 J18.555567
G01 X224.077739 Y40.698803 Z-1.000000
G01 X226.907870 Y37.850113 Z-1.000000
G02 X226.361777 Y34.821168 Z-1.000000 I-6.533208 J-0.385819
G02 X224.281879 Y30.797982 Z-1.000000 I-33.760577 J14.904248
G02 X217.055453 Y22.131633 Z-1.000000 I-31.832491 J19.197441
G02 X200.109772 Y15.134827 Z-1.000000 I-18.626223 J21.092246
G02 X189.855246 Y18.138992 Z-1.000000 I-0.938394 J15.800522
G02 X184.687874 Y24.989253 Z-1.000000 I8.678555 J11.920600
G02 X174.809171 Y16.670166 Z-1.000000 I-26.837548 J21.844004
G02 X161.824123 Y12.852164 Z-1.000000 I-14.786798 J26.299877
G02 X146.921729 Y18.557645 Z-1.000000 I-1.148150 J19.315940
G02 X138.923254 Y36.476803 Z-1.000000 I19.781033 J19.574246
G02 X148.489838 Y68.448441 Z-1.000000 I48.529115 J2.896152
G02 X173.311673 Y81.833142 Z-1.000000 I26.806486 J-20.004131
G02 X183.725584 Y80.472499 Z-1.000000 I1.669275 J-27.756553
G02 X186.794234 Y78.975173 Z-1.000000 I-4.017252 J-12.126180
G02 X190.934203 Y104.852436 Z-1.000000 I637.168046 J-88.667398
G02 X196.472357 Y130.400056 Z-1.000000 I373.260061 J-67.540365
G02 X161.003766 Y143.208296 Z-1.000000 I174.496505 J538.729836
G03 X130.479255 Y154.178961 Z-1.000000 I-172.751071 J-432.707724
G03 X99.496740 Y161.689824 Z-1.000000 I-67.286620 J-209.901856
G03 X61.340532 Y163.712097 Z-1.000000 I-28.027585 J-167.847505
G03 X36.883385 Y150.694977 Z-1.000000 I1.975809 J-33.196388
G03 X31.099880 Y131.745528 Z-1.000000 I22.604032 J-17.256217
G03 X34.616699 Y120.293973 Z-1.000000 I25.301549 J1.504417
G02 X35.581695 Y117.149473 Z-1.000000 I-5.976582 J-3.554436
G01 X33.679475 Y114.022409 Z-1.000000
G02 X20.293155 Y118.251616 Z-1.000000 I-1.161406 J19.623756
G02 X0.107619 Y157.049689 Z-1.000000 I33.355680 J42.004031
G02 X13.692434 Y195.866098 Z-1.000000 I53.173995 J3.175758
G02 X53.332651 Y214.951397 Z-1.000000 I43.092832 J-38.794858
G02 X89.551863 Y209.424319 Z-1.000000 I5.208029 J-87.308188
G02 X128.836851 Y191.121457 Z-1.000000 I-104.554918 J-275.726896
G02 X167.342781 Y168.308694 Z-1.000000 I-431.507505 J-772.250254
G03 X200.750031 Y150.916190 Z-1.000000 I124.984821 J199.288581
G02 X212.520313 Y186.545770 Z-1.000000 I196.761213 J-45.241392
G02 X225.499764 Y207.914345 Z-1.000000 I85.911892 J-37.557399
G02 X243.875113 Y223.416882 Z-1.000000 I49.399927 J-39.912812
G02 X263.625348 Y229.204126 Z-1.000000 I22.498403 J-40.186103
G02 X281.147805 Y226.864234 Z-1.000000 I2.748973 J-46.193179
G02 X293.251258 Y219.604876 Z-1.000000 I-10.544758 J-31.300829
G02 X301.418477 Y207.886474 Z-1.000000 I-23.878871 J-25.347837
G02 X305.492737 Y190.547312 Z-1.000000 I-48.064518 J-20.442191
G02 X300.530158 Y161.301488 Z-1.000000 I-65.630482 J-3.907438
G02 X287.316101 Y142.494229 Z-1.000000 I-49.292536 J20.587382
G02 X266.683027 Y129.823503 Z-1.000000 I-43.122650 J47.086279
G02 X241.531763 Y124.470698 Z-1.000000 I-30.253397 J80.386242
G02 X231.893897 Y124.704040 Z-1.000000 I-3.413894 J58.149986
G02 X221.266165 Y126.280127 Z-1.000000 I14.291861 J132.991670
G03 X218.400508 Y114.445537 Z-1.000000 I260.114689 J-69.249076
G03 X212.816367 Y86.161851 Z-1.000000 I703.386860 J-153.565069
G03 X208.565910 Y58.041633 Z-1.000000 I562.745045 J-99.441977
G03 X208.034140 Y41.895809 Z-1.000000 I87.036759 J-10.948261
G01 X208.034140 Y41.895809 Z-1.000000
G00 Z5.000000

(End cutting path id: path834)


(Start cutting path id: path834)
(Change tool to Cylindrical cutter)

G00 Z5.000000
G00 X208.034140 Y41.895809

G01 Z-2.000000 F100.0(Penetrate)
G03 X210.441888 Y35.139194 Z-2.000000 I12.838535 J0.767753 F200.000000
G03 X214.056289 Y33.423973 Z-2.000000 I3.366673 J2.428588
G03 X217.699907 Y34.906895 Z-2.000000 I-0.370927 J6.129132
G03 X220.987792 Y38.360465 Z-2.000000 I-16.032889 J18.555567
G01 X224.077739 Y40.698803 Z-2.000000
G01 X226.907870 Y37.850113 Z-2.000000
G02 X226.361777 Y34.821168 Z-2.000000 I-6.533208 J-0.385819
G02 X224.281879 Y30.797982 Z-2.000000 I-33.760577 J14.904248
G02 X217.055453 Y22.131633 Z-2.000000 I-31.832491 J19.197441
G02 X200.109772 Y15.134827 Z-2.000000 I-18.626223 J21.092246
G02 X189.855246 Y18.138992 Z-2.000000 I-0.938394 J15.800522
G02 X184.687874 Y24.989253 Z-2.000000 I8.678555 J11.920600
G02 X174.809171 Y16.670166 Z-2.000000 I-26.837548 J21.844004
G02 X161.824123 Y12.852164 Z-2.000000 I-14.786798 J26.299877
G02 X146.921729 Y18.557645 Z-2.000000 I-1.148150 J19.315940
G02 X138.923254 Y36.476803 Z-2.000000 I19.781033 J19.574246
G02 X148.489838 Y68.448441 Z-2.000000 I48.529115 J2.896152
G02 X173.311673 Y81.833142 Z-2.000000 I26.806486 J-20.004131
G02 X183.725584 Y80.472499 Z-2.000000 I1.669275 J-27.756553
G02 X186.794234 Y78.975173 Z-2.000000 I-4.017252 J-12.126180
G02 X190.934203 Y104.852436 Z-2.000000 I637.168046 J-88.667398
G02 X196.472357 Y130.400056 Z-2.000000 I373.260061 J-67.540365
G02 X161.003766 Y143.208296 Z-2.000000 I174.496505 J538.729836
G03 X130.479255 Y154.178961 Z-2.000000 I-172.751071 J-432.707724
G03 X99.496740 Y161.689824 Z-2.000000 I-67.286620 J-209.901856
G03 X61.340532 Y163.712097 Z-2.000000 I-28.027585 J-167.847505
G03 X36.883385 Y150.694977 Z-2.000000 I1.975809 J-33.196388
G03 X31.099880 Y131.745528 Z-2.000000 I22.604032 J-17.256217
G03 X34.616699 Y120.293973 Z-2.000000 I25.301549 J1.504417
G02 X35.581695 Y117.149473 Z-2.000000 I-5.976582 J-3.554436
G01 X33.679475 Y114.022409 Z-2.000000
G02 X20.293155 Y118.251616 Z-2.000000 I-1.161406 J19.623756
G02 X0.107619 Y157.049689 Z-2.000000 I33.355680 J42.004031
G02 X13.692434 Y195.866098 Z-2.000000 I53.173995 J3.175758
G02 X53.332651 Y214.951397 Z-2.000000 I43.092832 J-38.794858
G02 X89.551863 Y209.424319 Z-2.000000 I5.208029 J-87.308188
G02 X128.836851 Y191.121457 Z-2.000000 I-104.554918 J-275.726896
G02 X167.342781 Y168.308694 Z-2.000000 I-431.507505 J-772.250254
G03 X200.750031 Y150.916190 Z-2.000000 I124.984821 J199.288581
G02 X212.520313 Y186.545770 Z-2.000000 I196.761213 J-45.241392
G02 X225.499764 Y207.914345 Z-2.000000 I85.911892 J-37.557399
G02 X243.875113 Y223.416882 Z-2.000000 I49.399927 J-39.912812
G02 X263.625348 Y229.204126 Z-2.000000 I22.498403 J-40.186103
G02 X281.147805 Y226.864234 Z-2.000000 I2.748973 J-46.193179
G02 X293.251258 Y219.604876 Z-2.000000 I-10.544758 J-31.300829
G02 X301.418477 Y207.886474 Z-2.000000 I-23.878871 J-25.347837
G02 X305.492737 Y190.547312 Z-2.000000 I-48.064518 J-20.442191
G02 X300.530158 Y161.301488 Z-2.000000 I-65.630482 J-3.907438
G02 X287.316101 Y142.494229 Z-2.000000 I-49.292536 J20.587382
G02 X266.683027 Y129.823503 Z-2.000000 I-43.122650 J47.086279
G02 X241.531763 Y124.470698 Z-2.000000 I-30.253397 J80.386242
G02 X231.893897 Y124.704040 Z-2.000000 I-3.413894 J58.149986
G02 X221.266165 Y126.280127 Z-2.000000 I14.291861 J132.991670
G03 X218.400508 Y114.445537 Z-2.000000 I260.114689 J-69.249076
G03 X212.816367 Y86.161851 Z-2.000000 I703.386860 J-153.565069
G03 X208.565910 Y58.041633 Z-2.000000 I562.745045 J-99.441977
G03 X208.034140 Y41.895809 Z-2.000000 I87.036759 J-10.948261
G01 X208.034140 Y41.895809 Z-2.000000
G00 Z5.000000

(End cutting path id: path834)


(Start cutting path id: path834)
(Change tool to Cylindrical cutter)

G00 Z5.000000
G00 X208.034140 Y41.895809

G01 Z-3.000000 F100.0(Penetrate)
G03 X210.441888 Y35.139194 Z-3.000000 I12.838535 J0.767753 F200.000000
G03 X214.056289 Y33.423973 Z-3.000000 I3.366673 J2.428588
G03 X217.699907 Y34.906895 Z-3.000000 I-0.370927 J6.129132
G03 X220.987792 Y38.360465 Z-3.000000 I-16.032889 J18.555567
G01 X224.077739 Y40.698803 Z-3.000000
G01 X226.907870 Y37.850113 Z-3.000000
G02 X226.361777 Y34.821168 Z-3.000000 I-6.533208 J-0.385819
G02 X224.281879 Y30.797982 Z-3.000000 I-33.760577 J14.904248
G02 X217.055453 Y22.131633 Z-3.000000 I-31.832491 J19.197441
G02 X200.109772 Y15.134827 Z-3.000000 I-18.626223 J21.092246
G02 X189.855246 Y18.138992 Z-3.000000 I-0.938394 J15.800522
G02 X184.687874 Y24.989253 Z-3.000000 I8.678555 J11.920600
G02 X174.809171 Y16.670166 Z-3.000000 I-26.837548 J21.844004
G02 X161.824123 Y12.852164 Z-3.000000 I-14.786798 J26.299877
G02 X146.921729 Y18.557645 Z-3.000000 I-1.148150 J19.315940
G02 X138.923254 Y36.476803 Z-3.000000 I19.781033 J19.574246
G02 X148.489838 Y68.448441 Z-3.000000 I48.529115 J2.896152
G02 X173.311673 Y81.833142 Z-3.000000 I26.806486 J-20.004131
G02 X183.725584 Y80.472499 Z-3.000000 I1.669275 J-27.756553
G02 X186.794234 Y78.975173 Z-3.000000 I-4.017252 J-12.126180
G02 X190.934203 Y104.852436 Z-3.000000 I637.168046 J-88.667398
G02 X196.472357 Y130.400056 Z-3.000000 I373.260061 J-67.540365
G02 X161.003766 Y143.208296 Z-3.000000 I174.496505 J538.729836
G03 X130.479255 Y154.178961 Z-3.000000 I-172.751071 J-432.707724
G03 X99.496740 Y161.689824 Z-3.000000 I-67.286620 J-209.901856
G03 X61.340532 Y163.712097 Z-3.000000 I-28.027585 J-167.847505
G03 X36.883385 Y150.694977 Z-3.000000 I1.975809 J-33.196388
G03 X31.099880 Y131.745528 Z-3.000000 I22.604032 J-17.256217
G03 X34.616699 Y120.293973 Z-3.000000 I25.301549 J1.504417
G02 X35.581695 Y117.149473 Z-3.000000 I-5.976582 J-3.554436
G01 X33.679475 Y114.022409 Z-3.000000
G02 X20.293155 Y118.251616 Z-3.000000 I-1.161406 J19.623756
G02 X0.107619 Y157.049689 Z-3.000000 I33.355680 J42.004031
G02 X13.692434 Y195.866098 Z-3.000000 I53.173995 J3.175758
G02 X53.332651 Y214.951397 Z-3.000000 I43.092832 J-38.794858
G02 X89.551863 Y209.424319 Z-3.000000 I5.208029 J-87.308188
G02 X128.836851 Y191.121457 Z-3.000000 I-104.554918 J-275.726896
G02 X167.342781 Y168.308694 Z-3.000000 I-431.507505 J-772.250254
G03 X200.750031 Y150.916190 Z-3.000000 I124.984821 J199.288581
G02 X212.520313 Y186.545770 Z-3.000000 I196.761213 J-45.241392
G02 X225.499764 Y207.914345 Z-3.000000 I85.911892 J-37.557399
G02 X243.875113 Y223.416882 Z-3.000000 I49.399927 J-39.912812
G02 X263.625348 Y229.204126 Z-3.000000 I22.498403 J-40.186103
G02 X281.147805 Y226.864234 Z-3.000000 I2.748973 J-46.193179
G02 X293.251258 Y219.604876 Z-3.000000 I-10.544758 J-31.300829
G02 X301.418477 Y207.886474 Z-3.000000 I-23.878871 J-25.347837
G02 X305.492737 Y190.547312 Z-3.000000 I-48.064518 J-20.442191
G02 X300.530158 Y161.301488 Z-3.000000 I-65.630482 J-3.907438
G02 X287.316101 Y142.494229 Z-3.000000 I-49.292536 J20.587382
G02 X266.683027 Y129.823503 Z-3.000000 I-43.122650 J47.086279
G02 X241.531763 Y124.470698 Z-3.000000 I-30.253397 J80.386242
G02 X231.893897 Y124.704040 Z-3.000000 I-3.413894 J58.149986
G02 X221.266165 Y126.280127 Z-3.000000 I14.291861 J132.991670
G03 X218.400508 Y114.445537 Z-3.000000 I260.114689 J-69.249076
G03 X212.816367 Y86.161851 Z-3.000000 I703.386860 J-153.565069
G03 X208.565910 Y58.041633 Z-3.000000 I562.745045 J-99.441977
G03 X208.034140 Y41.895809 Z-3.000000 I87.036759 J-10.948261
G01 X208.034140 Y41.895809 Z-3.000000
G00 Z5.000000

(End cutting path id: path834)


(Start cutting path id: path834)
(Change tool to Cylindrical cutter)

G00 Z5.000000
G00 X208.034140 Y41.895809

G01 Z-4.000000 F100.0(Penetrate)
G03 X210.441888 Y35.139194 Z-4.000000 I12.838535 J0.767753 F200.000000
G03 X214.056289 Y33.423973 Z-4.000000 I3.366673 J2.428588
G03 X217.699907 Y34.906895 Z-4.000000 I-0.370927 J6.129132
G03 X220.987792 Y38.360465 Z-4.000000 I-16.032889 J18.555567
G01 X224.077739 Y40.698803 Z-4.000000
G01 X226.907870 Y37.850113 Z-4.000000
G02 X226.361777 Y34.821168 Z-4.000000 I-6.533208 J-0.385819
G02 X224.281879 Y30.797982 Z-4.000000 I-33.760577 J14.904248
G02 X217.055453 Y22.131633 Z-4.000000 I-31.832491 J19.197441
G02 X200.109772 Y15.134827 Z-4.000000 I-18.626223 J21.092246
G02 X189.855246 Y18.138992 Z-4.000000 I-0.938394 J15.800522
G02 X184.687874 Y24.989253 Z-4.000000 I8.678555 J11.920600
G02 X174.809171 Y16.670166 Z-4.000000 I-26.837548 J21.844004
G02 X161.824123 Y12.852164 Z-4.000000 I-14.786798 J26.299877
G02 X146.921729 Y18.557645 Z-4.000000 I-1.148150 J19.315940
G02 X138.923254 Y36.476803 Z-4.000000 I19.781033 J19.574246
G02 X148.489838 Y68.448441 Z-4.000000 I48.529115 J2.896152
G02 X173.311673 Y81.833142 Z-4.000000 I26.806486 J-20.004131
G02 X183.725584 Y80.472499 Z-4.000000 I1.669275 J-27.756553
G02 X186.794234 Y78.975173 Z-4.000000 I-4.017252 J-12.126180
G02 X190.934203 Y104.852436 Z-4.000000 I637.168046 J-88.667398
G02 X196.472357 Y130.400056 Z-4.000000 I373.260061 J-67.540365
G02 X161.003766 Y143.208296 Z-4.000000 I174.496505 J538.729836
G03 X130.479255 Y154.178961 Z-4.000000 I-172.751071 J-432.707724
G03 X99.496740 Y161.689824 Z-4.000000 I-67.286620 J-209.901856
G03 X61.340532 Y163.712097 Z-4.000000 I-28.027585 J-167.847505
G03 X36.883385 Y150.694977 Z-4.000000 I1.975809 J-33.196388
G03 X31.099880 Y131.745528 Z-4.000000 I22.604032 J-17.256217
G03 X34.616699 Y120.293973 Z-4.000000 I25.301549 J1.504417
G02 X35.581695 Y117.149473 Z-4.000000 I-5.976582 J-3.554436
G01 X33.679475 Y114.022409 Z-4.000000
G02 X20.293155 Y118.251616 Z-4.000000 I-1.161406 J19.623756
G02 X0.107619 Y157.049689 Z-4.000000 I33.355680 J42.004031
G02 X13.692434 Y195.866098 Z-4.000000 I53.173995 J3.175758
G02 X53.332651 Y214.951397 Z-4.000000 I43.092832 J-38.794858
G02 X89.551863 Y209.424319 Z-4.000000 I5.208029 J-87.308188
G02 X128.836851 Y191.121457 Z-4.000000 I-104.554918 J-275.726896
G02 X167.342781 Y168.308694 Z-4.000000 I-431.507505 J-772.250254
G03 X200.750031 Y150.916190 Z-4.000000 I124.984821 J199.288581
G02 X212.520313 Y186.545770 Z-4.000000 I196.761213 J-45.241392
G02 X225.499764 Y207.914345 Z-4.000000 I85.911892 J-37.557399
G02 X243.875113 Y223.416882 Z-4.000000 I49.399927 J-39.912812
G02 X263.625348 Y229.204126 Z-4.000000 I22.498403 J-40.186103
G02 X281.147805 Y226.864234 Z-4.000000 I2.748973 J-46.193179
G02 X293.251258 Y219.604876 Z-4.000000 I-10.544758 J-31.300829
G02 X301.418477 Y207.886474 Z-4.000000 I-23.878871 J-25.347837
G02 X305.492737 Y190.547312 Z-4.000000 I-48.064518 J-20.442191
G02 X300.530158 Y161.301488 Z-4.000000 I-65.630482 J-3.907438
G02 X287.316101 Y142.494229 Z-4.000000 I-49.292536 J20.587382
G02 X266.683027 Y129.823503 Z-4.000000 I-43.122650 J47.086279
G02 X241.531763 Y124.470698 Z-4.000000 I-30.253397 J80.386242
G02 X231.893897 Y124.704040 Z-4.000000 I-3.413894 J58.149986
G02 X221.266165 Y126.280127 Z-4.000000 I14.291861 J132.991670
G03 X218.400508 Y114.445537 Z-4.000000 I260.114689 J-69.249076
G03 X212.816367 Y86.161851 Z-4.000000 I703.386860 J-153.565069
G03 X208.565910 Y58.041633 Z-4.000000 I562.745045 J-99.441977
G03 X208.034140 Y41.895809 Z-4.000000 I87.036759 J-10.948261
G01 X208.034140 Y41.895809 Z-4.000000
G00 Z5.000000

(End cutting path id: path834)


(Start cutting path id: path834)
(Change tool to Cylindrical cutter)

G00 Z5.000000
G00 X208.034140 Y41.895809

G01 Z-5.000000 F100.0(Penetrate)
G03 X210.441888 Y35.139194 Z-5.000000 I12.838535 J0.767753 F200.000000
G03 X214.056289 Y33.423973 Z-5.000000 I3.366673 J2.428588
G03 X217.699907 Y34.906895 Z-5.000000 I-0.370927 J6.129132
G03 X220.987792 Y38.360465 Z-5.000000 I-16.032889 J18.555567
G01 X224.077739 Y40.698803 Z-5.000000
G01 X226.907870 Y37.850113 Z-5.000000
G02 X226.361777 Y34.821168 Z-5.000000 I-6.533208 J-0.385819
G02 X224.281879 Y30.797982 Z-5.000000 I-33.760577 J14.904248
G02 X217.055453 Y22.131633 Z-5.000000 I-31.832491 J19.197441
G02 X200.109772 Y15.134827 Z-5.000000 I-18.626223 J21.092246
G02 X189.855246 Y18.138992 Z-5.000000 I-0.938394 J15.800522
G02 X184.687874 Y24.989253 Z-5.000000 I8.678555 J11.920600
G02 X174.809171 Y16.670166 Z-5.000000 I-26.837548 J21.844004
G02 X161.824123 Y12.852164 Z-5.000000 I-14.786798 J26.299877
G02 X146.921729 Y18.557645 Z-5.000000 I-1.148150 J19.315940
G02 X138.923254 Y36.476803 Z-5.000000 I19.781033 J19.574246
G02 X148.489838 Y68.448441 Z-5.000000 I48.529115 J2.896152
G02 X173.311673 Y81.833142 Z-5.000000 I26.806486 J-20.004131
G02 X183.725584 Y80.472499 Z-5.000000 I1.669275 J-27.756553
G02 X186.794234 Y78.975173 Z-5.000000 I-4.017252 J-12.126180
G02 X190.934203 Y104.852436 Z-5.000000 I637.168046 J-88.667398
G02 X196.472357 Y130.400056 Z-5.000000 I373.260061 J-67.540365
G02 X161.003766 Y143.208296 Z-5.000000 I174.496505 J538.729836
G03 X130.479255 Y154.178961 Z-5.000000 I-172.751071 J-432.707724
G03 X99.496740 Y161.689824 Z-5.000000 I-67.286620 J-209.901856
G03 X61.340532 Y163.712097 Z-5.000000 I-28.027585 J-167.847505
G03 X36.883385 Y150.694977 Z-5.000000 I1.975809 J-33.196388
G03 X31.099880 Y131.745528 Z-5.000000 I22.604032 J-17.256217
G03 X34.616699 Y120.293973 Z-5.000000 I25.301549 J1.504417
G02 X35.581695 Y117.149473 Z-5.000000 I-5.976582 J-3.554436
G01 X33.679475 Y114.022409 Z-5.000000
G02 X20.293155 Y118.251616 Z-5.000000 I-1.161406 J19.623756
G02 X0.107619 Y157.049689 Z-5.000000 I33.355680 J42.004031
G02 X13.692434 Y195.866098 Z-5.000000 I53.173995 J3.175758
G02 X53.332651 Y214.951397 Z-5.000000 I43.092832 J-38.794858
G02 X89.551863 Y209.424319 Z-5.000000 I5.208029 J-87.308188
G02 X128.836851 Y191.121457 Z-5.000000 I-104.554918 J-275.726896
G02 X167.342781 Y168.308694 Z-5.000000 I-431.507505 J-772.250254
G03 X200.750031 Y150.916190 Z-5.000000 I124.984821 J199.288581
G02 X212.520313 Y186.545770 Z-5.000000 I196.761213 J-45.241392
G02 X225.499764 Y207.914345 Z-5.000000 I85.911892 J-37.557399
G02 X243.875113 Y223.416882 Z-5.000000 I49.399927 J-39.912812
G02 X263.625348 Y229.204126 Z-5.000000 I22.498403 J-40.186103
G02 X281.147805 Y226.864234 Z-5.000000 I2.748973 J-46.193179
G02 X293.251258 Y219.604876 Z-5.000000 I-10.544758 J-31.300829
G02 X301.418477 Y207.886474 Z-5.000000 I-23.878871 J-25.347837
G02 X305.492737 Y190.547312 Z-5.000000 I-48.064518 J-20.442191
G02 X300.530158 Y161.301488 Z-5.000000 I-65.630482 J-3.907438
G02 X287.316101 Y142.494229 Z-5.000000 I-49.292536 J20.587382
G02 X266.683027 Y129.823503 Z-5.000000 I-43.122650 J47.086279
G02 X241.531763 Y124.470698 Z-5.000000 I-30.253397 J80.386242
G02 X231.893897 Y124.704040 Z-5.000000 I-3.413894 J58.149986
G02 X221.266165 Y126.280127 Z-5.000000 I14.291861 J132.991670
G03 X218.400508 Y114.445537 Z-5.000000 I260.114689 J-69.249076
G03 X212.816367 Y86.161851 Z-5.000000 I703.386860 J-153.565069
G03 X208.565910 Y58.041633 Z-5.000000 I562.745045 J-99.441977
G03 X208.034140 Y41.895809 Z-5.000000 I87.036759 J-10.948261
G01 X208.034140 Y41.895809 Z-5.000000
G00 Z5.000000

(End cutting path id: path834)


(Start cutting path id: path834)
(Change tool to Cylindrical cutter)

G00 Z5.000000
G00 X208.034140 Y41.895809

G01 Z-6.000000 F100.0(Penetrate)
G03 X210.441888 Y35.139194 Z-6.000000 I12.838535 J0.767753 F200.000000
G03 X214.056289 Y33.423973 Z-6.000000 I3.366673 J2.428588
G03 X217.699907 Y34.906895 Z-6.000000 I-0.370927 J6.129132
G03 X220.987792 Y38.360465 Z-6.000000 I-16.032889 J18.555567
G01 X224.077739 Y40.698803 Z-6.000000
G01 X226.907870 Y37.850113 Z-6.000000
G02 X226.361777 Y34.821168 Z-6.000000 I-6.533208 J-0.385819
G02 X224.281879 Y30.797982 Z-6.000000 I-33.760577 J14.904248
G02 X217.055453 Y22.131633 Z-6.000000 I-31.832491 J19.197441
G02 X200.109772 Y15.134827 Z-6.000000 I-18.626223 J21.092246
G02 X189.855246 Y18.138992 Z-6.000000 I-0.938394 J15.800522
G02 X184.687874 Y24.989253 Z-6.000000 I8.678555 J11.920600
G02 X174.809171 Y16.670166 Z-6.000000 I-26.837548 J21.844004
G02 X161.824123 Y12.852164 Z-6.000000 I-14.786798 J26.299877
G02 X146.921729 Y18.557645 Z-6.000000 I-1.148150 J19.315940
G02 X138.923254 Y36.476803 Z-6.000000 I19.781033 J19.574246
G02 X148.489838 Y68.448441 Z-6.000000 I48.529115 J2.896152
G02 X173.311673 Y81.833142 Z-6.000000 I26.806486 J-20.004131
G02 X183.725584 Y80.472499 Z-6.000000 I1.669275 J-27.756553
G02 X186.794234 Y78.975173 Z-6.000000 I-4.017252 J-12.126180
G02 X190.934203 Y104.852436 Z-6.000000 I637.168046 J-88.667398
G02 X196.472357 Y130.400056 Z-6.000000 I373.260061 J-67.540365
G02 X161.003766 Y143.208296 Z-6.000000 I174.496505 J538.729836
G03 X130.479255 Y154.178961 Z-6.000000 I-172.751071 J-432.707724
G03 X99.496740 Y161.689824 Z-6.000000 I-67.286620 J-209.901856
G03 X61.340532 Y163.712097 Z-6.000000 I-28.027585 J-167.847505
G03 X36.883385 Y150.694977 Z-6.000000 I1.975809 J-33.196388
G03 X31.099880 Y131.745528 Z-6.000000 I22.604032 J-17.256217
G03 X34.616699 Y120.293973 Z-6.000000 I25.301549 J1.504417
G02 X35.581695 Y117.149473 Z-6.000000 I-5.976582 J-3.554436
G01 X33.679475 Y114.022409 Z-6.000000
G02 X20.293155 Y118.251616 Z-6.000000 I-1.161406 J19.623756
G02 X0.107619 Y157.049689 Z-6.000000 I33.355680 J42.004031
G02 X13.692434 Y195.866098 Z-6.000000 I53.173995 J3.175758
G02 X53.332651 Y214.951397 Z-6.000000 I43.092832 J-38.794858
G02 X89.551863 Y209.424319 Z-6.000000 I5.208029 J-87.308188
G02 X128.836851 Y191.121457 Z-6.000000 I-104.554918 J-275.726896
G02 X167.342781 Y168.308694 Z-6.000000 I-431.507505 J-772.250254
G03 X200.750031 Y150.916190 Z-6.000000 I124.984821 J199.288581
G02 X212.520313 Y186.545770 Z-6.000000 I196.761213 J-45.241392
G02 X225.499764 Y207.914345 Z-6.000000 I85.911892 J-37.557399
G02 X243.875113 Y223.416882 Z-6.000000 I49.399927 J-39.912812
G02 X263.625348 Y229.204126 Z-6.000000 I22.498403 J-40.186103
G02 X281.147805 Y226.864234 Z-6.000000 I2.748973 J-46.193179
G02 X293.251258 Y219.604876 Z-6.000000 I-10.544758 J-31.300829
G02 X301.418477 Y207.886474 Z-6.000000 I-23.878871 J-25.347837
G02 X305.492737 Y190.547312 Z-6.000000 I-48.064518 J-20.442191
G02 X300.530158 Y161.301488 Z-6.000000 I-65.630482 J-3.907438
G02 X287.316101 Y142.494229 Z-6.000000 I-49.292536 J20.587382
G02 X266.683027 Y129.823503 Z-6.000000 I-43.122650 J47.086279
G02 X241.531763 Y124.470698 Z-6.000000 I-30.253397 J80.386242
G02 X231.893897 Y124.704040 Z-6.000000 I-3.413894 J58.149986
G02 X221.266165 Y126.280127 Z-6.000000 I14.291861 J132.991670
G03 X218.400508 Y114.445537 Z-6.000000 I260.114689 J-69.249076
G03 X212.816367 Y86.161851 Z-6.000000 I703.386860 J-153.565069
G03 X208.565910 Y58.041633 Z-6.000000 I562.745045 J-99.441977
G03 X208.034140 Y41.895809 Z-6.000000 I87.036759 J-10.948261
G01 X208.034140 Y41.895809 Z-6.000000
G00 Z5.000000

(End cutting path id: path834)


(Start cutting path id: path834)
(Change tool to Cylindrical cutter)

G00 Z5.000000
G00 X208.034140 Y41.895809

G01 Z-6.350000 F100.0(Penetrate)
G03 X210.441888 Y35.139194 Z-6.350000 I12.838535 J0.767753 F200.000000
G03 X214.056289 Y33.423973 Z-6.350000 I3.366673 J2.428588
G03 X217.699907 Y34.906895 Z-6.350000 I-0.370927 J6.129132
G03 X220.987792 Y38.360465 Z-6.350000 I-16.032889 J18.555567
G01 X224.077739 Y40.698803 Z-6.350000
G01 X226.907870 Y37.850113 Z-6.350000
G02 X226.361777 Y34.821168 Z-6.350000 I-6.533208 J-0.385819
G02 X224.281879 Y30.797982 Z-6.350000 I-33.760577 J14.904248
G02 X217.055453 Y22.131633 Z-6.350000 I-31.832491 J19.197441
G02 X200.109772 Y15.134827 Z-6.350000 I-18.626223 J21.092246
G02 X189.855246 Y18.138992 Z-6.350000 I-0.938394 J15.800522
G02 X184.687874 Y24.989253 Z-6.350000 I8.678555 J11.920600
G02 X174.809171 Y16.670166 Z-6.350000 I-26.837548 J21.844004
G02 X161.824123 Y12.852164 Z-6.350000 I-14.786798 J26.299877
G02 X146.921729 Y18.557645 Z-6.350000 I-1.148150 J19.315940
G02 X138.923254 Y36.476803 Z-6.350000 I19.781033 J19.574246
G02 X148.489838 Y68.448441 Z-6.350000 I48.529115 J2.896152
G02 X173.311673 Y81.833142 Z-6.350000 I26.806486 J-20.004131
G02 X183.725584 Y80.472499 Z-6.350000 I1.669275 J-27.756553
G02 X186.794234 Y78.975173 Z-6.350000 I-4.017252 J-12.126180
G02 X190.934203 Y104.852436 Z-6.350000 I637.168046 J-88.667398
G02 X196.472357 Y130.400056 Z-6.350000 I373.260061 J-67.540365
G02 X161.003766 Y143.208296 Z-6.350000 I174.496505 J538.729836
G03 X130.479255 Y154.178961 Z-6.350000 I-172.751071 J-432.707724
G03 X99.496740 Y161.689824 Z-6.350000 I-67.286620 J-209.901856
G03 X61.340532 Y163.712097 Z-6.350000 I-28.027585 J-167.847505
G03 X36.883385 Y150.694977 Z-6.350000 I1.975809 J-33.196388
G03 X31.099880 Y131.745528 Z-6.350000 I22.604032 J-17.256217
G03 X34.616699 Y120.293973 Z-6.350000 I25.301549 J1.504417
G02 X35.581695 Y117.149473 Z-6.350000 I-5.976582 J-3.554436
G01 X33.679475 Y114.022409 Z-6.350000
G02 X20.293155 Y118.251616 Z-6.350000 I-1.161406 J19.623756
G02 X0.107619 Y157.049689 Z-6.350000 I33.355680 J42.004031
G02 X13.692434 Y195.866098 Z-6.350000 I53.173995 J3.175758
G02 X53.332651 Y214.951397 Z-6.350000 I43.092832 J-38.794858
G02 X89.551863 Y209.424319 Z-6.350000 I5.208029 J-87.308188
G02 X128.836851 Y191.121457 Z-6.350000 I-104.554918 J-275.726896
G02 X167.342781 Y168.308694 Z-6.350000 I-431.507505 J-772.250254
G03 X200.750031 Y150.916190 Z-6.350000 I124.984821 J199.288581
G02 X212.520313 Y186.545770 Z-6.350000 I196.761213 J-45.241392
G02 X225.499764 Y207.914345 Z-6.350000 I85.911892 J-37.557399
G02 X243.875113 Y223.416882 Z-6.350000 I49.399927 J-39.912812
G02 X263.625348 Y229.204126 Z-6.350000 I22.498403 J-40.186103
G02 X281.147805 Y226.864234 Z-6.350000 I2.748973 J-46.193179
G02 X293.251258 Y219.604876 Z-6.350000 I-10.544758 J-31.300829
G02 X301.418477 Y207.886474 Z-6.350000 I-23.878871 J-25.347837
G02 X305.492737 Y190.547312 Z-6.350000 I-48.064518 J-20.442191
G02 X300.530158 Y161.301488 Z-6.350000 I-65.630482 J-3.907438
G02 X287.316101 Y142.494229 Z-6.350000 I-49.292536 J20.587382
G02 X266.683027 Y129.823503 Z-6.350000 I-43.122650 J47.086279
G02 X241.531763 Y124.470698 Z-6.350000 I-30.253397 J80.386242
G02 X231.893897 Y124.704040 Z-6.350000 I-3.413894 J58.149986
G02 X221.266165 Y126.280127 Z-6.350000 I14.291861 J132.991670
G03 X218.400508 Y114.445537 Z-6.350000 I260.114689 J-69.249076
G03 X212.816367 Y86.161851 Z-6.350000 I703.386860 J-153.565069
G03 X208.565910 Y58.041633 Z-6.350000 I562.745045 J-99.441977
G03 X208.034140 Y41.895809 Z-6.350000 I87.036759 J-10.948261
G01 X208.034140 Y41.895809 Z-6.350000
G00 Z5.000000

(End cutting path id: path834)


(Start cutting path id: path834)
(Change tool to Cylindrical cutter)

G00 Z5.000000
G00 X178.572934 Y70.299196

G01 Z-1.000000 F100.0(Penetrate)
G03 X174.776631 Y68.077100 Z-1.000000 I0.286095 J-4.842688 F200.000000
G03 X170.292479 Y58.442800 Z-1.000000 I33.207222 J-21.316536
G03 X167.890059 Y47.534533 Z-1.000000 I63.749142 J-19.758700
G03 X167.475107 Y36.244825 Z-1.000000 I58.251806 J-7.793522
G03 X169.372081 Y30.203174 Z-1.000000 I13.049464 J0.778672
G03 X172.495111 Y28.570993 Z-1.000000 I2.921908 J1.786897
G03 X176.180149 Y31.060104 Z-1.000000 I-0.262245 J4.360582
G03 X180.144585 Y42.655537 Z-1.000000 I-48.974675 J23.219693
G03 X182.087991 Y55.506852 Z-1.000000 I-96.153074 J21.113091
G03 X182.219628 Y66.420524 Z-1.000000 I-75.633178 J6.369897
G03 X181.003797 Y69.301662 Z-1.000000 I-4.703137 J-0.287602
G03 X178.563655 Y70.299196 Z-1.000000 I-2.265508 J-2.058554
G01 X178.572934 Y70.299196 Z-1.000000
G00 Z5.000000

(End cutting path id: path834)


(Start cutting path id: path834)
(Change tool to Cylindrical cutter)

G00 Z5.000000
G00 X178.572934 Y70.299196

G01 Z-2.000000 F100.0(Penetrate)
G03 X174.776631 Y68.077100 Z-2.000000 I0.286095 J-4.842688 F200.000000
G03 X170.292479 Y58.442800 Z-2.000000 I33.207222 J-21.316536
G03 X167.890059 Y47.534533 Z-2.000000 I63.749142 J-19.758700
G03 X167.475107 Y36.244825 Z-2.000000 I58.251806 J-7.793522
G03 X169.372081 Y30.203174 Z-2.000000 I13.049464 J0.778672
G03 X172.495111 Y28.570993 Z-2.000000 I2.921908 J1.786897
G03 X176.180149 Y31.060104 Z-2.000000 I-0.262245 J4.360582
G03 X180.144585 Y42.655537 Z-2.000000 I-48.974675 J23.219693
G03 X182.087991 Y55.506852 Z-2.000000 I-96.153074 J21.113091
G03 X182.219628 Y66.420524 Z-2.000000 I-75.633178 J6.369897
G03 X181.003797 Y69.301662 Z-2.000000 I-4.703137 J-0.287602
G03 X178.563655 Y70.299196 Z-2.000000 I-2.265508 J-2.058554
G01 X178.572934 Y70.299196 Z-2.000000
G00 Z5.000000

(End cutting path id: path834)


(Start cutting path id: path834)
(Change tool to Cylindrical cutter)

G00 Z5.000000
G00 X178.572934 Y70.299196

G01 Z-3.000000 F100.0(Penetrate)
G03 X174.776631 Y68.077100 Z-3.000000 I0.286095 J-4.842688 F200.000000
G03 X170.292479 Y58.442800 Z-3.000000 I33.207222 J-21.316536
G03 X167.890059 Y47.534533 Z-3.000000 I63.749142 J-19.758700
G03 X167.475107 Y36.244825 Z-3.000000 I58.251806 J-7.793522
G03 X169.372081 Y30.203174 Z-3.000000 I13.049464 J0.778672
G03 X172.495111 Y28.570993 Z-3.000000 I2.921908 J1.786897
G03 X176.180149 Y31.060104 Z-3.000000 I-0.262245 J4.360582
G03 X180.144585 Y42.655537 Z-3.000000 I-48.974675 J23.219693
G03 X182.087991 Y55.506852 Z-3.000000 I-96.153074 J21.113091
G03 X182.219628 Y66.420524 Z-3.000000 I-75.633178 J6.369897
G03 X181.003797 Y69.301662 Z-3.000000 I-4.703137 J-0.287602
G03 X178.563655 Y70.299196 Z-3.000000 I-2.265508 J-2.058554
G01 X178.572934 Y70.299196 Z-3.000000
G00 Z5.000000

(End cutting path id: path834)


(Start cutting path id: path834)
(Change tool to Cylindrical cutter)

G00 Z5.000000
G00 X178.572934 Y70.299196

G01 Z-4.000000 F100.0(Penetrate)
G03 X174.776631 Y68.077100 Z-4.000000 I0.286095 J-4.842688 F200.000000
G03 X170.292479 Y58.442800 Z-4.000000 I33.207222 J-21.316536
G03 X167.890059 Y47.534533 Z-4.000000 I63.749142 J-19.758700
G03 X167.475107 Y36.244825 Z-4.000000 I58.251806 J-7.793522
G03 X169.372081 Y30.203174 Z-4.000000 I13.049464 J0.778672
G03 X172.495111 Y28.570993 Z-4.000000 I2.921908 J1.786897
G03 X176.180149 Y31.060104 Z-4.000000 I-0.262245 J4.360582
G03 X180.144585 Y42.655537 Z-4.000000 I-48.974675 J23.219693
G03 X182.087991 Y55.506852 Z-4.000000 I-96.153074 J21.113091
G03 X182.219628 Y66.420524 Z-4.000000 I-75.633178 J6.369897
G03 X181.003797 Y69.301662 Z-4.000000 I-4.703137 J-0.287602
G03 X178.563655 Y70.299196 Z-4.000000 I-2.265508 J-2.058554
G01 X178.572934 Y70.299196 Z-4.000000
G00 Z5.000000

(End cutting path id: path834)


(Start cutting path id: path834)
(Change tool to Cylindrical cutter)

G00 Z5.000000
G00 X178.572934 Y70.299196

G01 Z-5.000000 F100.0(Penetrate)
G03 X174.776631 Y68.077100 Z-5.000000 I0.286095 J-4.842688 F200.000000
G03 X170.292479 Y58.442800 Z-5.000000 I33.207222 J-21.316536
G03 X167.890059 Y47.534533 Z-5.000000 I63.749142 J-19.758700
G03 X167.475107 Y36.244825 Z-5.000000 I58.251806 J-7.793522
G03 X169.372081 Y30.203174 Z-5.000000 I13.049464 J0.778672
G03 X172.495111 Y28.570993 Z-5.000000 I2.921908 J1.786897
G03 X176.180149 Y31.060104 Z-5.000000 I-0.262245 J4.360582
G03 X180.144585 Y42.655537 Z-5.000000 I-48.974675 J23.219693
G03 X182.087991 Y55.506852 Z-5.000000 I-96.153074 J21.113091
G03 X182.219628 Y66.420524 Z-5.000000 I-75.633178 J6.369897
G03 X181.003797 Y69.301662 Z-5.000000 I-4.703137 J-0.287602
G03 X178.563655 Y70.299196 Z-5.000000 I-2.265508 J-2.058554
G01 X178.572934 Y70.299196 Z-5.000000
G00 Z5.000000

(End cutting path id: path834)


(Start cutting path id: path834)
(Change tool to Cylindrical cutter)

G00 Z5.000000
G00 X178.572934 Y70.299196

G01 Z-6.000000 F100.0(Penetrate)
G03 X174.776631 Y68.077100 Z-6.000000 I0.286095 J-4.842688 F200.000000
G03 X170.292479 Y58.442800 Z-6.000000 I33.207222 J-21.316536
G03 X167.890059 Y47.534533 Z-6.000000 I63.749142 J-19.758700
G03 X167.475107 Y36.244825 Z-6.000000 I58.251806 J-7.793522
G03 X169.372081 Y30.203174 Z-6.000000 I13.049464 J0.778672
G03 X172.495111 Y28.570993 Z-6.000000 I2.921908 J1.786897
G03 X176.180149 Y31.060104 Z-6.000000 I-0.262245 J4.360582
G03 X180.144585 Y42.655537 Z-6.000000 I-48.974675 J23.219693
G03 X182.087991 Y55.506852 Z-6.000000 I-96.153074 J21.113091
G03 X182.219628 Y66.420524 Z-6.000000 I-75.633178 J6.369897
G03 X181.003797 Y69.301662 Z-6.000000 I-4.703137 J-0.287602
G03 X178.563655 Y70.299196 Z-6.000000 I-2.265508 J-2.058554
G01 X178.572934 Y70.299196 Z-6.000000
G00 Z5.000000

(End cutting path id: path834)


(Start cutting path id: path834)
(Change tool to Cylindrical cutter)

G00 Z5.000000
G00 X178.572934 Y70.299196

G01 Z-6.350000 F100.0(Penetrate)
G03 X174.776631 Y68.077100 Z-6.350000 I0.286095 J-4.842688 F200.000000
G03 X170.292479 Y58.442800 Z-6.350000 I33.207222 J-21.316536
G03 X167.890059 Y47.534533 Z-6.350000 I63.749142 J-19.758700
G03 X167.475107 Y36.244825 Z-6.350000 I58.251806 J-7.793522
G03 X169.372081 Y30.203174 Z-6.350000 I13.049464 J0.778672
G03 X172.495111 Y28.570993 Z-6.350000 I2.921908 J1.786897
G03 X176.180149 Y31.060104 Z-6.350000 I-0.262245 J4.360582
G03 X180.144585 Y42.655537 Z-6.350000 I-48.974675 J23.219693
G03 X182.087991 Y55.506852 Z-6.350000 I-96.153074 J21.113091
G03 X182.219628 Y66.420524 Z-6.350000 I-75.633178 J6.369897
G03 X181.003797 Y69.301662 Z-6.350000 I-4.703137 J-0.287602
G03 X178.563655 Y70.299196 Z-6.350000 I-2.265508 J-2.058554
G01 X178.572934 Y70.299196 Z-6.350000
G00 Z5.000000

(End cutting path id: path834)


(Start cutting path id: path832)
(Change tool to Cylindrical cutter)

G00 Z5.000000
G00 X120.272223 Y7.423879

G01 Z-1.000000 F100.0(Penetrate)
G02 X104.125554 Y13.817282 Z-1.000000 I-2.952901 J16.128462 F200.000000
G02 X102.948106 Y15.626621 Z-1.000000 I14.786629 J10.910354
G03 X102.428650 Y14.740595 Z-1.000000 I34.021447 J-20.541251
G02 X82.357739 Y0.492376 Z-1.000000 I-25.321799 J14.409167
G02 X67.451048 Y3.637772 Z-1.000000 I-3.615547 J19.760833
G02 X55.977201 Y21.249767 Z-1.000000 I15.295686 J22.508303
G02 X59.471586 Y49.647716 Z-1.000000 I47.167079 J8.610029
G02 X86.162178 Y70.494057 Z-1.000000 I33.254403 J-15.067434
G02 X99.498577 Y69.737782 Z-1.000000 I5.105459 J-27.936022
G03 X103.523412 Y69.510471 Z-1.000000 I2.481656 J8.194783
G03 X112.187090 Y73.258751 Z-1.000000 I-3.766342 J20.592068
G02 X120.160874 Y76.701789 Z-1.000000 I11.401462 J-15.449998
G02 X122.071069 Y76.298581 Z-1.000000 I0.462357 J-2.535959
G02 X123.538473 Y74.038681 Z-1.000000 I-1.950090 J-2.872598
G02 X123.637110 Y64.801564 Z-1.000000 I-26.833765 J-4.905629
G03 X123.956034 Y34.760166 Z-1.000000 I87.622496 J-14.092163
G03 X127.681082 Y28.356615 Z-1.000000 I10.724049 J1.953115
G03 X131.889681 Y27.244079 Z-1.000000 I3.289648 J3.927773
G03 X135.323706 Y29.150551 Z-1.000000 I-1.089132 J6.007791
G03 X138.171646 Y32.987854 Z-1.000000 I-18.080788 J16.394539
G01 X140.964661 Y35.688078 Z-1.000000
G01 X144.119562 Y33.201274 Z-1.000000
G02 X143.941564 Y30.123687 Z-1.000000 I-6.403639 J-1.173575
G02 X142.365808 Y25.889327 Z-1.000000 I-36.354618 J11.118471
G02 X136.240705 Y16.408152 Z-1.000000 I-33.815651 J15.126770
G02 X120.262944 Y7.423879 Z-1.000000 I-21.017068 J18.677380
G01 X120.272223 Y7.423879 Z-1.000000
G00 Z5.000000

(End cutting path id: path832)


(Start cutting path id: path832)
(Change tool to Cylindrical cutter)

G00 Z5.000000
G00 X120.272223 Y7.423879

G01 Z-2.000000 F100.0(Penetrate)
G02 X104.125554 Y13.817282 Z-2.000000 I-2.952901 J16.128462 F200.000000
G02 X102.948106 Y15.626621 Z-2.000000 I14.786629 J10.910354
G03 X102.428650 Y14.740595 Z-2.000000 I34.021447 J-20.541251
G02 X82.357739 Y0.492376 Z-2.000000 I-25.321799 J14.409167
G02 X67.451048 Y3.637772 Z-2.000000 I-3.615547 J19.760833
G02 X55.977201 Y21.249767 Z-2.000000 I15.295686 J22.508303
G02 X59.471586 Y49.647716 Z-2.000000 I47.167079 J8.610029
G02 X86.162178 Y70.494057 Z-2.000000 I33.254403 J-15.067434
G02 X99.498577 Y69.737782 Z-2.000000 I5.105459 J-27.936022
G03 X103.523412 Y69.510471 Z-2.000000 I2.481656 J8.194783
G03 X112.187090 Y73.258751 Z-2.000000 I-3.766342 J20.592068
G02 X120.160874 Y76.701789 Z-2.000000 I11.401462 J-15.449998
G02 X122.071069 Y76.298581 Z-2.000000 I0.462357 J-2.535959
G02 X123.538473 Y74.038681 Z-2.000000 I-1.950090 J-2.872598
G02 X123.637110 Y64.801564 Z-2.000000 I-26.833765 J-4.905629
G03 X123.956034 Y34.760166 Z-2.000000 I87.622496 J-14.092163
G03 X127.681082 Y28.356615 Z-2.000000 I10.724049 J1.953115
G03 X131.889681 Y27.244079 Z-2.000000 I3.289648 J3.927773
G03 X135.323706 Y29.150551 Z-2.000000 I-1.089132 J6.007791
G03 X138.171646 Y32.987854 Z-2.000000 I-18.080788 J16.394539
G01 X140.964661 Y35.688078 Z-2.000000
G01 X144.119562 Y33.201274 Z-2.000000
G02 X143.941564 Y30.123687 Z-2.000000 I-6.403639 J-1.173575
G02 X142.365808 Y25.889327 Z-2.000000 I-36.354618 J11.118471
G02 X136.240705 Y16.408152 Z-2.000000 I-33.815651 J15.126770
G02 X120.262944 Y7.423879 Z-2.000000 I-21.017068 J18.677380
G01 X120.272223 Y7.423879 Z-2.000000
G00 Z5.000000

(End cutting path id: path832)


(Start cutting path id: path832)
(Change tool to Cylindrical cutter)

G00 Z5.000000
G00 X120.272223 Y7.423879

G01 Z-3.000000 F100.0(Penetrate)
G02 X104.125554 Y13.817282 Z-3.000000 I-2.952901 J16.128462 F200.000000
G02 X102.948106 Y15.626621 Z-3.000000 I14.786629 J10.910354
G03 X102.428650 Y14.740595 Z-3.000000 I34.021447 J-20.541251
G02 X82.357739 Y0.492376 Z-3.000000 I-25.321799 J14.409167
G02 X67.451048 Y3.637772 Z-3.000000 I-3.615547 J19.760833
G02 X55.977201 Y21.249767 Z-3.000000 I15.295686 J22.508303
G02 X59.471586 Y49.647716 Z-3.000000 I47.167079 J8.610029
G02 X86.162178 Y70.494057 Z-3.000000 I33.254403 J-15.067434
G02 X99.498577 Y69.737782 Z-3.000000 I5.105459 J-27.936022
G03 X103.523412 Y69.510471 Z-3.000000 I2.481656 J8.194783
G03 X112.187090 Y73.258751 Z-3.000000 I-3.766342 J20.592068
G02 X120.160874 Y76.701789 Z-3.000000 I11.401462 J-15.449998
G02 X122.071069 Y76.298581 Z-3.000000 I0.462357 J-2.535959
G02 X123.538473 Y74.038681 Z-3.000000 I-1.950090 J-2.872598
G02 X123.637110 Y64.801564 Z-3.000000 I-26.833765 J-4.905629
G03 X123.956034 Y34.760166 Z-3.000000 I87.622496 J-14.092163
G03 X127.681082 Y28.356615 Z-3.000000 I10.724049 J1.953115
G03 X131.889681 Y27.244079 Z-3.000000 I3.289648 J3.927773
G03 X135.323706 Y29.150551 Z-3.000000 I-1.089132 J6.007791
G03 X138.171646 Y32.987854 Z-3.000000 I-18.080788 J16.394539
G01 X140.964661 Y35.688078 Z-3.000000
G01 X144.119562 Y33.201274 Z-3.000000
G02 X143.941564 Y30.123687 Z-3.000000 I-6.403639 J-1.173575
G02 X142.365808 Y25.889327 Z-3.000000 I-36.354618 J11.118471
G02 X136.240705 Y16.408152 Z-3.000000 I-33.815651 J15.126770
G02 X120.262944 Y7.423879 Z-3.000000 I-21.017068 J18.677380
G01 X120.272223 Y7.423879 Z-3.000000
G00 Z5.000000

(End cutting path id: path832)


(Start cutting path id: path832)
(Change tool to Cylindrical cutter)

G00 Z5.000000
G00 X120.272223 Y7.423879

G01 Z-4.000000 F100.0(Penetrate)
G02 X104.125554 Y13.817282 Z-4.000000 I-2.952901 J16.128462 F200.000000
G02 X102.948106 Y15.626621 Z-4.000000 I14.786629 J10.910354
G03 X102.428650 Y14.740595 Z-4.000000 I34.021447 J-20.541251
G02 X82.357739 Y0.492376 Z-4.000000 I-25.321799 J14.409167
G02 X67.451048 Y3.637772 Z-4.000000 I-3.615547 J19.760833
G02 X55.977201 Y21.249767 Z-4.000000 I15.295686 J22.508303
G02 X59.471586 Y49.647716 Z-4.000000 I47.167079 J8.610029
G02 X86.162178 Y70.494057 Z-4.000000 I33.254403 J-15.067434
G02 X99.498577 Y69.737782 Z-4.000000 I5.105459 J-27.936022
G03 X103.523412 Y69.510471 Z-4.000000 I2.481656 J8.194783
G03 X112.187090 Y73.258751 Z-4.000000 I-3.766342 J20.592068
G02 X120.160874 Y76.701789 Z-4.000000 I11.401462 J-15.449998
G02 X122.071069 Y76.298581 Z-4.000000 I0.462357 J-2.535959
G02 X123.538473 Y74.038681 Z-4.000000 I-1.950090 J-2.872598
G02 X123.637110 Y64.801564 Z-4.000000 I-26.833765 J-4.905629
G03 X123.956034 Y34.760166 Z-4.000000 I87.622496 J-14.092163
G03 X127.681082 Y28.356615 Z-4.000000 I10.724049 J1.953115
G03 X131.889681 Y27.244079 Z-4.000000 I3.289648 J3.927773
G03 X135.323706 Y29.150551 Z-4.000000 I-1.089132 J6.007791
G03 X138.171646 Y32.987854 Z-4.000000 I-18.080788 J16.394539
G01 X140.964661 Y35.688078 Z-4.000000
G01 X144.119562 Y33.201274 Z-4.000000
G02 X143.941564 Y30.123687 Z-4.000000 I-6.403639 J-1.173575
G02 X142.365808 Y25.889327 Z-4.000000 I-36.354618 J11.118471
G02 X136.240705 Y16.408152 Z-4.000000 I-33.815651 J15.126770
G02 X120.262944 Y7.423879 Z-4.000000 I-21.017068 J18.677380
G01 X120.272223 Y7.423879 Z-4.000000
G00 Z5.000000

(End cutting path id: path832)


(Start cutting path id: path832)
(Change tool to Cylindrical cutter)

G00 Z5.000000
G00 X120.272223 Y7.423879

G01 Z-5.000000 F100.0(Penetrate)
G02 X104.125554 Y13.817282 Z-5.000000 I-2.952901 J16.128462 F200.000000
G02 X102.948106 Y15.626621 Z-5.000000 I14.786629 J10.910354
G03 X102.428650 Y14.740595 Z-5.000000 I34.021447 J-20.541251
G02 X82.357739 Y0.492376 Z-5.000000 I-25.321799 J14.409167
G02 X67.451048 Y3.637772 Z-5.000000 I-3.615547 J19.760833
G02 X55.977201 Y21.249767 Z-5.000000 I15.295686 J22.508303
G02 X59.471586 Y49.647716 Z-5.000000 I47.167079 J8.610029
G02 X86.162178 Y70.494057 Z-5.000000 I33.254403 J-15.067434
G02 X99.498577 Y69.737782 Z-5.000000 I5.105459 J-27.936022
G03 X103.523412 Y69.510471 Z-5.000000 I2.481656 J8.194783
G03 X112.187090 Y73.258751 Z-5.000000 I-3.766342 J20.592068
G02 X120.160874 Y76.701789 Z-5.000000 I11.401462 J-15.449998
G02 X122.071069 Y76.298581 Z-5.000000 I0.462357 J-2.535959
G02 X123.538473 Y74.038681 Z-5.000000 I-1.950090 J-2.872598
G02 X123.637110 Y64.801564 Z-5.000000 I-26.833765 J-4.905629
G03 X123.956034 Y34.760166 Z-5.000000 I87.622496 J-14.092163
G03 X127.681082 Y28.356615 Z-5.000000 I10.724049 J1.953115
G03 X131.889681 Y27.244079 Z-5.000000 I3.289648 J3.927773
G03 X135.323706 Y29.150551 Z-5.000000 I-1.089132 J6.007791
G03 X138.171646 Y32.987854 Z-5.000000 I-18.080788 J16.394539
G01 X140.964661 Y35.688078 Z-5.000000
G01 X144.119562 Y33.201274 Z-5.000000
G02 X143.941564 Y30.123687 Z-5.000000 I-6.403639 J-1.173575
G02 X142.365808 Y25.889327 Z-5.000000 I-36.354618 J11.118471
G02 X136.240705 Y16.408152 Z-5.000000 I-33.815651 J15.126770
G02 X120.262944 Y7.423879 Z-5.000000 I-21.017068 J18.677380
G01 X120.272223 Y7.423879 Z-5.000000
G00 Z5.000000

(End cutting path id: path832)


(Start cutting path id: path832)
(Change tool to Cylindrical cutter)

G00 Z5.000000
G00 X120.272223 Y7.423879

G01 Z-6.000000 F100.0(Penetrate)
G02 X104.125554 Y13.817282 Z-6.000000 I-2.952901 J16.128462 F200.000000
G02 X102.948106 Y15.626621 Z-6.000000 I14.786629 J10.910354
G03 X102.428650 Y14.740595 Z-6.000000 I34.021447 J-20.541251
G02 X82.357739 Y0.492376 Z-6.000000 I-25.321799 J14.409167
G02 X67.451048 Y3.637772 Z-6.000000 I-3.615547 J19.760833
G02 X55.977201 Y21.249767 Z-6.000000 I15.295686 J22.508303
G02 X59.471586 Y49.647716 Z-6.000000 I47.167079 J8.610029
G02 X86.162178 Y70.494057 Z-6.000000 I33.254403 J-15.067434
G02 X99.498577 Y69.737782 Z-6.000000 I5.105459 J-27.936022
G03 X103.523412 Y69.510471 Z-6.000000 I2.481656 J8.194783
G03 X112.187090 Y73.258751 Z-6.000000 I-3.766342 J20.592068
G02 X120.160874 Y76.701789 Z-6.000000 I11.401462 J-15.449998
G02 X122.071069 Y76.298581 Z-6.000000 I0.462357 J-2.535959
G02 X123.538473 Y74.038681 Z-6.000000 I-1.950090 J-2.872598
G02 X123.637110 Y64.801564 Z-6.000000 I-26.833765 J-4.905629
G03 X123.956034 Y34.760166 Z-6.000000 I87.622496 J-14.092163
G03 X127.681082 Y28.356615 Z-6.000000 I10.724049 J1.953115
G03 X131.889681 Y27.244079 Z-6.000000 I3.289648 J3.927773
G03 X135.323706 Y29.150551 Z-6.000000 I-1.089132 J6.007791
G03 X138.171646 Y32.987854 Z-6.000000 I-18.080788 J16.394539
G01 X140.964661 Y35.688078 Z-6.000000
G01 X144.119562 Y33.201274 Z-6.000000
G02 X143.941564 Y30.123687 Z-6.000000 I-6.403639 J-1.173575
G02 X142.365808 Y25.889327 Z-6.000000 I-36.354618 J11.118471
G02 X136.240705 Y16.408152 Z-6.000000 I-33.815651 J15.126770
G02 X120.262944 Y7.423879 Z-6.000000 I-21.017068 J18.677380
G01 X120.272223 Y7.423879 Z-6.000000
G00 Z5.000000

(End cutting path id: path832)


(Start cutting path id: path832)
(Change tool to Cylindrical cutter)

G00 Z5.000000
G00 X120.272223 Y7.423879

G01 Z-6.350000 F100.0(Penetrate)
G02 X104.125554 Y13.817282 Z-6.350000 I-2.952901 J16.128462 F200.000000
G02 X102.948106 Y15.626621 Z-6.350000 I14.786629 J10.910354
G03 X102.428650 Y14.740595 Z-6.350000 I34.021447 J-20.541251
G02 X82.357739 Y0.492376 Z-6.350000 I-25.321799 J14.409167
G02 X67.451048 Y3.637772 Z-6.350000 I-3.615547 J19.760833
G02 X55.977201 Y21.249767 Z-6.350000 I15.295686 J22.508303
G02 X59.471586 Y49.647716 Z-6.350000 I47.167079 J8.610029
G02 X86.162178 Y70.494057 Z-6.350000 I33.254403 J-15.067434
G02 X99.498577 Y69.737782 Z-6.350000 I5.105459 J-27.936022
G03 X103.523412 Y69.510471 Z-6.350000 I2.481656 J8.194783
G03 X112.187090 Y73.258751 Z-6.350000 I-3.766342 J20.592068
G02 X120.160874 Y76.701789 Z-6.350000 I11.401462 J-15.449998
G02 X122.071069 Y76.298581 Z-6.350000 I0.462357 J-2.535959
G02 X123.538473 Y74.038681 Z-6.350000 I-1.950090 J-2.872598
G02 X123.637110 Y64.801564 Z-6.350000 I-26.833765 J-4.905629
G03 X123.956034 Y34.760166 Z-6.350000 I87.622496 J-14.092163
G03 X127.681082 Y28.356615 Z-6.350000 I10.724049 J1.953115
G03 X131.889681 Y27.244079 Z-6.350000 I3.289648 J3.927773
G03 X135.323706 Y29.150551 Z-6.350000 I-1.089132 J6.007791
G03 X138.171646 Y32.987854 Z-6.350000 I-18.080788 J16.394539
G01 X140.964661 Y35.688078 Z-6.350000
G01 X144.119562 Y33.201274 Z-6.350000
G02 X143.941564 Y30.123687 Z-6.350000 I-6.403639 J-1.173575
G02 X142.365808 Y25.889327 Z-6.350000 I-36.354618 J11.118471
G02 X136.240705 Y16.408152 Z-6.350000 I-33.815651 J15.126770
G02 X120.262944 Y7.423879 Z-6.350000 I-21.017068 J18.677380
G01 X120.272223 Y7.423879 Z-6.350000
G00 Z5.000000

(End cutting path id: path832)


(Start cutting path id: path832)
(Change tool to Cylindrical cutter)

G00 Z5.000000
G00 X91.284252 Y59.405509

G01 Z-1.000000 F100.0(Penetrate)
G03 X87.784575 Y56.738791 Z-1.000000 I0.872614 J-4.774944 F200.000000
G03 X84.500056 Y46.632800 Z-1.000000 I35.545461 J-17.139272
G03 X83.435872 Y35.514483 Z-1.000000 I65.679807 J-11.896595
G03 X84.389866 Y24.256202 Z-1.000000 I58.814235 J-0.685812
G03 X86.998700 Y18.488690 Z-1.000000 I12.832406 J2.330729
G03 X90.300666 Y17.250467 Z-1.000000 I2.678881 J2.121981
G03 X93.659735 Y20.167524 Z-1.000000 I-0.786482 J4.298213
G03 X96.194067 Y32.157373 Z-1.000000 I-51.421550 J17.131900
G03 X96.570856 Y45.151211 Z-1.000000 I-98.070018 J9.346173
G03 X95.385623 Y56.000072 Z-1.000000 I-76.030078 J-2.817076
G03 X93.832543 Y58.714618 Z-1.000000 I-4.623517 J-0.843707
G03 X91.293531 Y59.405509 Z-1.000000 I-1.991511 J-2.307915
G01 X91.293531 Y59.405509 Z-1.000000
G01 X91.284252 Y59.405509 Z-1.000000
G00 Z5.000000

(End cutting path id: path832)


(Start cutting path id: path832)
(Change tool to Cylindrical cutter)

G00 Z5.000000
G00 X91.284252 Y59.405509

G01 Z-2.000000 F100.0(Penetrate)
G03 X87.784575 Y56.738791 Z-2.000000 I0.872614 J-4.774944 F200.000000
G03 X84.500056 Y46.632800 Z-2.000000 I35.545461 J-17.139272
G03 X83.435872 Y35.514483 Z-2.000000 I65.679807 J-11.896595
G03 X84.389866 Y24.256202 Z-2.000000 I58.814235 J-0.685812
G03 X86.998700 Y18.488690 Z-2.000000 I12.832406 J2.330729
G03 X90.300666 Y17.250467 Z-2.000000 I2.678881 J2.121981
G03 X93.659735 Y20.167524 Z-2.000000 I-0.786482 J4.298213
G03 X96.194067 Y32.157373 Z-2.000000 I-51.421550 J17.131900
G03 X96.570856 Y45.151211 Z-2.000000 I-98.070018 J9.346173
G03 X95.385623 Y56.000072 Z-2.000000 I-76.030078 J-2.817076
G03 X93.832543 Y58.714618 Z-2.000000 I-4.623517 J-0.843707
G03 X91.293531 Y59.405509 Z-2.000000 I-1.991511 J-2.307915
G01 X91.293531 Y59.405509 Z-2.000000
G01 X91.284252 Y59.405509 Z-2.000000
G00 Z5.000000

(End cutting path id: path832)


(Start cutting path id: path832)
(Change tool to Cylindrical cutter)

G00 Z5.000000
G00 X91.284252 Y59.405509

G01 Z-3.000000 F100.0(Penetrate)
G03 X87.784575 Y56.738791 Z-3.000000 I0.872614 J-4.774944 F200.000000
G03 X84.500056 Y46.632800 Z-3.000000 I35.545461 J-17.139272
G03 X83.435872 Y35.514483 Z-3.000000 I65.679807 J-11.896595
G03 X84.389866 Y24.256202 Z-3.000000 I58.814235 J-0.685812
G03 X86.998700 Y18.488690 Z-3.000000 I12.832406 J2.330729
G03 X90.300666 Y17.250467 Z-3.000000 I2.678881 J2.121981
G03 X93.659735 Y20.167524 Z-3.000000 I-0.786482 J4.298213
G03 X96.194067 Y32.157373 Z-3.000000 I-51.421550 J17.131900
G03 X96.570856 Y45.151211 Z-3.000000 I-98.070018 J9.346173
G03 X95.385623 Y56.000072 Z-3.000000 I-76.030078 J-2.817076
G03 X93.832543 Y58.714618 Z-3.000000 I-4.623517 J-0.843707
G03 X91.293531 Y59.405509 Z-3.000000 I-1.991511 J-2.307915
G01 X91.293531 Y59.405509 Z-3.000000
G01 X91.284252 Y59.405509 Z-3.000000
G00 Z5.000000

(End cutting path id: path832)


(Start cutting path id: path832)
(Change tool to Cylindrical cutter)

G00 Z5.000000
G00 X91.284252 Y59.405509

G01 Z-4.000000 F100.0(Penetrate)
G03 X87.784575 Y56.738791 Z-4.000000 I0.872614 J-4.774944 F200.000000
G03 X84.500056 Y46.632800 Z-4.000000 I35.545461 J-17.139272
G03 X83.435872 Y35.514483 Z-4.000000 I65.679807 J-11.896595
G03 X84.389866 Y24.256202 Z-4.000000 I58.814235 J-0.685812
G03 X86.998700 Y18.488690 Z-4.000000 I12.832406 J2.330729
G03 X90.300666 Y17.250467 Z-4.000000 I2.678881 J2.121981
G03 X93.659735 Y20.167524 Z-4.000000 I-0.786482 J4.298213
G03 X96.194067 Y32.157373 Z-4.000000 I-51.421550 J17.131900
G03 X96.570856 Y45.151211 Z-4.000000 I-98.070018 J9.346173
G03 X95.385623 Y56.000072 Z-4.000000 I-76.030078 J-2.817076
G03 X93.832543 Y58.714618 Z-4.000000 I-4.623517 J-0.843707
G03 X91.293531 Y59.405509 Z-4.000000 I-1.991511 J-2.307915
G01 X91.293531 Y59.405509 Z-4.000000
G01 X91.284252 Y59.405509 Z-4.000000
G00 Z5.000000

(End cutting path id: path832)


(Start cutting path id: path832)
(Change tool to Cylindrical cutter)

G00 Z5.000000
G00 X91.284252 Y59.405509

G01 Z-5.000000 F100.0(Penetrate)
G03 X87.784575 Y56.738791 Z-5.000000 I0.872614 J-4.774944 F200.000000
G03 X84.500056 Y46.632800 Z-5.000000 I35.545461 J-17.139272
G03 X83.435872 Y35.514483 Z-5.000000 I65.679807 J-11.896595
G03 X84.389866 Y24.256202 Z-5.000000 I58.814235 J-0.685812
G03 X86.998700 Y18.488690 Z-5.000000 I12.832406 J2.330729
G03 X90.300666 Y17.250467 Z-5.000000 I2.678881 J2.121981
G03 X93.659735 Y20.167524 Z-5.000000 I-0.786482 J4.298213
G03 X96.194067 Y32.157373 Z-5.000000 I-51.421550 J17.131900
G03 X96.570856 Y45.151211 Z-5.000000 I-98.070018 J9.346173
G03 X95.385623 Y56.000072 Z-5.000000 I-76.030078 J-2.817076
G03 X93.832543 Y58.714618 Z-5.000000 I-4.623517 J-0.843707
G03 X91.293531 Y59.405509 Z-5.000000 I-1.991511 J-2.307915
G01 X91.293531 Y59.405509 Z-5.000000
G01 X91.284252 Y59.405509 Z-5.000000
G00 Z5.000000

(End cutting path id: path832)


(Start cutting path id: path832)
(Change tool to Cylindrical cutter)

G00 Z5.000000
G00 X91.284252 Y59.405509

G01 Z-6.000000 F100.0(Penetrate)
G03 X87.784575 Y56.738791 Z-6.000000 I0.872614 J-4.774944 F200.000000
G03 X84.500056 Y46.632800 Z-6.000000 I35.545461 J-17.139272
G03 X83.435872 Y35.514483 Z-6.000000 I65.679807 J-11.896595
G03 X84.389866 Y24.256202 Z-6.000000 I58.814235 J-0.685812
G03 X86.998700 Y18.488690 Z-6.000000 I12.832406 J2.330729
G03 X90.300666 Y17.250467 Z-6.000000 I2.678881 J2.121981
G03 X93.659735 Y20.167524 Z-6.000000 I-0.786482 J4.298213
G03 X96.194067 Y32.157373 Z-6.000000 I-51.421550 J17.131900
G03 X96.570856 Y45.151211 Z-6.000000 I-98.070018 J9.346173
G03 X95.385623 Y56.000072 Z-6.000000 I-76.030078 J-2.817076
G03 X93.832543 Y58.714618 Z-6.000000 I-4.623517 J-0.843707
G03 X91.293531 Y59.405509 Z-6.000000 I-1.991511 J-2.307915
G01 X91.293531 Y59.405509 Z-6.000000
G01 X91.284252 Y59.405509 Z-6.000000
G00 Z5.000000

(End cutting path id: path832)


(Start cutting path id: path832)
(Change tool to Cylindrical cutter)

G00 Z5.000000
G00 X91.284252 Y59.405509

G01 Z-6.350000 F100.0(Penetrate)
G03 X87.784575 Y56.738791 Z-6.350000 I0.872614 J-4.774944 F200.000000
G03 X84.500056 Y46.632800 Z-6.350000 I35.545461 J-17.139272
G03 X83.435872 Y35.514483 Z-6.350000 I65.679807 J-11.896595
G03 X84.389866 Y24.256202 Z-6.350000 I58.814235 J-0.685812
G03 X86.998700 Y18.488690 Z-6.350000 I12.832406 J2.330729
G03 X90.300666 Y17.250467 Z-6.350000 I2.678881 J2.121981
G03 X93.659735 Y20.167524 Z-6.350000 I-0.786482 J4.298213
G03 X96.194067 Y32.157373 Z-6.350000 I-51.421550 J17.131900
G03 X96.570856 Y45.151211 Z-6.350000 I-98.070018 J9.346173
G03 X95.385623 Y56.000072 Z-6.350000 I-76.030078 J-2.817076
G03 X93.832543 Y58.714618 Z-6.350000 I-4.623517 J-0.843707
G03 X91.293531 Y59.405509 Z-6.350000 I-1.991511 J-2.307915
G01 X91.293531 Y59.405509 Z-6.350000
G01 X91.284252 Y59.405509 Z-6.350000
G00 Z5.000000

(End cutting path id: path832)


(Start cutting path id: path834)
(Change tool to Cylindrical cutter)

G00 Z5.000000
G00 X225.599514 Y142.908310

G01 Z-1.000000 F100.0(Penetrate)
G03 X234.354563 Y142.094236 Z-1.000000 I10.916602 J69.918235 F200.000000
G03 X242.951469 Y142.221655 Z-1.000000 I2.895215 J94.739852
G03 X259.291344 Y146.227893 Z-1.000000 I-2.782330 J46.673131
G03 X268.378577 Y152.811451 Z-1.000000 I-11.237948 J25.074949
G03 X274.075602 Y162.730303 Z-1.000000 I-19.663777 J17.889660
G03 X275.474784 Y174.104711 Z-1.000000 I-30.181471 J9.485927
G03 X270.250089 Y185.199100 Z-1.000000 I-16.484737 J-0.985748
G03 X259.941537 Y188.904908 Z-1.000000 I-9.474360 J-10.164399
G03 X250.120160 Y185.903949 Z-1.000000 I1.302041 J-21.833170
G03 X240.177012 Y177.062431 Z-1.000000 I17.613148 J-29.819478
G03 X233.134861 Y165.002731 Z-1.000000 I45.596860 J-34.711816
G03 X225.590235 Y142.908310 Z-1.000000 I138.821771 J-59.739095
G01 X225.590235 Y142.908310 Z-1.000000
G01 X225.599514 Y142.908310 Z-1.000000
G00 Z5.000000

(End cutting path id: path834)


(Start cutting path id: path834)
(Change tool to Cylindrical cutter)

G00 Z5.000000
G00 X225.599514 Y142.908310

G01 Z-2.000000 F100.0(Penetrate)
G03 X234.354563 Y142.094236 Z-2.000000 I10.916602 J69.918235 F200.000000
G03 X242.951469 Y142.221655 Z-2.000000 I2.895215 J94.739852
G03 X259.291344 Y146.227893 Z-2.000000 I-2.782330 J46.673131
G03 X268.378577 Y152.811451 Z-2.000000 I-11.237948 J25.074949
G03 X274.075602 Y162.730303 Z-2.000000 I-19.663777 J17.889660
G03 X275.474784 Y174.104711 Z-2.000000 I-30.181471 J9.485927
G03 X270.250089 Y185.199100 Z-2.000000 I-16.484737 J-0.985748
G03 X259.941537 Y188.904908 Z-2.000000 I-9.474360 J-10.164399
G03 X250.120160 Y185.903949 Z-2.000000 I1.302041 J-21.833170
G03 X240.177012 Y177.062431 Z-2.000000 I17.613148 J-29.819478
G03 X233.134861 Y165.002731 Z-2.000000 I45.596860 J-34.711816
G03 X225.590235 Y142.908310 Z-2.000000 I138.821771 J-59.739095
G01 X225.590235 Y142.908310 Z-2.000000
G01 X225.599514 Y142.908310 Z-2.000000
G00 Z5.000000

(End cutting path id: path834)


(Start cutting path id: path834)
(Change tool to Cylindrical cutter)

G00 Z5.000000
G00 X225.599514 Y142.908310

G01 Z-3.000000 F100.0(Penetrate)
G03 X234.354563 Y142.094236 Z-3.000000 I10.916602 J69.918235 F200.000000
G03 X242.951469 Y142.221655 Z-3.000000 I2.895215 J94.739852
G03 X259.291344 Y146.227893 Z-3.000000 I-2.782330 J46.673131
G03 X268.378577 Y152.811451 Z-3.000000 I-11.237948 J25.074949
G03 X274.075602 Y162.730303 Z-3.000000 I-19.663777 J17.889660
G03 X275.474784 Y174.104711 Z-3.000000 I-30.181471 J9.485927
G03 X270.250089 Y185.199100 Z-3.000000 I-16.484737 J-0.985748
G03 X259.941537 Y188.904908 Z-3.000000 I-9.474360 J-10.164399
G03 X250.120160 Y185.903949 Z-3.000000 I1.302041 J-21.833170
G03 X240.177012 Y177.062431 Z-3.000000 I17.613148 J-29.819478
G03 X233.134861 Y165.002731 Z-3.000000 I45.596860 J-34.711816
G03 X225.590235 Y142.908310 Z-3.000000 I138.821771 J-59.739095
G01 X225.590235 Y142.908310 Z-3.000000
G01 X225.599514 Y142.908310 Z-3.000000
G00 Z5.000000

(End cutting path id: path834)


(Start cutting path id: path834)
(Change tool to Cylindrical cutter)

G00 Z5.000000
G00 X225.599514 Y142.908310

G01 Z-4.000000 F100.0(Penetrate)
