(Exported by FreeCAD)
(Post Processor: grbl_post)
(Output Time:2023-09-25 14:42:01.136124)
(Begin preamble)
G17 G90
G21
(Begin operation: Fixture)
(Path: Fixture)
G54
(Finish operation: Fixture)
(Begin operation: MC40A_Flat_End_Corncob001)
(Path: MC40A_Flat_End_Corncob001)
(MC40A_Flat_End_Corncob001)
(Begin toolchange)
( M6 T2 )
M3 S10000
(Finish operation: MC40A_Flat_End_Corncob001)
(Begin operation: Profile)
(Path: Profile)
(Profile)
(Compensated Tool Path. Diameter: 0.8)
G0 Z5.000
G0 X24.934 Y22.598
G0 Z3.000
G1 X24.934 Y22.598 Z-1.600 F100.000
G3 X23.588 Y20.392 Z-1.600 I2.414 J-2.986 K0.000 F100.000
G3 X23.665 Y16.454 Z-1.600 I9.160 J-1.790 K0.000 F100.000
G3 X24.371 Y13.939 Z-1.600 I15.965 J3.123 K0.000 F100.000
G3 X25.597 Y12.022 Z-1.600 I4.324 J1.416 K0.000 F100.000
G3 X28.152 Y11.990 Z-1.600 I1.299 J1.641 K0.000 F100.000
G3 X29.238 Y13.796 Z-1.600 I-1.925 J2.388 K0.000 F100.000
G3 X29.224 Y16.128 Z-1.600 I-5.125 J1.134 K0.000 F100.000
G3 X28.283 Y17.834 Z-1.600 I-3.045 J-0.567 K0.000 F100.000
G3 X27.759 Y18.059 Z-1.600 I-0.712 J-0.938 K0.000 F100.000
G2 X26.279 Y18.396 Z-1.600 I0.667 J6.343 K0.000 F100.000
G2 X24.811 Y20.019 Z-1.600 I0.714 J2.121 K0.000 F100.000
G2 X24.934 Y22.598 Z-1.600 I4.587 J1.075 K0.000 F100.000
G1 X24.934 Y22.598 Z-3.200 F100.000
G3 X23.588 Y20.392 Z-3.200 I2.414 J-2.986 K0.000 F100.000
G3 X23.665 Y16.454 Z-3.200 I9.160 J-1.790 K0.000 F100.000
G3 X24.371 Y13.939 Z-3.200 I15.965 J3.123 K0.000 F100.000
G3 X25.597 Y12.022 Z-3.200 I4.324 J1.416 K0.000 F100.000
G3 X28.152 Y11.990 Z-3.200 I1.299 J1.641 K0.000 F100.000
G3 X29.238 Y13.796 Z-3.200 I-1.925 J2.388 K0.000 F100.000
G3 X29.224 Y16.128 Z-3.200 I-5.125 J1.134 K0.000 F100.000
G3 X28.283 Y17.834 Z-3.200 I-3.045 J-0.567 K0.000 F100.000
G3 X27.759 Y18.059 Z-3.200 I-0.712 J-0.938 K0.000 F100.000
G2 X26.279 Y18.396 Z-3.200 I0.667 J6.343 K0.000 F100.000
G2 X24.811 Y20.019 Z-3.200 I0.714 J2.121 K0.000 F100.000
G2 X24.934 Y22.598 Z-3.200 I4.587 J1.075 K0.000 F100.000
G1 X24.934 Y22.598 Z-4.800 F100.000
G3 X23.588 Y20.392 Z-4.800 I2.414 J-2.986 K0.000 F100.000
G3 X23.665 Y16.454 Z-4.800 I9.160 J-1.790 K0.000 F100.000
G3 X24.371 Y13.939 Z-4.800 I15.965 J3.123 K0.000 F100.000
G3 X25.597 Y12.022 Z-4.800 I4.324 J1.416 K0.000 F100.000
G3 X28.152 Y11.990 Z-4.800 I1.299 J1.641 K0.000 F100.000
G3 X29.238 Y13.796 Z-4.800 I-1.925 J2.388 K0.000 F100.000
G3 X29.224 Y16.128 Z-4.800 I-5.125 J1.134 K0.000 F100.000
G3 X28.283 Y17.834 Z-4.800 I-3.045 J-0.567 K0.000 F100.000
G3 X27.759 Y18.059 Z-4.800 I-0.712 J-0.938 K0.000 F100.000
G2 X26.279 Y18.396 Z-4.800 I0.667 J6.343 K0.000 F100.000
G2 X24.811 Y20.019 Z-4.800 I0.714 J2.121 K0.000 F100.000
G2 X24.934 Y22.598 Z-4.800 I4.587 J1.075 K0.000 F100.000
G0 Z5.000
G0 Z5.000
G0 X24.934 Y22.598
G0 X43.888 Y21.811
G0 X43.888 Y21.811 Z3.000
G1 X43.888 Y21.811 Z-1.600 F100.000
G3 X43.883 Y21.655 Z-1.600 I13.425 J-0.558 K0.000 F100.000
G3 X44.102 Y17.647 Z-1.600 I17.500 J-1.052 K0.000 F100.000
G3 X44.785 Y16.150 Z-1.600 I2.650 J0.304 K0.000 F100.000
G3 X45.441 Y16.008 Z-1.600 I0.420 J0.357 K0.000 F100.000
G3 X45.921 Y16.575 Z-1.600 I-0.766 J1.137 K0.000 F100.000
G3 X46.479 Y18.406 Z-1.600 I-6.537 J2.994 K0.000 F100.000
G3 X46.453 Y26.534 Z-1.600 I-25.645 J3.982 K0.000 F100.000
G3 X46.167 Y27.129 Z-1.600 I-0.816 J-0.026 K0.000 F100.000
G3 X45.428 Y27.036 Z-1.600 I-0.307 J-0.546 K0.000 F100.000
G3 X44.782 Y26.102 Z-1.600 I1.889 J-1.998 K0.000 F100.000
G3 X43.888 Y21.811 Z-1.600 I12.531 J-4.849 K0.000 F100.000
G1 X43.888 Y21.811 Z-3.200 F100.000
G3 X43.883 Y21.655 Z-3.200 I13.425 J-0.558 K0.000 F100.000
G3 X44.102 Y17.647 Z-3.200 I17.500 J-1.052 K0.000 F100.000
G3 X44.785 Y16.150 Z-3.200 I2.650 J0.304 K0.000 F100.000
G3 X45.441 Y16.008 Z-3.200 I0.420 J0.357 K0.000 F100.000
G3 X45.921 Y16.575 Z-3.200 I-0.766 J1.137 K0.000 F100.000
G3 X46.479 Y18.406 Z-3.200 I-6.537 J2.994 K0.000 F100.000
G3 X46.453 Y26.534 Z-3.200 I-25.645 J3.982 K0.000 F100.000
G3 X46.167 Y27.129 Z-3.200 I-0.816 J-0.026 K0.000 F100.000
G3 X45.428 Y27.036 Z-3.200 I-0.307 J-0.546 K0.000 F100.000
G3 X44.782 Y26.102 Z-3.200 I1.889 J-1.998 K0.000 F100.000
G3 X43.888 Y21.811 Z-3.200 I12.531 J-4.849 K0.000 F100.000
G1 X43.888 Y21.811 Z-4.800 F100.000
G3 X43.883 Y21.655 Z-4.800 I13.425 J-0.558 K0.000 F100.000
G3 X44.102 Y17.647 Z-4.800 I17.500 J-1.052 K0.000 F100.000
G3 X44.785 Y16.150 Z-4.800 I2.650 J0.304 K0.000 F100.000
G3 X45.441 Y16.008 Z-4.800 I0.420 J0.357 K0.000 F100.000
G3 X45.921 Y16.575 Z-4.800 I-0.766 J1.137 K0.000 F100.000
G3 X46.479 Y18.406 Z-4.800 I-6.537 J2.994 K0.000 F100.000
G3 X46.453 Y26.534 Z-4.800 I-25.645 J3.982 K0.000 F100.000
G3 X46.167 Y27.129 Z-4.800 I-0.816 J-0.026 K0.000 F100.000
G3 X45.428 Y27.036 Z-4.800 I-0.307 J-0.546 K0.000 F100.000
G3 X44.782 Y26.102 Z-4.800 I1.889 J-1.998 K0.000 F100.000
G3 X43.888 Y21.811 Z-4.800 I12.531 J-4.849 K0.000 F100.000
G0 Z5.000
G0 Z5.000
G0 X43.888 Y21.811
G0 X67.779 Y21.840
G0 X67.779 Y21.840 Z3.000
G1 X67.779 Y21.840 Z-1.600 F100.000
G3 X67.799 Y21.018 Z-1.600 I17.521 J0.021 K0.000 F100.000
G3 X68.298 Y19.448 Z-1.600 I2.671 J-0.015 K0.000 F100.000
G3 X69.076 Y19.305 Z-1.600 I0.457 J0.298 K0.000 F100.000
G3 X69.718 Y20.142 Z-1.600 I-1.598 J1.890 K0.000 F100.000
G3 X70.767 Y23.616 Z-1.600 I-11.776 J5.450 K0.000 F100.000
G3 X71.206 Y29.553 Z-1.600 I-25.006 J4.832 K0.000 F100.000
G3 X70.992 Y30.179 Z-1.600 I-0.815 J0.071 K0.000 F100.000
G3 X70.252 Y30.176 Z-1.600 I-0.368 J-0.498 K0.000 F100.000
G3 X69.498 Y29.328 Z-1.600 I1.632 J-2.211 K0.000 F100.000
G3 X68.067 Y25.023 Z-1.600 I11.849 J-6.329 K0.000 F100.000
G3 X67.779 Y21.840 Z-1.600 I17.234 J-3.162 K0.000 F100.000
G1 X67.779 Y21.840 Z-3.200 F100.000
G3 X67.799 Y21.018 Z-3.200 I17.521 J0.021 K0.000 F100.000
G3 X68.298 Y19.448 Z-3.200 I2.671 J-0.015 K0.000 F100.000
G3 X69.076 Y19.305 Z-3.200 I0.457 J0.298 K0.000 F100.000
G3 X69.718 Y20.142 Z-3.200 I-1.598 J1.890 K0.000 F100.000
G3 X70.767 Y23.616 Z-3.200 I-11.776 J5.450 K0.000 F100.000
G3 X71.206 Y29.553 Z-3.200 I-25.006 J4.832 K0.000 F100.000
G3 X70.992 Y30.179 Z-3.200 I-0.815 J0.071 K0.000 F100.000
G3 X70.252 Y30.176 Z-3.200 I-0.368 J-0.498 K0.000 F100.000
G3 X69.498 Y29.328 Z-3.200 I1.632 J-2.211 K0.000 F100.000
G3 X68.067 Y25.023 Z-3.200 I11.849 J-6.329 K0.000 F100.000
G3 X67.779 Y21.840 Z-3.200 I17.234 J-3.162 K0.000 F100.000
G1 X67.779 Y21.840 Z-4.800 F100.000
G3 X67.799 Y21.018 Z-4.800 I17.521 J0.021 K0.000 F100.000
G3 X68.298 Y19.448 Z-4.800 I2.671 J-0.015 K0.000 F100.000
G3 X69.076 Y19.305 Z-4.800 I0.457 J0.298 K0.000 F100.000
G3 X69.718 Y20.142 Z-4.800 I-1.598 J1.890 K0.000 F100.000
G3 X70.767 Y23.616 Z-4.800 I-11.776 J5.450 K0.000 F100.000
G3 X71.206 Y29.553 Z-4.800 I-25.006 J4.832 K0.000 F100.000
G3 X70.992 Y30.179 Z-4.800 I-0.815 J0.071 K0.000 F100.000
G3 X70.252 Y30.176 Z-4.800 I-0.368 J-0.498 K0.000 F100.000
G3 X69.498 Y29.328 Z-4.800 I1.632 J-2.211 K0.000 F100.000
G3 X68.067 Y25.023 Z-4.800 I11.849 J-6.329 K0.000 F100.000
G3 X67.779 Y21.840 Z-4.800 I17.234 J-3.162 K0.000 F100.000
G0 Z5.000
G0 Z5.000
G0 X67.779 Y21.840
G0 X84.477 Y51.742
G0 X84.477 Y51.742 Z3.000
G1 X84.477 Y51.742 Z-1.600 F100.000
G3 X90.900 Y51.859 Z-1.600 I2.810 J22.051 K0.000 F100.000
G3 X95.267 Y53.897 Z-1.600 I-1.638 J9.208 K0.000 F100.000
G3 X97.812 Y59.686 Z-1.600 I-5.034 J5.667 K0.000 F100.000
G3 X97.181 Y62.535 Z-1.600 I-5.729 J0.225 K0.000 F100.000
G3 X94.471 Y64.115 Z-1.600 I-2.781 J-1.656 K0.000 F100.000
G3 X90.134 Y62.657 Z-1.600 I-0.322 J-6.223 K0.000 F100.000
G3 X87.293 Y59.123 Z-1.600 I7.998 J-9.338 K0.000 F100.000
G3 X84.477 Y51.742 Z-1.600 I28.516 J-15.110 K0.000 F100.000
G1 X84.477 Y51.742 Z-3.200 F100.000
G3 X90.900 Y51.859 Z-3.200 I2.810 J22.051 K0.000 F100.000
G3 X95.267 Y53.897 Z-3.200 I-1.638 J9.208 K0.000 F100.000
G3 X97.812 Y59.686 Z-3.200 I-5.034 J5.667 K0.000 F100.000
G3 X97.181 Y62.535 Z-3.200 I-5.729 J0.225 K0.000 F100.000
G3 X94.471 Y64.115 Z-3.200 I-2.781 J-1.656 K0.000 F100.000
G3 X90.134 Y62.657 Z-3.200 I-0.322 J-6.223 K0.000 F100.000
G3 X87.293 Y59.123 Z-3.200 I7.998 J-9.338 K0.000 F100.000
G3 X84.477 Y51.742 Z-3.200 I28.516 J-15.110 K0.000 F100.000
G1 X84.477 Y51.742 Z-4.800 F100.000
G3 X90.900 Y51.859 Z-4.800 I2.810 J22.051 K0.000 F100.000
G3 X95.267 Y53.897 Z-4.800 I-1.638 J9.208 K0.000 F100.000
G3 X97.812 Y59.686 Z-4.800 I-5.034 J5.667 K0.000 F100.000
G3 X97.181 Y62.535 Z-4.800 I-5.729 J0.225 K0.000 F100.000
G3 X94.471 Y64.115 Z-4.800 I-2.781 J-1.656 K0.000 F100.000
G3 X90.134 Y62.657 Z-4.800 I-0.322 J-6.223 K0.000 F100.000
G3 X87.293 Y59.123 Z-4.800 I7.998 J-9.338 K0.000 F100.000
G3 X84.477 Y51.742 Z-4.800 I28.516 J-15.110 K0.000 F100.000
G0 Z5.000
G0 Z5.000
G0 X84.477 Y51.742
G0 X124.267 Y24.198
G0 X124.267 Y24.198 Z3.000
G1 X124.267 Y24.198 Z-1.600 F100.000
G3 X122.944 Y21.376 Z-1.600 I7.697 J-5.328 K0.000 F100.000
G3 X122.351 Y18.843 Z-1.600 I15.592 J-4.987 K0.000 F100.000
G3 X122.499 Y16.573 Z-1.600 I4.468 J-0.849 K0.000 F100.000
G3 X124.723 Y15.311 Z-1.600 I1.930 J0.811 K0.000 F100.000
G1 X125.079 Y15.384 Z-1.600 F100.000
G3 X126.890 Y16.801 Z-1.600 I-1.200 J3.400 K0.000 F100.000
G3 X127.817 Y19.687 Z-1.600 I-3.844 J2.826 K0.000 F100.000
G3 X127.305 Y20.816 Z-1.600 I-1.391 J0.050 K0.000 F100.000
G2 X126.174 Y21.822 Z-1.600 I3.640 J5.233 K0.000 F100.000
G2 X125.672 Y23.952 Z-1.600 I1.643 J1.511 K0.000 F100.000
G2 X127.022 Y26.154 Z-1.600 I4.581 J-1.293 K0.000 F100.000
G3 X124.778 Y24.870 Z-1.600 I0.669 J-3.773 K0.000 F100.000
G3 X124.267 Y24.198 Z-1.600 I7.186 J-6.000 K0.000 F100.000
G1 X124.267 Y24.198 Z-3.200 F100.000
G3 X122.944 Y21.376 Z-3.200 I7.697 J-5.328 K0.000 F100.000
G3 X122.351 Y18.843 Z-3.200 I15.592 J-4.987 K0.000 F100.000
G3 X122.499 Y16.573 Z-3.200 I4.468 J-0.849 K0.000 F100.000
G3 X124.723 Y15.311 Z-3.200 I1.930 J0.811 K0.000 F100.000
G1 X125.079 Y15.384 Z-3.200 F100.000
G3 X126.890 Y16.801 Z-3.200 I-1.200 J3.400 K0.000 F100.000
G3 X127.817 Y19.687 Z-3.200 I-3.844 J2.826 K0.000 F100.000
G3 X127.305 Y20.816 Z-3.200 I-1.391 J0.050 K0.000 F100.000
G2 X126.174 Y21.822 Z-3.200 I3.640 J5.233 K0.000 F100.000
G2 X125.672 Y23.952 Z-3.200 I1.643 J1.511 K0.000 F100.000
G2 X127.022 Y26.154 Z-3.200 I4.581 J-1.293 K0.000 F100.000
G3 X124.778 Y24.870 Z-3.200 I0.669 J-3.773 K0.000 F100.000
G3 X124.267 Y24.198 Z-3.200 I7.186 J-6.000 K0.000 F100.000
G1 X124.267 Y24.198 Z-4.800 F100.000
G3 X122.944 Y21.376 Z-4.800 I7.697 J-5.328 K0.000 F100.000
G3 X122.351 Y18.843 Z-4.800 I15.592 J-4.987 K0.000 F100.000
G3 X122.499 Y16.573 Z-4.800 I4.468 J-0.849 K0.000 F100.000
G3 X124.723 Y15.311 Z-4.800 I1.930 J0.811 K0.000 F100.000
G1 X125.079 Y15.384 Z-4.800 F100.000
G3 X126.890 Y16.801 Z-4.800 I-1.200 J3.400 K0.000 F100.000
G3 X127.817 Y19.687 Z-4.800 I-3.844 J2.826 K0.000 F100.000
G3 X127.305 Y20.816 Z-4.800 I-1.391 J0.050 K0.000 F100.000
G2 X126.174 Y21.822 Z-4.800 I3.640 J5.233 K0.000 F100.000
G2 X125.672 Y23.952 Z-4.800 I1.643 J1.511 K0.000 F100.000
G2 X127.022 Y26.154 Z-4.800 I4.581 J-1.293 K0.000 F100.000
G3 X124.778 Y24.870 Z-4.800 I0.669 J-3.773 K0.000 F100.000
G3 X124.267 Y24.198 Z-4.800 I7.186 J-6.000 K0.000 F100.000
G0 Z5.000
G0 Z5.000
G0 X124.267 Y24.198
G0 X142.718 Y16.298
G0 X142.718 Y16.298 Z3.000
G1 X142.718 Y16.298 Z-1.600 F100.000
G3 X142.675 Y16.198 Z-1.600 I10.808 J-4.628 K0.000 F100.000
G3 X141.828 Y13.728 Z-1.600 I14.761 J-6.449 K0.000 F100.000
G3 X141.749 Y11.454 Z-1.600 I4.364 J-1.289 K0.000 F100.000
G3 X143.834 Y9.978 Z-1.600 I1.999 J0.614 K0.000 F100.000
G3 X145.754 Y10.849 Z-1.600 I-0.230 J3.061 K0.000 F100.000
G3 X147.351 Y14.023 Z-1.600 I-3.253 J3.626 K0.000 F100.000
G3 X147.063 Y15.079 Z-1.600 I-1.533 J0.149 K0.000 F100.000
G3 X146.339 Y15.800 Z-1.600 I-7.996 J-7.313 K0.000 F100.000
G2 X145.670 Y16.768 Z-1.600 I2.646 J2.542 K0.000 F100.000
G2 X145.643 Y18.481 Z-1.600 I2.030 J0.889 K0.000 F100.000
G2 X147.207 Y20.535 Z-1.600 I4.411 J-1.736 K0.000 F100.000
G3 X146.389 Y20.393 Z-1.600 I-0.044 J-2.179 K0.000 F100.000
G3 X143.965 Y18.513 Z-1.600 I1.823 J-4.851 K0.000 F100.000
G3 X142.718 Y16.298 Z-1.600 I9.560 J-6.843 K0.000 F100.000
G1 X142.718 Y16.298 Z-3.200 F100.000
G3 X142.675 Y16.198 Z-3.200 I10.808 J-4.628 K0.000 F100.000
G3 X141.828 Y13.728 Z-3.200 I14.761 J-6.449 K0.000 F100.000
G3 X141.749 Y11.454 Z-3.200 I4.364 J-1.289 K0.000 F100.000
G3 X143.834 Y9.978 Z-3.200 I1.999 J0.614 K0.000 F100.000
G3 X145.754 Y10.849 Z-3.200 I-0.230 J3.061 K0.000 F100.000
G3 X147.351 Y14.023 Z-3.200 I-3.253 J3.626 K0.000 F100.000
G3 X147.063 Y15.079 Z-3.200 I-1.533 J0.149 K0.000 F100.000
G3 X146.339 Y15.800 Z-3.200 I-7.996 J-7.313 K0.000 F100.000
G2 X145.670 Y16.768 Z-3.200 I2.646 J2.542 K0.000 F100.000
G2 X145.643 Y18.481 Z-3.200 I2.030 J0.889 K0.000 F100.000
G2 X147.207 Y20.535 Z-3.200 I4.411 J-1.736 K0.000 F100.000
G3 X146.389 Y20.393 Z-3.200 I-0.044 J-2.179 K0.000 F100.000
G3 X143.965 Y18.513 Z-3.200 I1.823 J-4.851 K0.000 F100.000
G3 X142.718 Y16.298 Z-3.200 I9.560 J-6.843 K0.000 F100.000
G1 X142.718 Y16.298 Z-4.800 F100.000
G3 X142.675 Y16.198 Z-4.800 I10.808 J-4.628 K0.000 F100.000
G3 X141.828 Y13.728 Z-4.800 I14.761 J-6.449 K0.000 F100.000
G3 X141.749 Y11.454 Z-4.800 I4.364 J-1.289 K0.000 F100.000
G3 X143.834 Y9.978 Z-4.800 I1.999 J0.614 K0.000 F100.000
G3 X145.754 Y10.849 Z-4.800 I-0.230 J3.061 K0.000 F100.000
G3 X147.351 Y14.023 Z-4.800 I-3.253 J3.626 K0.000 F100.000
G3 X147.063 Y15.079 Z-4.800 I-1.533 J0.149 K0.000 F100.000
G3 X146.339 Y15.800 Z-4.800 I-7.996 J-7.313 K0.000 F100.000
G2 X145.670 Y16.768 Z-4.800 I2.646 J2.542 K0.000 F100.000
G2 X145.643 Y18.481 Z-4.800 I2.030 J0.889 K0.000 F100.000
G2 X147.207 Y20.535 Z-4.800 I4.411 J-1.736 K0.000 F100.000
G3 X146.389 Y20.393 Z-4.800 I-0.044 J-2.179 K0.000 F100.000
G3 X143.965 Y18.513 Z-4.800 I1.823 J-4.851 K0.000 F100.000
G3 X142.718 Y16.298 Z-4.800 I9.560 J-6.843 K0.000 F100.000
G0 Z5.000
G0 Z5.000
G0 X142.718 Y16.298
G0 X138.349 Y23.030
G0 X138.349 Y23.030 Z3.000
G1 X138.349 Y23.030 Z-1.600 F100.000
G2 X149.409 Y24.048 Z-1.600 I6.488 J-9.906 K0.000 F100.000
G2 X153.786 Y19.127 Z-1.600 I-2.378 J-6.522 K0.000 F100.000
G2 X153.865 Y16.046 Z-1.600 I-8.174 J-1.754 K0.000 F100.000
G2 X150.961 Y9.492 Z-1.600 I-15.670 J3.024 K0.000 F100.000
G2 X144.190 Y5.168 Z-1.600 I-8.525 J5.886 K0.000 F100.000
G2 X136.676 Y6.802 Z-1.600 I-1.502 J11.188 K0.000 F100.000
G2 X132.833 Y14.215 Z-1.600 I4.048 J6.801 K0.000 F100.000
G2 X138.349 Y23.030 Z-1.600 I12.097 J-1.438 K0.000 F100.000
G0 Z5.000
G0 X134.112 Y22.968 Z5.000
G0 X134.112 Y22.968 Z3.000
G1 X134.112 Y22.968 Z-1.600 F100.000
G2 X134.099 Y22.351 Z-1.600 I-8.366 J-0.122 K0.000 F100.000
G2 X131.258 Y14.596 Z-1.600 I-16.113 J1.504 K0.000 F100.000
G2 X124.693 Y10.380 Z-1.600 I-8.284 J5.681 K0.000 F100.000
G2 X118.681 Y11.082 Z-1.600 I-1.708 J11.474 K0.000 F100.000
G2 X113.516 Y16.968 Z-1.600 I2.788 J7.655 K0.000 F100.000
G2 X108.958 Y14.088 Z-1.600 I-9.594 J10.136 K0.000 F100.000
G2 X103.513 Y13.695 Z-1.600 I-3.283 J7.571 K0.000 F100.000
G2 X99.812 Y17.149 Z-1.600 I1.238 J5.037 K0.000 F100.000
G2 X99.651 Y21.385 Z-1.600 I9.530 J2.484 K0.000 F100.000
G2 X101.052 Y26.308 Z-1.600 I33.636 J-6.912 K0.000 F100.000
G3 X101.930 Y29.616 Z-1.600 I-15.329 J5.840 K0.000 F100.000
G3 X101.960 Y30.217 Z-1.600 I-1.309 J0.366 K0.000 F100.000
G3 X101.478 Y30.808 Z-1.600 I-1.146 J-0.443 K0.000 F100.000
G2 X101.278 Y33.303 Z-1.600 I0.712 J1.313 K0.000 F100.000
G3 X103.040 Y34.535 Z-1.600 I-3.173 J6.412 K0.000 F100.000
G3 X104.655 Y38.361 Z-1.600 I-3.764 J3.843 K0.000 F100.000
G3 X104.041 Y39.223 Z-1.600 I-0.874 J0.027 K0.000 F100.000
G3 X102.244 Y38.833 Z-1.600 I-0.377 J-2.594 K0.000 F100.000
G3 X100.415 Y36.607 Z-1.600 I3.093 J-4.407 K0.000 F100.000
G3 X99.761 Y33.113 Z-1.600 I8.020 J-3.309 K0.000 F100.000
G2 X99.820 Y30.618 Z-1.600 I-36.932 J-2.112 K0.000 F100.000
G2 X99.069 Y28.036 Z-1.600 I-3.984 J-0.242 K0.000 F100.000
G2 X95.341 Y27.389 Z-1.600 I-2.203 J1.629 K0.000 F100.000
G2 X94.467 Y29.285 Z-1.600 I1.102 J1.657 K0.000 F100.000
G2 X94.905 Y30.606 Z-1.600 I5.284 J-1.019 K0.000 F100.000
G3 X95.041 Y31.132 Z-1.600 I-0.729 J0.469 K0.000 F100.000
G3 X94.223 Y31.533 Z-1.600 I-0.639 J-0.269 K0.000 F100.000
G3 X93.192 Y30.265 Z-1.600 I0.627 J-1.564 K0.000 F100.000
G3 X93.806 Y27.899 Z-1.600 I3.140 J-0.448 K0.000 F100.000
G3 X95.190 Y26.496 Z-1.600 I7.596 J6.112 K0.000 F100.000
G2 X97.163 Y24.640 Z-1.600 I-13.480 J-16.301 K0.000 F100.000
G2 X98.458 Y21.400 Z-1.600 I-3.682 J-3.350 K0.000 F100.000
G2 X95.076 Y15.710 Z-1.600 I-6.636 J0.094 K0.000 F100.000
G2 X89.272 Y14.621 Z-1.600 I-4.749 J9.297 K0.000 F100.000
G2 X85.237 Y15.806 Z-1.600 I0.762 J10.054 K0.000 F100.000
G2 X82.951 Y17.881 Z-1.600 I2.677 J5.246 K0.000 F100.000
G2 X80.143 Y15.584 Z-1.600 I-7.240 J5.985 K0.000 F100.000
G2 X76.772 Y14.569 Z-1.600 I-3.927 J6.938 K0.000 F100.000
G2 X72.202 Y17.076 Z-1.600 I-0.340 J4.799 K0.000 F100.000
G2 X68.583 Y14.598 Z-1.600 I-7.670 J7.321 K0.000 F100.000
G2 X64.261 Y13.983 Z-1.600 I-3.203 J7.023 K0.000 F100.000
G2 X60.028 Y16.787 Z-1.600 I0.721 J5.686 K0.000 F100.000
G2 X57.225 Y13.768 Z-1.600 I-8.494 J5.075 K0.000 F100.000
G2 X54.022 Y12.377 Z-1.600 I-4.604 J6.219 K0.000 F100.000
G1 X54.021 Y12.382 Z-1.600 F100.000
G1 X53.989 Y12.371 Z-1.600 F100.000
G2 X52.820 Y12.304 Z-1.600 I-0.862 J4.821 K0.000 F100.000
G2 X49.042 Y14.374 Z-1.600 I0.427 J5.262 K0.000 F100.000
G2 X42.530 Y10.317 Z-1.600 I-7.277 J4.427 K0.000 F100.000
G2 X36.823 Y12.784 Z-1.600 I-0.665 J6.296 K0.000 F100.000
G2 X35.360 Y15.940 Z-1.600 I7.815 J5.539 K0.000 F100.000
G2 X35.328 Y22.987 Z-1.600 I14.976 J3.592 K0.000 F100.000
G2 X38.503 Y28.512 Z-1.600 I10.180 J-2.176 K0.000 F100.000
G2 X44.841 Y31.251 Z-1.600 I7.470 J-8.582 K0.000 F100.000
G2 X48.586 Y30.899 Z-1.600 I0.879 J-10.739 K0.000 F100.000
G3 X49.243 Y30.893 Z-1.600 I0.341 J1.388 K0.000 F100.000
G3 X51.448 Y31.875 Z-1.600 I-5.854 J16.107 K0.000 F100.000
G2 X53.777 Y32.905 Z-1.600 I4.928 J-7.994 K0.000 F100.000
G2 X55.075 Y32.390 Z-1.600 I0.325 J-1.075 K0.000 F100.000
G2 X55.328 Y31.045 Z-1.600 I-3.339 J-1.324 K0.000 F100.000
G3 X55.081 Y26.744 Z-1.600 I168.560 J-11.820 K0.000 F100.000
G3 X55.385 Y20.637 Z-1.600 I25.771 J-1.781 K0.000 F100.000
G3 X55.835 Y19.491 Z-1.600 I2.629 J0.371 K0.000 F100.000
G3 X57.991 Y19.213 Z-1.600 I1.183 J0.675 K0.000 F100.000
G3 X58.901 Y20.563 Z-1.600 I-20.628 J14.890 K0.000 F100.000
G2 X60.155 Y28.089 Z-1.600 I14.358 J1.474 K0.000 F100.000
G2 X64.292 Y32.868 Z-1.600 I9.858 J-4.353 K0.000 F100.000
G2 X70.458 Y34.331 Z-1.600 I5.134 J-7.913 K0.000 F100.000
G2 X72.599 Y33.792 Z-1.600 I-0.617 J-6.964 K0.000 F100.000
G2 X75.194 Y47.573 Z-1.600 I162.759 J-23.511 K0.000 F100.000
G2 X65.906 Y50.894 Z-1.600 I82.669 J245.866 K0.000 F100.000
G3 X54.403 Y54.939 Z-1.600 I-46.839 J-114.819 K0.000 F100.000
G3 X36.208 Y56.840 Z-1.600 I-14.117 J-47.087 K0.000 F100.000
G3 X34.650 Y56.525 Z-1.600 I1.001 J-8.950 K0.000 F100.000
G3 X30.783 Y54.105 Z-1.600 I2.180 J-7.785 K0.000 F100.000
G3 X29.517 Y45.714 Z-1.600 I6.285 J-5.239 K0.000 F100.000
G2 X30.129 Y44.381 Z-1.600 I-6.242 J-3.670 K0.000 F100.000
G2 X29.651 Y42.891 Z-1.600 I-1.200 J-0.437 K0.000 F100.000
G2 X28.522 Y42.806 Z-1.600 I-0.709 J1.878 K0.000 F100.000
G2 X25.889 Y43.861 Z-1.600 I1.983 J8.761 K0.000 F100.000
G2 X20.739 Y49.662 Z-1.600 I7.546 J11.886 K0.000 F100.000
G2 X19.289 Y57.775 Z-1.600 I14.291 J6.741 K0.000 F100.000
G2 X28.950 Y71.038 Z-1.600 I15.487 J-1.132 K0.000 F100.000
G2 X37.455 Y72.348 Z-1.600 I7.234 J-18.703 K0.000 F100.000
G2 X46.241 Y70.399 Z-1.600 I-2.719 J-33.028 K0.000 F100.000
G2 X56.287 Y65.674 Z-1.600 I-27.585 J-71.693 K0.000 F100.000
G2 X67.746 Y58.905 Z-1.600 I-300.182 J-521.299 K0.000 F100.000
G3 X76.611 Y54.242 Z-1.600 I44.324 J73.507 K0.000 F100.000
G2 X79.551 Y63.274 Z-1.600 I50.279 J-11.374 K0.000 F100.000
G2 X83.357 Y69.837 Z-1.600 I27.852 J-11.767 K0.000 F100.000
G2 X87.578 Y73.888 Z-1.600 I14.557 J-10.942 K0.000 F100.000
G2 X98.680 Y76.094 Z-1.600 I8.047 J-11.464 K0.000 F100.000
G2 X105.666 Y70.747 Z-1.600 I-2.143 J-10.038 K0.000 F100.000
G2 X106.937 Y66.889 Z-1.600 I-13.243 J-6.502 K0.000 F100.000
G2 X106.915 Y60.296 Z-1.600 I-20.179 J-3.229 K0.000 F100.000
G2 X100.595 Y49.935 Z-1.600 I-16.224 J2.788 K0.000 F100.000
G2 X87.787 Y45.733 Z-1.600 I-13.051 J18.160 K0.000 F100.000
G2 X83.042 Y46.206 Z-1.600 I1.162 J35.706 K0.000 F100.000
G3 X79.643 Y27.921 Z-1.600 I158.411 J-38.909 K0.000 F100.000
G3 X79.349 Y24.144 Z-1.600 I44.979 J-5.393 K0.000 F100.000
G3 X79.556 Y21.541 Z-1.600 I7.956 J-0.677 K0.000 F100.000
G3 X80.225 Y20.662 Z-1.600 I1.320 J0.310 K0.000 F100.000
G3 X81.505 Y20.884 Z-1.600 I0.432 J1.304 K0.000 F100.000
G3 X82.373 Y21.870 Z-1.600 I-8.591 J8.438 K0.000 F100.000
G2 X83.680 Y23.781 Z-1.600 I3.161 J-0.760 K0.000 F100.000
G2 X87.012 Y23.895 Z-1.600 I1.748 J-2.348 K0.000 F100.000
G2 X88.038 Y21.529 Z-1.600 I-1.514 J-2.062 K0.000 F100.000
G1 X88.038 Y21.529 Z-1.600 F100.000
G3 X88.157 Y20.056 Z-1.600 I3.261 J-0.478 K0.000 F100.000
G3 X89.247 Y19.771 Z-1.600 I0.639 J0.214 K0.000 F100.000
G3 X89.552 Y20.961 Z-1.600 I-1.205 J0.942 K0.000 F100.000
G3 X88.845 Y22.562 Z-1.600 I-3.659 J-0.659 K0.000 F100.000
G3 X87.211 Y24.336 Z-1.600 I-32.176 J-27.985 K0.000 F100.000
G2 X85.681 Y26.270 Z-1.600 I5.368 J5.817 K0.000 F100.000
G2 X85.800 Y31.906 Z-1.600 I4.725 J2.720 K0.000 F100.000
G2 X89.361 Y34.635 Z-1.600 I6.135 J-4.318 K0.000 F100.000
G2 X96.248 Y34.755 Z-1.600 I3.623 J-10.218 K0.000 F100.000
G2 X100.278 Y42.123 Z-1.600 I11.019 J-1.241 K0.000 F100.000
G2 X108.593 Y43.500 Z-1.600 I5.342 J-6.462 K0.000 F100.000
G2 X111.938 Y40.214 Z-1.600 I-2.050 J-5.433 K0.000 F100.000
G2 X112.403 Y36.552 Z-1.600 I-7.732 J-2.842 K0.000 F100.000
G3 X111.997 Y33.665 Z-1.600 I152.621 J-22.949 K0.000 F100.000
G3 X112.162 Y32.985 Z-1.600 I0.713 J-0.187 K0.000 F100.000
G3 X113.358 Y32.667 Z-1.600 I1.188 J2.056 K0.000 F100.000
G2 X114.277 Y32.059 Z-1.600 I-0.040 J-1.060 K0.000 F100.000
G2 X113.785 Y30.263 Z-1.600 I-1.572 J-0.535 K0.000 F100.000
G2 X112.685 Y29.803 Z-1.600 I-1.370 J1.730 K0.000 F100.000
G3 X110.722 Y28.362 Z-1.600 I0.419 J-2.628 K0.000 F100.000
G3 X109.287 Y23.839 Z-1.600 I28.905 J-11.661 K0.000 F100.000
G3 X108.758 Y21.009 Z-1.600 I16.795 J-4.605 K0.000 F100.000
G1 X108.755 Y21.001 Z-1.600 F100.000
G3 X109.200 Y19.291 Z-1.600 I1.977 J-0.399 K0.000 F100.000
G3 X110.951 Y18.969 Z-1.600 I1.196 J1.585 K0.000 F100.000
G3 X112.593 Y19.896 Z-1.600 I-2.676 J6.660 K0.000 F100.000
G2 X113.587 Y20.659 Z-1.600 I8.855 J-10.513 K0.000 F100.000
G2 X118.030 Y27.808 Z-1.600 I12.004 J-2.504 K0.000 F100.000
G2 X128.864 Y29.867 Z-1.600 I7.379 J-9.295 K0.000 F100.000
G2 X133.711 Y25.410 Z-1.600 I-1.711 J-6.725 K0.000 F100.000
G2 X134.112 Y22.968 Z-1.600 I-7.965 J-2.564 K0.000 F100.000
G0 Z5.000
G0 X152.852 Y10.476 Z5.000
G0 X152.852 Y10.476 Z3.000
G1 X152.852 Y10.476 Z-1.600 F100.000
G2 X156.034 Y14.863 Z-1.600 I56.960 J-37.969 K0.000 F100.000
G3 X162.156 Y23.372 Z-1.600 I-57.679 J47.952 K0.000 F100.000
G3 X164.638 Y28.471 Z-1.600 I-26.064 J15.842 K0.000 F100.000
G3 X164.816 Y29.485 Z-1.600 I-2.677 J0.991 K0.000 F100.000
G3 X164.047 Y30.733 Z-1.600 I-1.188 J0.130 K0.000 F100.000
G2 X163.332 Y31.897 Z-1.600 I0.338 J1.009 K0.000 F100.000
G2 X164.256 Y33.055 Z-1.600 I1.612 J-0.339 K0.000 F100.000
G2 X165.620 Y33.539 Z-1.600 I3.063 J-6.460 K0.000 F100.000
G2 X170.118 Y33.385 Z-1.600 I1.941 J-9.075 K0.000 F100.000
G2 X173.118 Y31.614 Z-1.600 I-1.689 J-6.288 K0.000 F100.000
G2 X174.065 Y26.857 Z-1.600 I-3.620 J-3.193 K0.000 F100.000
G2 X172.607 Y23.941 Z-1.600 I-16.597 J6.476 K0.000 F100.000
G2 X168.714 Y18.311 Z-1.600 I-92.710 J59.957 K0.000 F100.000
G3 X162.849 Y10.133 Z-1.600 I126.731 J-97.062 K0.000 F100.000
G3 X160.942 Y6.820 Z-1.600 I21.106 J-14.354 K0.000 F100.000
G3 X160.255 Y4.556 Z-1.600 I5.408 J-2.879 K0.000 F100.000
G3 X160.541 Y3.707 Z-1.600 I0.968 J-0.147 K0.000 F100.000
G3 X161.704 Y3.538 Z-1.600 I0.775 J1.247 K0.000 F100.000
G2 X162.595 Y3.805 Z-1.600 I3.430 J-9.852 K0.000 F100.000
G2 X163.788 Y2.680 Z-1.600 I0.230 J-0.950 K0.000 F100.000
G2 X163.159 Y1.617 Z-1.600 I-2.053 J0.496 K0.000 F100.000
G2 X159.275 Y-0.263 Z-1.600 I-5.785 J7.000 K0.000 F100.000
G2 X153.785 Y0.815 Z-1.600 I-1.510 J6.829 K0.000 F100.000
G2 X151.229 Y6.775 Z-1.600 I3.176 J4.890 K0.000 F100.000
G2 X152.690 Y10.231 Z-1.600 I11.592 J-2.863 K0.000 F100.000
G2 X152.852 Y10.476 Z-1.600 I57.122 J-37.724 K0.000 F100.000
G0 Z5.000
G0 X34.293 Y15.535 Z5.000
G0 X34.293 Y15.535 Z3.000
G1 X34.293 Y15.535 Z-1.600 F100.000
G2 X34.217 Y14.517 Z-1.600 I-16.179 J0.690 K0.000 F100.000
G2 X29.706 Y7.097 Z-1.600 I-9.872 J0.921 K0.000 F100.000
G2 X23.201 Y5.314 Z-1.600 I-6.081 J9.425 K0.000 F100.000
G2 X17.754 Y7.820 Z-1.600 I0.280 J7.782 K0.000 F100.000
G2 X14.068 Y2.299 Z-1.600 I-13.066 J4.733 K0.000 F100.000
G2 X10.801 Y0.492 Z-1.600 I-5.400 J5.907 K0.000 F100.000
G1 X10.066 Y0.325 Z-1.600 F100.000
G2 X5.236 Y1.844 Z-1.600 I-1.057 J5.080 K0.000 F100.000
G2 X3.270 Y5.567 Z-1.600 I7.438 J6.309 K0.000 F100.000
G2 X2.447 Y10.485 Z-1.600 I30.701 J7.662 K0.000 F100.000
G3 X1.731 Y14.285 Z-1.600 I-16.657 J-1.174 K0.000 F100.000
G3 X1.555 Y14.512 Z-1.600 I-0.229 J0.004 K0.000 F100.000
G3 X0.977 Y14.489 Z-1.600 I-0.140 J-3.920 K0.000 F100.000
G2 X-0.086 Y15.014 Z-1.600 I-0.081 J1.175 K0.000 F100.000
G2 X-0.312 Y17.132 Z-1.600 I2.582 J1.346 K0.000 F100.000
G2 X0.098 Y17.694 Z-1.600 I0.903 J-0.228 K0.000 F100.000
G3 X2.137 Y19.114 Z-1.600 I-2.269 J5.434 K0.000 F100.000
G3 X4.213 Y22.865 Z-1.600 I-9.503 J7.710 K0.000 F100.000
G3 X5.116 Y26.157 Z-1.600 I-46.822 J14.613 K0.000 F100.000
G2 X5.872 Y27.415 Z-1.600 I2.490 J-0.639 K0.000 F100.000
G2 X7.493 Y27.526 Z-1.600 I0.878 J-0.929 K0.000 F100.000
G2 X8.168 Y26.395 Z-1.600 I-1.343 J-1.569 K0.000 F100.000
G2 X8.673 Y23.770 Z-1.600 I-38.868 J-8.835 K0.000 F100.000
G3 X9.040 Y21.980 Z-1.600 I8.293 J0.768 K0.000 F100.000
G3 X9.472 Y21.469 Z-1.600 I0.675 J0.132 K0.000 F100.000
G3 X10.526 Y21.670 Z-1.600 I0.136 J2.146 K0.000 F100.000
G2 X11.864 Y21.321 Z-1.600 I0.471 J-0.932 K0.000 F100.000
G2 X12.136 Y19.135 Z-1.600 I-2.672 J-1.443 K0.000 F100.000
G2 X11.385 Y18.194 Z-1.600 I-1.325 J0.287 K0.000 F100.000
G3 X10.310 Y17.369 Z-1.600 I0.424 J-1.666 K0.000 F100.000
G3 X10.219 Y16.414 Z-1.600 I2.406 J-0.711 K0.000 F100.000
G3 X11.191 Y10.640 Z-1.600 I39.279 J3.639 K0.000 F100.000
G3 X12.093 Y8.327 Z-1.600 I6.547 J1.222 K0.000 F100.000
G3 X12.756 Y7.828 Z-1.600 I1.074 J0.737 K0.000 F100.000
G3 X14.499 Y8.297 Z-1.600 I0.404 J1.973 K0.000 F100.000
G3 X16.022 Y10.707 Z-1.600 I-6.988 J6.100 K0.000 F100.000
G2 X16.309 Y19.829 Z-1.600 I11.600 J4.200 K0.000 F100.000
G2 X24.753 Y26.742 Z-1.600 I10.910 J-4.711 K0.000 F100.000
G2 X31.148 Y25.176 Z-1.600 I1.744 J-6.718 K0.000 F100.000
G2 X32.964 Y22.683 Z-1.600 I-5.738 J-6.087 K0.000 F100.000
G2 X34.293 Y15.535 Z-1.600 I-14.850 J-6.458 K0.000 F100.000
G1 X34.293 Y15.535 Z-3.200 F100.000
G2 X34.217 Y14.517 Z-3.200 I-16.179 J0.690 K0.000 F100.000
G2 X29.706 Y7.097 Z-3.200 I-9.872 J0.921 K0.000 F100.000
G2 X23.201 Y5.314 Z-3.200 I-6.081 J9.425 K0.000 F100.000
G2 X17.754 Y7.820 Z-3.200 I0.280 J7.782 K0.000 F100.000
G2 X14.068 Y2.299 Z-3.200 I-13.066 J4.733 K0.000 F100.000
G2 X10.801 Y0.492 Z-3.200 I-5.400 J5.907 K0.000 F100.000
G1 X10.066 Y0.325 Z-3.200 F100.000
G2 X5.236 Y1.844 Z-3.200 I-1.057 J5.080 K0.000 F100.000
G2 X3.270 Y5.567 Z-3.200 I7.438 J6.309 K0.000 F100.000
G2 X2.447 Y10.485 Z-3.200 I30.701 J7.662 K0.000 F100.000
G3 X1.731 Y14.285 Z-3.200 I-16.657 J-1.174 K0.000 F100.000
G3 X1.555 Y14.512 Z-3.200 I-0.229 J0.004 K0.000 F100.000
G3 X0.977 Y14.489 Z-3.200 I-0.140 J-3.920 K0.000 F100.000
G2 X-0.086 Y15.014 Z-3.200 I-0.081 J1.175 K0.000 F100.000
G2 X-0.312 Y17.132 Z-3.200 I2.582 J1.346 K0.000 F100.000
G2 X0.098 Y17.694 Z-3.200 I0.903 J-0.228 K0.000 F100.000
G3 X2.137 Y19.114 Z-3.200 I-2.269 J5.434 K0.000 F100.000
G3 X4.213 Y22.865 Z-3.200 I-9.503 J7.710 K0.000 F100.000
G3 X5.116 Y26.157 Z-3.200 I-46.822 J14.613 K0.000 F100.000
G2 X5.872 Y27.415 Z-3.200 I2.490 J-0.639 K0.000 F100.000
G2 X7.493 Y27.526 Z-3.200 I0.878 J-0.929 K0.000 F100.000
G2 X8.168 Y26.395 Z-3.200 I-1.343 J-1.569 K0.000 F100.000
G2 X8.673 Y23.770 Z-3.200 I-38.868 J-8.835 K0.000 F100.000
G3 X9.040 Y21.980 Z-3.200 I8.293 J0.768 K0.000 F100.000
G3 X9.472 Y21.469 Z-3.200 I0.675 J0.132 K0.000 F100.000
G3 X10.526 Y21.670 Z-3.200 I0.136 J2.146 K0.000 F100.000
G2 X11.864 Y21.321 Z-3.200 I0.471 J-0.932 K0.000 F100.000
G2 X12.136 Y19.135 Z-3.200 I-2.672 J-1.443 K0.000 F100.000
G2 X11.385 Y18.194 Z-3.200 I-1.325 J0.287 K0.000 F100.000
G3 X10.310 Y17.369 Z-3.200 I0.424 J-1.666 K0.000 F100.000
G3 X10.219 Y16.414 Z-3.200 I2.406 J-0.711 K0.000 F100.000
G3 X11.191 Y10.640 Z-3.200 I39.279 J3.639 K0.000 F100.000
G3 X12.093 Y8.327 Z-3.200 I6.547 J1.222 K0.000 F100.000
G3 X12.756 Y7.828 Z-3.200 I1.074 J0.737 K0.000 F100.000
G3 X14.499 Y8.297 Z-3.200 I0.404 J1.973 K0.000 F100.000
G3 X16.022 Y10.707 Z-3.200 I-6.988 J6.100 K0.000 F100.000
G2 X16.309 Y19.829 Z-3.200 I11.600 J4.200 K0.000 F100.000
G2 X24.753 Y26.742 Z-3.200 I10.910 J-4.711 K0.000 F100.000
G2 X31.148 Y25.176 Z-3.200 I1.744 J-6.718 K0.000 F100.000
G2 X32.964 Y22.683 Z-3.200 I-5.738 J-6.087 K0.000 F100.000
G2 X34.293 Y15.535 Z-3.200 I-14.850 J-6.458 K0.000 F100.000
G0 Z5.000
G0 X35.389 Y15.830 Z5.000
G0 X35.389 Y15.830 Z3.000
G1 X35.389 Y15.830 Z-3.200 F100.000
G2 X35.360 Y15.940 Z-3.200 I9.249 J2.492 K0.000 F100.000
G2 X35.328 Y22.987 Z-3.200 I14.976 J3.592 K0.000 F100.000
G2 X38.503 Y28.512 Z-3.200 I10.180 J-2.176 K0.000 F100.000
G2 X44.841 Y31.251 Z-3.200 I7.470 J-8.582 K0.000 F100.000
G2 X48.586 Y30.899 Z-3.200 I0.879 J-10.739 K0.000 F100.000
G3 X49.243 Y30.893 Z-3.200 I0.341 J1.388 K0.000 F100.000
G3 X51.448 Y31.875 Z-3.200 I-5.854 J16.107 K0.000 F100.000
G2 X53.777 Y32.905 Z-3.200 I4.928 J-7.994 K0.000 F100.000
G2 X55.075 Y32.390 Z-3.200 I0.325 J-1.075 K0.000 F100.000
G2 X55.328 Y31.045 Z-3.200 I-3.339 J-1.324 K0.000 F100.000
G3 X55.081 Y26.744 Z-3.200 I168.560 J-11.820 K0.000 F100.000
G3 X55.385 Y20.637 Z-3.200 I25.771 J-1.781 K0.000 F100.000
G3 X55.835 Y19.491 Z-3.200 I2.629 J0.371 K0.000 F100.000
G3 X57.991 Y19.213 Z-3.200 I1.183 J0.675 K0.000 F100.000
G3 X58.901 Y20.563 Z-3.200 I-20.628 J14.890 K0.000 F100.000
G2 X60.155 Y28.089 Z-3.200 I14.358 J1.474 K0.000 F100.000
G2 X64.292 Y32.868 Z-3.200 I9.858 J-4.353 K0.000 F100.000
G2 X70.458 Y34.331 Z-3.200 I5.134 J-7.913 K0.000 F100.000
G2 X72.599 Y33.792 Z-3.200 I-0.617 J-6.964 K0.000 F100.000
G2 X75.194 Y47.573 Z-3.200 I162.759 J-23.511 K0.000 F100.000
G2 X65.906 Y50.894 Z-3.200 I82.669 J245.866 K0.000 F100.000
G3 X54.403 Y54.939 Z-3.200 I-46.839 J-114.819 K0.000 F100.000
G3 X36.208 Y56.840 Z-3.200 I-14.117 J-47.087 K0.000 F100.000
G3 X34.650 Y56.525 Z-3.200 I1.001 J-8.950 K0.000 F100.000
G3 X30.783 Y54.105 Z-3.200 I2.180 J-7.785 K0.000 F100.000
G3 X29.517 Y45.714 Z-3.200 I6.285 J-5.239 K0.000 F100.000
G2 X30.129 Y44.381 Z-3.200 I-6.242 J-3.670 K0.000 F100.000
G2 X29.651 Y42.891 Z-3.200 I-1.200 J-0.437 K0.000 F100.000
G2 X28.522 Y42.806 Z-3.200 I-0.709 J1.878 K0.000 F100.000
G2 X25.889 Y43.861 Z-3.200 I1.983 J8.761 K0.000 F100.000
G2 X20.739 Y49.662 Z-3.200 I7.546 J11.886 K0.000 F100.000
G2 X19.289 Y57.775 Z-3.200 I14.291 J6.741 K0.000 F100.000
G2 X28.950 Y71.038 Z-3.200 I15.487 J-1.132 K0.000 F100.000
G2 X37.455 Y72.348 Z-3.200 I7.234 J-18.703 K0.000 F100.000
G2 X46.241 Y70.399 Z-3.200 I-2.719 J-33.028 K0.000 F100.000
G2 X56.287 Y65.674 Z-3.200 I-27.585 J-71.693 K0.000 F100.000
G2 X67.746 Y58.905 Z-3.200 I-300.182 J-521.299 K0.000 F100.000
G3 X76.611 Y54.242 Z-3.200 I44.324 J73.507 K0.000 F100.000
G2 X79.551 Y63.274 Z-3.200 I50.279 J-11.374 K0.000 F100.000
G2 X83.357 Y69.837 Z-3.200 I27.852 J-11.767 K0.000 F100.000
G2 X87.578 Y73.888 Z-3.200 I14.557 J-10.942 K0.000 F100.000
G2 X98.680 Y76.094 Z-3.200 I8.047 J-11.464 K0.000 F100.000
G2 X105.666 Y70.747 Z-3.200 I-2.143 J-10.038 K0.000 F100.000
G2 X106.937 Y66.889 Z-3.200 I-13.243 J-6.502 K0.000 F100.000
G2 X106.915 Y60.296 Z-3.200 I-20.179 J-3.229 K0.000 F100.000
G2 X100.595 Y49.935 Z-3.200 I-16.224 J2.788 K0.000 F100.000
G2 X87.787 Y45.733 Z-3.200 I-13.051 J18.160 K0.000 F100.000
G2 X83.042 Y46.206 Z-3.200 I1.162 J35.706 K0.000 F100.000
G3 X79.643 Y27.921 Z-3.200 I158.411 J-38.909 K0.000 F100.000
G3 X79.349 Y24.144 Z-3.200 I44.979 J-5.393 K0.000 F100.000
G3 X79.556 Y21.541 Z-3.200 I7.956 J-0.677 K0.000 F100.000
G3 X80.225 Y20.662 Z-3.200 I1.320 J0.310 K0.000 F100.000
G3 X81.505 Y20.884 Z-3.200 I0.432 J1.304 K0.000 F100.000
G3 X82.373 Y21.870 Z-3.200 I-8.591 J8.438 K0.000 F100.000
G2 X83.680 Y23.781 Z-3.200 I3.161 J-0.760 K0.000 F100.000
G2 X87.012 Y23.895 Z-3.200 I1.748 J-2.348 K0.000 F100.000
G2 X88.038 Y21.529 Z-3.200 I-1.514 J-2.062 K0.000 F100.000
G1 X88.038 Y21.529 Z-3.200 F100.000
G3 X88.157 Y20.056 Z-3.200 I3.261 J-0.478 K0.000 F100.000
G3 X89.247 Y19.771 Z-3.200 I0.639 J0.214 K0.000 F100.000
G3 X89.552 Y20.961 Z-3.200 I-1.205 J0.942 K0.000 F100.000
G3 X88.845 Y22.562 Z-3.200 I-3.659 J-0.659 K0.000 F100.000
G3 X87.211 Y24.336 Z-3.200 I-32.176 J-27.985 K0.000 F100.000
G2 X85.681 Y26.270 Z-3.200 I5.368 J5.817 K0.000 F100.000
G2 X85.800 Y31.906 Z-3.200 I4.725 J2.720 K0.000 F100.000
G2 X89.361 Y34.635 Z-3.200 I6.135 J-4.318 K0.000 F100.000
G2 X96.248 Y34.755 Z-3.200 I3.623 J-10.218 K0.000 F100.000
G2 X100.278 Y42.123 Z-3.200 I11.019 J-1.241 K0.000 F100.000
G2 X108.593 Y43.500 Z-3.200 I5.342 J-6.462 K0.000 F100.000
G2 X111.938 Y40.214 Z-3.200 I-2.050 J-5.433 K0.000 F100.000
G2 X112.403 Y36.552 Z-3.200 I-7.732 J-2.842 K0.000 F100.000
G3 X111.997 Y33.665 Z-3.200 I152.621 J-22.949 K0.000 F100.000
G3 X112.162 Y32.985 Z-3.200 I0.713 J-0.187 K0.000 F100.000
G3 X113.358 Y32.667 Z-3.200 I1.188 J2.056 K0.000 F100.000
G2 X114.277 Y32.059 Z-3.200 I-0.040 J-1.060 K0.000 F100.000
G2 X113.785 Y30.263 Z-3.200 I-1.572 J-0.535 K0.000 F100.000
G2 X112.685 Y29.803 Z-3.200 I-1.370 J1.730 K0.000 F100.000
G3 X110.722 Y28.362 Z-3.200 I0.419 J-2.628 K0.000 F100.000
G3 X109.287 Y23.839 Z-3.200 I28.905 J-11.661 K0.000 F100.000
G3 X108.758 Y21.009 Z-3.200 I16.795 J-4.605 K0.000 F100.000
G1 X108.755 Y21.001 Z-3.200 F100.000
G3 X109.200 Y19.291 Z-3.200 I1.977 J-0.399 K0.000 F100.000
G3 X110.951 Y18.969 Z-3.200 I1.196 J1.585 K0.000 F100.000
G3 X112.593 Y19.896 Z-3.200 I-2.676 J6.660 K0.000 F100.000
G2 X113.587 Y20.659 Z-3.200 I8.855 J-10.513 K0.000 F100.000
G2 X118.030 Y27.808 Z-3.200 I12.004 J-2.504 K0.000 F100.000
G2 X128.864 Y29.867 Z-3.200 I7.379 J-9.295 K0.000 F100.000
G2 X133.711 Y25.410 Z-3.200 I-1.711 J-6.725 K0.000 F100.000
G2 X134.099 Y22.351 Z-3.200 I-7.965 J-2.564 K0.000 F100.000
G2 X131.258 Y14.596 Z-3.200 I-16.113 J1.504 K0.000 F100.000
G2 X124.693 Y10.380 Z-3.200 I-8.284 J5.681 K0.000 F100.000
G2 X118.681 Y11.082 Z-3.200 I-1.708 J11.474 K0.000 F100.000
G2 X113.516 Y16.968 Z-3.200 I2.788 J7.655 K0.000 F100.000
G2 X108.958 Y14.088 Z-3.200 I-9.594 J10.136 K0.000 F100.000
G2 X103.513 Y13.695 Z-3.200 I-3.283 J7.571 K0.000 F100.000
G2 X99.812 Y17.149 Z-3.200 I1.238 J5.037 K0.000 F100.000
G2 X99.651 Y21.385 Z-3.200 I9.530 J2.484 K0.000 F100.000
G2 X101.052 Y26.308 Z-3.200 I33.636 J-6.912 K0.000 F100.000
G3 X101.930 Y29.616 Z-3.200 I-15.329 J5.840 K0.000 F100.000
G3 X101.960 Y30.217 Z-3.200 I-1.309 J0.366 K0.000 F100.000
G3 X101.478 Y30.808 Z-3.200 I-1.146 J-0.443 K0.000 F100.000
G2 X101.278 Y33.303 Z-3.200 I0.712 J1.313 K0.000 F100.000
G3 X103.040 Y34.535 Z-3.200 I-3.173 J6.412 K0.000 F100.000
G3 X104.655 Y38.361 Z-3.200 I-3.764 J3.843 K0.000 F100.000
G3 X104.041 Y39.223 Z-3.200 I-0.874 J0.027 K0.000 F100.000
G3 X102.244 Y38.833 Z-3.200 I-0.377 J-2.594 K0.000 F100.000
G3 X100.415 Y36.607 Z-3.200 I3.093 J-4.407 K0.000 F100.000
G3 X99.761 Y33.113 Z-3.200 I8.020 J-3.309 K0.000 F100.000
G2 X99.820 Y30.618 Z-3.200 I-36.932 J-2.112 K0.000 F100.000
G2 X99.069 Y28.036 Z-3.200 I-3.984 J-0.242 K0.000 F100.000
G2 X95.341 Y27.389 Z-3.200 I-2.203 J1.629 K0.000 F100.000
G2 X94.467 Y29.285 Z-3.200 I1.102 J1.657 K0.000 F100.000
G2 X94.905 Y30.606 Z-3.200 I5.284 J-1.019 K0.000 F100.000
G3 X95.041 Y31.132 Z-3.200 I-0.729 J0.469 K0.000 F100.000
G3 X94.223 Y31.533 Z-3.200 I-0.639 J-0.269 K0.000 F100.000
G3 X93.192 Y30.265 Z-3.200 I0.627 J-1.564 K0.000 F100.000
G3 X93.806 Y27.899 Z-3.200 I3.140 J-0.448 K0.000 F100.000
G3 X95.190 Y26.496 Z-3.200 I7.596 J6.112 K0.000 F100.000
G2 X97.163 Y24.640 Z-3.200 I-13.480 J-16.301 K0.000 F100.000
G2 X98.458 Y21.400 Z-3.200 I-3.682 J-3.350 K0.000 F100.000
G2 X95.076 Y15.710 Z-3.200 I-6.636 J0.094 K0.000 F100.000
G2 X89.272 Y14.621 Z-3.200 I-4.749 J9.297 K0.000 F100.000
G2 X85.237 Y15.806 Z-3.200 I0.762 J10.054 K0.000 F100.000
G2 X82.951 Y17.881 Z-3.200 I2.677 J5.246 K0.000 F100.000
G2 X80.143 Y15.584 Z-3.200 I-7.240 J5.985 K0.000 F100.000
G2 X76.772 Y14.569 Z-3.200 I-3.927 J6.938 K0.000 F100.000
G2 X72.202 Y17.076 Z-3.200 I-0.340 J4.799 K0.000 F100.000
G2 X68.583 Y14.598 Z-3.200 I-7.670 J7.321 K0.000 F100.000
G2 X64.261 Y13.983 Z-3.200 I-3.203 J7.023 K0.000 F100.000
G2 X60.028 Y16.787 Z-3.200 I0.721 J5.686 K0.000 F100.000
G2 X57.225 Y13.768 Z-3.200 I-8.494 J5.075 K0.000 F100.000
G2 X54.022 Y12.377 Z-3.200 I-4.604 J6.219 K0.000 F100.000
G1 X54.021 Y12.382 Z-3.200 F100.000
G1 X53.989 Y12.371 Z-3.200 F100.000
G2 X52.820 Y12.304 Z-3.200 I-0.862 J4.821 K0.000 F100.000
G2 X49.042 Y14.374 Z-3.200 I0.427 J5.262 K0.000 F100.000
G2 X42.530 Y10.317 Z-3.200 I-7.277 J4.427 K0.000 F100.000
G2 X36.823 Y12.784 Z-3.200 I-0.665 J6.296 K0.000 F100.000
G2 X35.389 Y15.830 Z-3.200 I7.815 J5.539 K0.000 F100.000
G0 Z5.000
G0 X132.811 Y13.770 Z5.000
G0 X132.811 Y13.770 Z3.000
G1 X132.811 Y13.770 Z-3.200 F100.000
G2 X132.833 Y14.215 Z-3.200 I7.913 J-0.167 K0.000 F100.000
G2 X138.349 Y23.030 Z-3.200 I12.097 J-1.438 K0.000 F100.000
G2 X149.409 Y24.048 Z-3.200 I6.488 J-9.906 K0.000 F100.000
G2 X153.786 Y19.127 Z-3.200 I-2.378 J-6.522 K0.000 F100.000
G2 X153.865 Y16.046 Z-3.200 I-8.174 J-1.754 K0.000 F100.000
G2 X150.961 Y9.492 Z-3.200 I-15.670 J3.024 K0.000 F100.000
G2 X144.190 Y5.168 Z-3.200 I-8.525 J5.886 K0.000 F100.000
G2 X136.676 Y6.802 Z-3.200 I-1.502 J11.188 K0.000 F100.000
G2 X132.811 Y13.770 Z-3.200 I4.048 J6.801 K0.000 F100.000
G0 Z5.000
G0 X151.477 Y7.638 Z5.000
G0 X151.477 Y7.638 Z3.000
G1 X151.477 Y7.638 Z-3.200 F100.000
G2 X152.690 Y10.231 Z-3.200 I11.344 J-3.726 K0.000 F100.000
G2 X156.034 Y14.863 Z-3.200 I57.122 J-37.724 K0.000 F100.000
G3 X162.156 Y23.372 Z-3.200 I-57.679 J47.952 K0.000 F100.000
G3 X164.638 Y28.471 Z-3.200 I-26.064 J15.842 K0.000 F100.000
G3 X164.816 Y29.485 Z-3.200 I-2.677 J0.991 K0.000 F100.000
G3 X164.047 Y30.733 Z-3.200 I-1.188 J0.130 K0.000 F100.000
G2 X163.332 Y31.897 Z-3.200 I0.338 J1.009 K0.000 F100.000
G2 X164.256 Y33.055 Z-3.200 I1.612 J-0.339 K0.000 F100.000
G2 X165.620 Y33.539 Z-3.200 I3.063 J-6.460 K0.000 F100.000
G2 X170.118 Y33.385 Z-3.200 I1.941 J-9.075 K0.000 F100.000
G2 X173.118 Y31.614 Z-3.200 I-1.689 J-6.288 K0.000 F100.000
G2 X174.065 Y26.857 Z-3.200 I-3.620 J-3.193 K0.000 F100.000
G2 X172.607 Y23.941 Z-3.200 I-16.597 J6.476 K0.000 F100.000
G2 X168.714 Y18.311 Z-3.200 I-92.710 J59.957 K0.000 F100.000
G3 X162.849 Y10.133 Z-3.200 I126.731 J-97.062 K0.000 F100.000
G3 X160.942 Y6.820 Z-3.200 I21.106 J-14.354 K0.000 F100.000
G3 X160.255 Y4.556 Z-3.200 I5.408 J-2.879 K0.000 F100.000
G3 X160.541 Y3.707 Z-3.200 I0.968 J-0.147 K0.000 F100.000
G3 X161.704 Y3.538 Z-3.200 I0.775 J1.247 K0.000 F100.000
G2 X162.595 Y3.805 Z-3.200 I3.430 J-9.852 K0.000 F100.000
G2 X163.788 Y2.680 Z-3.200 I0.230 J-0.950 K0.000 F100.000
G2 X163.159 Y1.617 Z-3.200 I-2.053 J0.496 K0.000 F100.000
G2 X159.275 Y-0.263 Z-3.200 I-5.785 J7.000 K0.000 F100.000
G2 X153.785 Y0.815 Z-3.200 I-1.510 J6.829 K0.000 F100.000
G2 X151.229 Y6.775 Z-3.200 I3.176 J4.890 K0.000 F100.000
G2 X151.477 Y7.638 Z-3.200 I11.592 J-2.863 K0.000 F100.000
G1 X151.477 Y7.638 Z-4.800 F100.000
G2 X152.690 Y10.231 Z-4.800 I11.344 J-3.726 K0.000 F100.000
G2 X156.034 Y14.863 Z-4.800 I57.122 J-37.724 K0.000 F100.000
G3 X162.156 Y23.372 Z-4.800 I-57.679 J47.952 K0.000 F100.000
G3 X164.638 Y28.471 Z-4.800 I-26.064 J15.842 K0.000 F100.000
G3 X164.816 Y29.485 Z-4.800 I-2.677 J0.991 K0.000 F100.000
G3 X164.047 Y30.733 Z-4.800 I-1.188 J0.130 K0.000 F100.000
G2 X163.332 Y31.897 Z-4.800 I0.338 J1.009 K0.000 F100.000
G2 X164.256 Y33.055 Z-4.800 I1.612 J-0.339 K0.000 F100.000
G2 X165.620 Y33.539 Z-4.800 I3.063 J-6.460 K0.000 F100.000
G2 X170.118 Y33.385 Z-4.800 I1.941 J-9.075 K0.000 F100.000
G2 X173.118 Y31.614 Z-4.800 I-1.689 J-6.288 K0.000 F100.000
G2 X174.065 Y26.857 Z-4.800 I-3.620 J-3.193 K0.000 F100.000
G2 X172.607 Y23.941 Z-4.800 I-16.597 J6.476 K0.000 F100.000
G2 X168.714 Y18.311 Z-4.800 I-92.710 J59.957 K0.000 F100.000
G3 X162.849 Y10.133 Z-4.800 I126.731 J-97.062 K0.000 F100.000
G3 X160.942 Y6.820 Z-4.800 I21.106 J-14.354 K0.000 F100.000
G3 X160.255 Y4.556 Z-4.800 I5.408 J-2.879 K0.000 F100.000
G3 X160.541 Y3.707 Z-4.800 I0.968 J-0.147 K0.000 F100.000
G3 X161.704 Y3.538 Z-4.800 I0.775 J1.247 K0.000 F100.000
G2 X162.595 Y3.805 Z-4.800 I3.430 J-9.852 K0.000 F100.000
G2 X163.788 Y2.680 Z-4.800 I0.230 J-0.950 K0.000 F100.000
G2 X163.159 Y1.617 Z-4.800 I-2.053 J0.496 K0.000 F100.000
G2 X159.275 Y-0.263 Z-4.800 I-5.785 J7.000 K0.000 F100.000
G2 X153.785 Y0.815 Z-4.800 I-1.510 J6.829 K0.000 F100.000
G2 X151.229 Y6.775 Z-4.800 I3.176 J4.890 K0.000 F100.000
G2 X151.477 Y7.638 Z-4.800 I11.592 J-2.863 K0.000 F100.000
G0 Z5.000
G0 X150.306 Y8.641 Z5.000
G0 X150.306 Y8.641 Z3.000
G1 X150.306 Y8.641 Z-4.800 F100.000
G2 X144.190 Y5.168 Z-4.800 I-7.869 J6.737 K0.000 F100.000
G2 X136.676 Y6.802 Z-4.800 I-1.502 J11.188 K0.000 F100.000
G2 X132.833 Y14.215 Z-4.800 I4.048 J6.801 K0.000 F100.000
G2 X138.349 Y23.030 Z-4.800 I12.097 J-1.438 K0.000 F100.000
G2 X149.409 Y24.048 Z-4.800 I6.488 J-9.906 K0.000 F100.000
G2 X153.786 Y19.127 Z-4.800 I-2.378 J-6.522 K0.000 F100.000
G2 X153.865 Y16.046 Z-4.800 I-8.174 J-1.754 K0.000 F100.000
G2 X150.961 Y9.492 Z-4.800 I-15.670 J3.024 K0.000 F100.000
G2 X150.306 Y8.641 Z-4.800 I-8.525 J5.886 K0.000 F100.000
G0 Z5.000
G0 X132.628 Y16.963 Z5.000
G0 X132.628 Y16.963 Z3.000
G1 X132.628 Y16.963 Z-4.800 F100.000
G2 X131.258 Y14.596 Z-4.800 I-14.642 J6.892 K0.000 F100.000
G2 X124.693 Y10.380 Z-4.800 I-8.284 J5.681 K0.000 F100.000
G2 X118.681 Y11.082 Z-4.800 I-1.708 J11.474 K0.000 F100.000
G2 X113.516 Y16.968 Z-4.800 I2.788 J7.655 K0.000 F100.000
G2 X108.958 Y14.088 Z-4.800 I-9.594 J10.136 K0.000 F100.000
G2 X103.513 Y13.695 Z-4.800 I-3.283 J7.571 K0.000 F100.000
G2 X99.812 Y17.149 Z-4.800 I1.238 J5.037 K0.000 F100.000
G2 X99.651 Y21.385 Z-4.800 I9.530 J2.484 K0.000 F100.000
G2 X101.052 Y26.308 Z-4.800 I33.636 J-6.912 K0.000 F100.000
G3 X101.930 Y29.616 Z-4.800 I-15.329 J5.840 K0.000 F100.000
G3 X101.960 Y30.217 Z-4.800 I-1.309 J0.366 K0.000 F100.000
G3 X101.478 Y30.808 Z-4.800 I-1.146 J-0.443 K0.000 F100.000
G2 X101.278 Y33.303 Z-4.800 I0.712 J1.313 K0.000 F100.000
G3 X103.040 Y34.535 Z-4.800 I-3.173 J6.412 K0.000 F100.000
G3 X104.655 Y38.361 Z-4.800 I-3.764 J3.843 K0.000 F100.000
G3 X104.041 Y39.223 Z-4.800 I-0.874 J0.027 K0.000 F100.000
G3 X102.244 Y38.833 Z-4.800 I-0.377 J-2.594 K0.000 F100.000
G3 X100.415 Y36.607 Z-4.800 I3.093 J-4.407 K0.000 F100.000
G3 X99.761 Y33.113 Z-4.800 I8.020 J-3.309 K0.000 F100.000
G2 X99.820 Y30.618 Z-4.800 I-36.932 J-2.112 K0.000 F100.000
G2 X99.069 Y28.036 Z-4.800 I-3.984 J-0.242 K0.000 F100.000
G2 X95.341 Y27.389 Z-4.800 I-2.203 J1.629 K0.000 F100.000
G2 X94.467 Y29.285 Z-4.800 I1.102 J1.657 K0.000 F100.000
G2 X94.905 Y30.606 Z-4.800 I5.284 J-1.019 K0.000 F100.000
G3 X95.041 Y31.132 Z-4.800 I-0.729 J0.469 K0.000 F100.000
G3 X94.223 Y31.533 Z-4.800 I-0.639 J-0.269 K0.000 F100.000
G3 X93.192 Y30.265 Z-4.800 I0.627 J-1.564 K0.000 F100.000
G3 X93.806 Y27.899 Z-4.800 I3.140 J-0.448 K0.000 F100.000
G3 X95.190 Y26.496 Z-4.800 I7.596 J6.112 K0.000 F100.000
G2 X97.163 Y24.640 Z-4.800 I-13.480 J-16.301 K0.000 F100.000
G2 X98.458 Y21.400 Z-4.800 I-3.682 J-3.350 K0.000 F100.000
G2 X95.076 Y15.710 Z-4.800 I-6.636 J0.094 K0.000 F100.000
G2 X89.272 Y14.621 Z-4.800 I-4.749 J9.297 K0.000 F100.000
G2 X85.237 Y15.806 Z-4.800 I0.762 J10.054 K0.000 F100.000
G2 X82.951 Y17.881 Z-4.800 I2.677 J5.246 K0.000 F100.000
G2 X80.143 Y15.584 Z-4.800 I-7.240 J5.985 K0.000 F100.000
G2 X76.772 Y14.569 Z-4.800 I-3.927 J6.938 K0.000 F100.000
G2 X72.202 Y17.076 Z-4.800 I-0.340 J4.799 K0.000 F100.000
G2 X68.583 Y14.598 Z-4.800 I-7.670 J7.321 K0.000 F100.000
G2 X64.261 Y13.983 Z-4.800 I-3.203 J7.023 K0.000 F100.000
G2 X60.028 Y16.787 Z-4.800 I0.721 J5.686 K0.000 F100.000
G2 X57.225 Y13.768 Z-4.800 I-8.494 J5.075 K0.000 F100.000
G2 X54.022 Y12.377 Z-4.800 I-4.604 J6.219 K0.000 F100.000
G1 X54.021 Y12.382 Z-4.800 F100.000
G1 X53.989 Y12.371 Z-4.800 F100.000
G2 X52.820 Y12.304 Z-4.800 I-0.862 J4.821 K0.000 F100.000
G2 X49.042 Y14.374 Z-4.800 I0.427 J5.262 K0.000 F100.000
G2 X42.530 Y10.317 Z-4.800 I-7.277 J4.427 K0.000 F100.000
G2 X36.823 Y12.784 Z-4.800 I-0.665 J6.296 K0.000 F100.000
G2 X35.360 Y15.940 Z-4.800 I7.815 J5.539 K0.000 F100.000
G2 X35.328 Y22.987 Z-4.800 I14.976 J3.592 K0.000 F100.000
G2 X38.503 Y28.512 Z-4.800 I10.180 J-2.176 K0.000 F100.000
G2 X44.841 Y31.251 Z-4.800 I7.470 J-8.582 K0.000 F100.000
G2 X48.586 Y30.899 Z-4.800 I0.879 J-10.739 K0.000 F100.000
G3 X49.243 Y30.893 Z-4.800 I0.341 J1.388 K0.000 F100.000
G3 X51.448 Y31.875 Z-4.800 I-5.854 J16.107 K0.000 F100.000
G2 X53.777 Y32.905 Z-4.800 I4.928 J-7.994 K0.000 F100.000
G2 X55.075 Y32.390 Z-4.800 I0.325 J-1.075 K0.000 F100.000
G2 X55.328 Y31.045 Z-4.800 I-3.339 J-1.324 K0.000 F100.000
G3 X55.081 Y26.744 Z-4.800 I168.560 J-11.820 K0.000 F100.000
G3 X55.385 Y20.637 Z-4.800 I25.771 J-1.781 K0.000 F100.000
G3 X55.835 Y19.491 Z-4.800 I2.629 J0.371 K0.000 F100.000
G3 X57.991 Y19.213 Z-4.800 I1.183 J0.675 K0.000 F100.000
G3 X58.901 Y20.563 Z-4.800 I-20.628 J14.890 K0.000 F100.000
G2 X60.155 Y28.089 Z-4.800 I14.358 J1.474 K0.000 F100.000
G2 X64.292 Y32.868 Z-4.800 I9.858 J-4.353 K0.000 F100.000
G2 X70.458 Y34.331 Z-4.800 I5.134 J-7.913 K0.000 F100.000
G2 X72.599 Y33.792 Z-4.800 I-0.617 J-6.964 K0.000 F100.000
G2 X75.194 Y47.573 Z-4.800 I162.759 J-23.511 K0.000 F100.000
G2 X65.906 Y50.894 Z-4.800 I82.669 J245.866 K0.000 F100.000
G3 X54.403 Y54.939 Z-4.800 I-46.839 J-114.819 K0.000 F100.000
G3 X36.208 Y56.840 Z-4.800 I-14.117 J-47.087 K0.000 F100.000
G3 X34.650 Y56.525 Z-4.800 I1.001 J-8.950 K0.000 F100.000
G3 X30.783 Y54.105 Z-4.800 I2.180 J-7.785 K0.000 F100.000
G3 X29.517 Y45.714 Z-4.800 I6.285 J-5.239 K0.000 F100.000
G2 X30.129 Y44.381 Z-4.800 I-6.242 J-3.670 K0.000 F100.000
G2 X29.651 Y42.891 Z-4.800 I-1.200 J-0.437 K0.000 F100.000
G2 X28.522 Y42.806 Z-4.800 I-0.709 J1.878 K0.000 F100.000
G2 X25.889 Y43.861 Z-4.800 I1.983 J8.761 K0.000 F100.000
G2 X20.739 Y49.662 Z-4.800 I7.546 J11.886 K0.000 F100.000
G2 X19.289 Y57.775 Z-4.800 I14.291 J6.741 K0.000 F100.000
G2 X28.950 Y71.038 Z-4.800 I15.487 J-1.132 K0.000 F100.000
G2 X37.455 Y72.348 Z-4.800 I7.234 J-18.703 K0.000 F100.000
G2 X46.241 Y70.399 Z-4.800 I-2.719 J-33.028 K0.000 F100.000
G2 X56.287 Y65.674 Z-4.800 I-27.585 J-71.693 K0.000 F100.000
G2 X67.746 Y58.905 Z-4.800 I-300.182 J-521.299 K0.000 F100.000
G3 X76.611 Y54.242 Z-4.800 I44.324 J73.507 K0.000 F100.000
G2 X79.551 Y63.274 Z-4.800 I50.279 J-11.374 K0.000 F100.000
G2 X83.357 Y69.837 Z-4.800 I27.852 J-11.767 K0.000 F100.000
G2 X87.578 Y73.888 Z-4.800 I14.557 J-10.942 K0.000 F100.000
G2 X98.680 Y76.094 Z-4.800 I8.047 J-11.464 K0.000 F100.000
G2 X105.666 Y70.747 Z-4.800 I-2.143 J-10.038 K0.000 F100.000
G2 X106.937 Y66.889 Z-4.800 I-13.243 J-6.502 K0.000 F100.000
G2 X106.915 Y60.296 Z-4.800 I-20.179 J-3.229 K0.000 F100.000
G2 X100.595 Y49.935 Z-4.800 I-16.224 J2.788 K0.000 F100.000
G2 X87.787 Y45.733 Z-4.800 I-13.051 J18.160 K0.000 F100.000
G2 X83.042 Y46.206 Z-4.800 I1.162 J35.706 K0.000 F100.000
G3 X79.643 Y27.921 Z-4.800 I158.411 J-38.909 K0.000 F100.000
G3 X79.349 Y24.144 Z-4.800 I44.979 J-5.393 K0.000 F100.000
G3 X79.556 Y21.541 Z-4.800 I7.956 J-0.677 K0.000 F100.000
G3 X80.225 Y20.662 Z-4.800 I1.320 J0.310 K0.000 F100.000
G3 X81.505 Y20.884 Z-4.800 I0.432 J1.304 K0.000 F100.000
G3 X82.373 Y21.870 Z-4.800 I-8.591 J8.438 K0.000 F100.000
G2 X83.680 Y23.781 Z-4.800 I3.161 J-0.760 K0.000 F100.000
G2 X87.012 Y23.895 Z-4.800 I1.748 J-2.348 K0.000 F100.000
G2 X88.038 Y21.529 Z-4.800 I-1.514 J-2.062 K0.000 F100.000
G1 X88.038 Y21.529 Z-4.800 F100.000
G3 X88.157 Y20.056 Z-4.800 I3.261 J-0.478 K0.000 F100.000
G3 X89.247 Y19.771 Z-4.800 I0.639 J0.214 K0.000 F100.000
G3 X89.552 Y20.961 Z-4.800 I-1.205 J0.942 K0.000 F100.000
G3 X88.845 Y22.562 Z-4.800 I-3.659 J-0.659 K0.000 F100.000
G3 X87.211 Y24.336 Z-4.800 I-32.176 J-27.985 K0.000 F100.000
G2 X85.681 Y26.270 Z-4.800 I5.368 J5.817 K0.000 F100.000
G2 X85.800 Y31.906 Z-4.800 I4.725 J2.720 K0.000 F100.000
G2 X89.361 Y34.635 Z-4.800 I6.135 J-4.318 K0.000 F100.000
G2 X96.248 Y34.755 Z-4.800 I3.623 J-10.218 K0.000 F100.000
G2 X100.278 Y42.123 Z-4.800 I11.019 J-1.241 K0.000 F100.000
G2 X108.593 Y43.500 Z-4.800 I5.342 J-6.462 K0.000 F100.000
G2 X111.938 Y40.214 Z-4.800 I-2.050 J-5.433 K0.000 F100.000
G2 X112.403 Y36.552 Z-4.800 I-7.732 J-2.842 K0.000 F100.000
G3 X111.997 Y33.665 Z-4.800 I152.621 J-22.949 K0.000 F100.000
G3 X112.162 Y32.985 Z-4.800 I0.713 J-0.187 K0.000 F100.000
G3 X113.358 Y32.667 Z-4.800 I1.188 J2.056 K0.000 F100.000
G2 X114.277 Y32.059 Z-4.800 I-0.040 J-1.060 K0.000 F100.000
G2 X113.785 Y30.263 Z-4.800 I-1.572 J-0.535 K0.000 F100.000
G2 X112.685 Y29.803 Z-4.800 I-1.370 J1.730 K0.000 F100.000
G3 X110.722 Y28.362 Z-4.800 I0.419 J-2.628 K0.000 F100.000
G3 X109.287 Y23.839 Z-4.800 I28.905 J-11.661 K0.000 F100.000
G3 X108.758 Y21.009 Z-4.800 I16.795 J-4.605 K0.000 F100.000
G1 X108.755 Y21.001 Z-4.800 F100.000
G3 X109.200 Y19.291 Z-4.800 I1.977 J-0.399 K0.000 F100.000
G3 X110.951 Y18.969 Z-4.800 I1.196 J1.585 K0.000 F100.000
G3 X112.593 Y19.896 Z-4.800 I-2.676 J6.660 K0.000 F100.000
G2 X113.587 Y20.659 Z-4.800 I8.855 J-10.513 K0.000 F100.000
G2 X118.030 Y27.808 Z-4.800 I12.004 J-2.504 K0.000 F100.000
G2 X128.864 Y29.867 Z-4.800 I7.379 J-9.295 K0.000 F100.000
G2 X133.711 Y25.410 Z-4.800 I-1.711 J-6.725 K0.000 F100.000
G2 X134.099 Y22.351 Z-4.800 I-7.965 J-2.564 K0.000 F100.000
G2 X132.628 Y16.963 Z-4.800 I-16.113 J1.504 K0.000 F100.000
G0 Z5.000
G0 X34.307 Y16.329 Z5.000
G0 X34.307 Y16.329 Z3.000
G1 X34.307 Y16.329 Z-4.800 F100.000
G2 X34.217 Y14.517 Z-4.800 I-16.194 J-0.104 K0.000 F100.000
G2 X29.706 Y7.097 Z-4.800 I-9.872 J0.921 K0.000 F100.000
G2 X23.201 Y5.314 Z-4.800 I-6.081 J9.425 K0.000 F100.000
G2 X17.754 Y7.820 Z-4.800 I0.280 J7.782 K0.000 F100.000
G2 X14.068 Y2.299 Z-4.800 I-13.066 J4.733 K0.000 F100.000
G2 X10.801 Y0.492 Z-4.800 I-5.400 J5.907 K0.000 F100.000
G1 X10.066 Y0.325 Z-4.800 F100.000
G2 X5.236 Y1.844 Z-4.800 I-1.057 J5.080 K0.000 F100.000
G2 X3.270 Y5.567 Z-4.800 I7.438 J6.309 K0.000 F100.000
G2 X2.447 Y10.485 Z-4.800 I30.701 J7.662 K0.000 F100.000
G3 X1.731 Y14.285 Z-4.800 I-16.657 J-1.174 K0.000 F100.000
G3 X1.555 Y14.512 Z-4.800 I-0.229 J0.004 K0.000 F100.000
G3 X0.977 Y14.489 Z-4.800 I-0.140 J-3.920 K0.000 F100.000
G2 X-0.086 Y15.014 Z-4.800 I-0.081 J1.175 K0.000 F100.000
G2 X-0.312 Y17.132 Z-4.800 I2.582 J1.346 K0.000 F100.000
G2 X0.098 Y17.694 Z-4.800 I0.903 J-0.228 K0.000 F100.000
G3 X2.137 Y19.114 Z-4.800 I-2.269 J5.434 K0.000 F100.000
G3 X4.213 Y22.865 Z-4.800 I-9.503 J7.710 K0.000 F100.000
G3 X5.116 Y26.157 Z-4.800 I-46.822 J14.613 K0.000 F100.000
G2 X5.872 Y27.415 Z-4.800 I2.490 J-0.639 K0.000 F100.000
G2 X7.493 Y27.526 Z-4.800 I0.878 J-0.929 K0.000 F100.000
G2 X8.168 Y26.395 Z-4.800 I-1.343 J-1.569 K0.000 F100.000
G2 X8.673 Y23.770 Z-4.800 I-38.868 J-8.835 K0.000 F100.000
G3 X9.040 Y21.980 Z-4.800 I8.293 J0.768 K0.000 F100.000
G3 X9.472 Y21.469 Z-4.800 I0.675 J0.132 K0.000 F100.000
G3 X10.526 Y21.670 Z-4.800 I0.136 J2.146 K0.000 F100.000
G2 X11.864 Y21.321 Z-4.800 I0.471 J-0.932 K0.000 F100.000
G2 X12.136 Y19.135 Z-4.800 I-2.672 J-1.443 K0.000 F100.000
G2 X11.385 Y18.194 Z-4.800 I-1.325 J0.287 K0.000 F100.000
G3 X10.310 Y17.369 Z-4.800 I0.424 J-1.666 K0.000 F100.000
G3 X10.219 Y16.414 Z-4.800 I2.406 J-0.711 K0.000 F100.000
G3 X11.191 Y10.640 Z-4.800 I39.279 J3.639 K0.000 F100.000
G3 X12.093 Y8.327 Z-4.800 I6.547 J1.222 K0.000 F100.000
G3 X12.756 Y7.828 Z-4.800 I1.074 J0.737 K0.000 F100.000
G3 X14.499 Y8.297 Z-4.800 I0.404 J1.973 K0.000 F100.000
G3 X16.022 Y10.707 Z-4.800 I-6.988 J6.100 K0.000 F100.000
G2 X16.309 Y19.829 Z-4.800 I11.600 J4.200 K0.000 F100.000
G2 X24.753 Y26.742 Z-4.800 I10.910 J-4.711 K0.000 F100.000
G2 X31.148 Y25.176 Z-4.800 I1.744 J-6.718 K0.000 F100.000
G2 X32.964 Y22.683 Z-4.800 I-5.738 J-6.087 K0.000 F100.000
G2 X34.307 Y16.329 Z-4.800 I-14.850 J-6.458 K0.000 F100.000
G0 Z5.000
G0 Z5.000
(Finish operation: Profile)
(Begin operation: Profile001)
(Path: Profile001)
(Profile001)
(Compensated Tool Path. Diameter: 0.8)
G0 Z5.000
G0 X25.738 Y22.787
G0 Z3.000
G1 X25.738 Y22.787 Z-5.400 F100.000
G3 X24.488 Y23.269 Z-5.400 I-0.761 J-0.113 K0.000 F100.000
G3 X22.806 Y20.564 Z-5.400 I2.892 J-3.674 K0.000 F100.000
G3 X22.885 Y16.274 Z-5.400 I9.967 J-1.961 K0.000 F100.000
G1 X23.320 Y14.548 Z-5.400 F100.000
G3 X24.330 Y12.261 Z-5.400 I7.621 J1.999 K0.000 F100.000
G3 X25.977 Y10.904 Z-5.400 I2.779 J1.696 K0.000 F100.000
G3 X27.776 Y10.922 Z-5.400 I0.873 J2.795 K0.000 F100.000
G3 X29.624 Y12.531 Z-5.400 I-0.979 J2.991 K0.000 F100.000
G3 X29.406 Y17.776 Z-5.400 I-5.144 J2.413 K0.000 F100.000
G3 X28.119 Y18.797 Z-5.400 I-1.979 J-1.174 K0.000 F100.000
G3 X27.902 Y18.844 Z-5.400 I-0.315 J-0.924 K0.000 F100.000
G1 X27.902 Y18.846 Z-5.400 F100.000
G2 X26.591 Y19.134 Z-5.400 I0.594 J5.835 K0.000 F100.000
G2 X25.587 Y20.218 Z-5.400 I0.419 J1.395 K0.000 F100.000
G2 X25.585 Y21.861 Z-5.400 I2.851 J0.824 K0.000 F100.000
G1 X25.732 Y22.531 Z-5.400 F100.000
G3 X25.738 Y22.787 Z-5.400 I-0.756 J0.143 K0.000 F100.000
G0 Z5.000
G0 Z5.000
G0 X25.738 Y22.787
G0 X43.087 Y21.765
G0 X43.087 Y21.765 Z3.000
G1 X43.087 Y21.765 Z-5.400 F100.000
G3 X43.321 Y17.472 Z-5.400 I18.979 J-1.119 K0.000 F100.000
G3 X44.216 Y15.586 Z-5.400 I3.403 J0.459 K0.000 F100.000
G3 X45.524 Y15.192 Z-5.400 I1.007 J0.973 K0.000 F100.000
G3 X46.400 Y15.829 Z-5.400 I-0.427 J1.506 K0.000 F100.000
G3 X47.080 Y17.423 Z-5.400 I-4.346 J2.798 K0.000 F100.000
G3 X47.567 Y23.406 Z-5.400 I-22.229 J4.821 K0.000 F100.000
G3 X47.230 Y26.727 Z-5.400 I-21.800 J-0.536 K0.000 F100.000
G3 X46.270 Y27.958 Z-5.400 I-1.440 J-0.132 K0.000 F100.000
G3 X44.602 Y27.337 Z-5.400 I-0.385 J-1.516 K0.000 F100.000
G3 X43.548 Y24.948 Z-5.400 I4.907 J-3.594 K0.000 F100.000
G3 X43.087 Y21.765 Z-5.400 I18.519 J-4.302 K0.000 F100.000
G0 Z5.000
G0 Z5.000
G0 X43.087 Y21.765
G0 X66.983 Y21.796
G0 X66.983 Y21.796 Z3.000
G1 X66.983 Y21.796 Z-5.400 F100.000
G3 X67.003 Y20.938 Z-5.400 I19.003 J0.025 K0.000 F100.000
G3 X67.666 Y18.956 Z-5.400 I3.438 J0.048 K0.000 F100.000
G3 X69.150 Y18.457 Z-5.400 I1.100 J0.813 K0.000 F100.000
G3 X70.149 Y19.300 Z-5.400 I-0.658 J1.793 K0.000 F100.000
G3 X71.298 Y22.272 Z-5.400 I-7.999 J4.801 K0.000 F100.000
G3 X72.000 Y29.652 Z-5.400 I-26.517 J6.246 K0.000 F100.000
G3 X71.194 Y30.990 Z-5.400 I-1.447 J0.041 K0.000 F100.000
G3 X69.469 Y30.575 Z-5.400 I-0.563 J-1.452 K0.000 F100.000
G3 X68.133 Y28.332 Z-5.400 I4.434 J-4.160 K0.000 F100.000
G3 X66.983 Y21.796 Z-5.400 I17.853 J-6.511 K0.000 F100.000
G0 Z5.000
G0 Z5.000
G0 X66.983 Y21.796
G0 X83.764 Y51.063
G0 X83.764 Y51.063 Z3.000
G1 X83.764 Y51.063 Z-5.400 F100.000
G3 X83.927 Y51.013 Z-5.400 I0.192 J0.334 K0.000 F100.000
G1 X83.926 Y51.003 Z-5.400 F100.000
G3 X90.052 Y50.909 Z-5.400 I3.446 J24.866 K0.000 F100.000
G3 X95.177 Y52.805 Z-5.400 I-1.154 J10.991 K0.000 F100.000
G3 X98.572 Y58.849 Z-5.400 I-4.815 J6.680 K0.000 F100.000
G3 X98.134 Y62.417 Z-5.400 I-7.797 J0.852 K0.000 F100.000
G3 X95.131 Y64.836 Z-5.400 I-3.655 J-1.463 K0.000 F100.000
G3 X89.620 Y63.270 Z-5.400 I-1.032 J-6.852 K0.000 F100.000
G3 X86.591 Y59.505 Z-5.400 I8.529 J-9.963 K0.000 F100.000
G3 X83.850 Y52.495 Z-5.400 I28.782 J-15.293 K0.000 F100.000
G1 X83.585 Y51.503 Z-5.400 F100.000
G3 X83.764 Y51.063 Z-5.400 I0.371 J-0.106 K0.000 F100.000
G0 Z5.000
G0 Z5.000
G0 X83.764 Y51.063
G0 X123.515 Y24.515
G0 X123.515 Y24.515 Z3.000
G1 X123.515 Y24.515 Z-5.400 F100.000
G3 X122.175 Y21.595 Z-5.400 I8.470 J-5.657 K0.000 F100.000
G1 X121.725 Y19.882 Z-5.400 F100.000
G3 X121.505 Y17.394 Z-5.400 I7.635 J-1.930 K0.000 F100.000
G3 X122.291 Y15.411 Z-5.400 I3.251 J0.142 K0.000 F100.000
G3 X125.332 Y14.625 Z-5.400 I2.177 J2.145 K0.000 F100.000
G3 X127.557 Y16.359 Z-5.400 I-1.465 J4.173 K0.000 F100.000
G3 X128.613 Y19.773 Z-5.400 I-4.481 J3.257 K0.000 F100.000
G3 X127.977 Y21.288 Z-5.400 I-2.300 J-0.074 K0.000 F100.000
G2 X126.803 Y22.317 Z-5.400 I4.406 J6.210 K0.000 F100.000
G2 X126.447 Y23.751 Z-5.400 I1.035 J1.017 K0.000 F100.000
G2 X127.242 Y25.196 Z-5.400 I2.911 J-0.661 K0.000 F100.000
G1 X127.698 Y25.720 Z-5.400 F100.000
G3 X126.958 Y26.957 Z-5.400 I-0.601 J0.480 K0.000 F100.000
G3 X124.176 Y25.397 Z-5.400 I0.754 J-4.604 K0.000 F100.000
G3 X123.515 Y24.515 Z-5.400 I7.810 J-6.539 K0.000 F100.000
G0 Z5.000
G0 Z5.000
G0 X123.515 Y24.515
G0 X141.981 Y16.610
G0 X141.981 Y16.610 Z3.000
G1 X141.981 Y16.610 Z-5.400 F100.000
G3 X141.932 Y16.494 Z-5.400 I11.573 J-4.954 K0.000 F100.000
G1 X141.308 Y14.825 Z-5.400 F100.000
G3 X140.841 Y12.370 Z-5.400 I7.408 J-2.681 K0.000 F100.000
G3 X141.426 Y10.319 Z-5.400 I3.250 J-0.182 K0.000 F100.000
G3 X144.863 Y9.370 Z-5.400 I2.378 J1.916 K0.000 F100.000
G3 X147.527 Y11.866 Z-5.400 I-1.975 J4.778 K0.000 F100.000
G3 X148.120 Y14.554 Z-5.400 I-4.165 J2.329 K0.000 F100.000
G3 X147.518 Y15.759 Z-5.400 I-1.913 J-0.202 K0.000 F100.000
G1 X147.520 Y15.761 Z-5.400 F100.000
G2 X146.604 Y16.742 Z-5.400 I3.794 J4.466 K0.000 F100.000
G2 X146.394 Y18.204 Z-5.400 I1.131 J0.908 K0.000 F100.000
G2 X147.329 Y19.560 Z-5.400 I2.825 J-0.947 K0.000 F100.000
G1 X147.833 Y20.032 Z-5.400 F100.000
G3 X147.215 Y21.340 Z-5.400 I-0.546 J0.542 K0.000 F100.000
G3 X146.096 Y21.139 Z-5.400 I-0.004 J-3.183 K0.000 F100.000
G3 X143.313 Y18.977 Z-5.400 I2.126 J-5.609 K0.000 F100.000
G3 X141.981 Y16.610 Z-5.400 I10.241 J-7.322 K0.000 F100.000
G0 Z5.000
G0 Z5.000
G0 X141.981 Y16.610
G0 X137.986 Y21.796
G0 X137.986 Y21.796 Z3.000
G1 X137.986 Y21.796 Z-5.400 F100.000
G2 X138.796 Y22.366 Z-5.400 I6.951 J-9.025 K0.000 F100.000
G2 X149.120 Y23.302 Z-5.400 I6.042 J-9.243 K0.000 F100.000
G2 X152.830 Y19.554 Z-5.400 I-2.092 J-5.782 K0.000 F100.000
G2 X153.072 Y16.149 Z-5.400 I-6.502 J-2.174 K0.000 F100.000
G2 X150.311 Y9.959 Z-5.400 I-14.912 J2.939 K0.000 F100.000
G2 X144.053 Y5.956 Z-5.400 I-7.873 J5.417 K0.000 F100.000
G2 X137.088 Y7.488 Z-5.400 I-1.363 J10.405 K0.000 F100.000
G2 X133.632 Y14.171 Z-5.400 I3.635 J6.115 K0.000 F100.000
G2 X137.986 Y21.796 Z-5.400 I11.305 J-1.399 K0.000 F100.000
G0 Z5.000
G0 X133.289 Y22.282 Z5.000
G0 X133.289 Y22.282 Z3.000
G1 X133.289 Y22.282 Z-5.400 F100.000
G2 X130.594 Y15.043 Z-5.400 I-15.327 J1.585 K0.000 F100.000
G2 X124.548 Y11.167 Z-5.400 I-7.618 J5.231 K0.000 F100.000
G2 X118.218 Y12.161 Z-5.400 I-1.557 J10.735 K0.000 F100.000
G2 X114.204 Y17.851 Z-5.400 I3.109 J6.455 K0.000 F100.000
G3 X113.526 Y18.097 Z-5.400 I-0.398 J-0.039 K0.000 F100.000
G2 X108.656 Y14.829 Z-5.400 I-9.699 J9.189 K0.000 F100.000
G2 X103.711 Y14.471 Z-5.400 I-2.980 J6.828 K0.000 F100.000
G2 X100.568 Y17.413 Z-5.400 I1.040 J4.261 K0.000 F100.000
G2 X100.443 Y21.269 Z-5.400 I8.862 J2.219 K0.000 F100.000
G2 X101.469 Y25.067 Z-5.400 I32.073 J-6.634 K0.000 F100.000
G3 X102.717 Y29.470 Z-5.400 I-21.133 J8.364 K0.000 F100.000
G3 X102.678 Y30.634 Z-5.400 I-2.019 J0.515 K0.000 F100.000
G3 X101.774 Y31.584 Z-5.400 I-2.363 J-1.343 K0.000 F100.000
G2 X101.926 Y32.763 Z-5.400 I0.403 J0.547 K0.000 F100.000
G3 X105.431 Y37.660 Z-5.400 I-2.852 J5.744 K0.000 F100.000
G3 X105.376 Y38.827 Z-5.400 I-2.647 J0.460 K0.000 F100.000
G3 X104.302 Y39.981 Z-5.400 I-1.524 J-0.342 K0.000 F100.000
G3 X101.848 Y39.528 Z-5.400 I-0.667 J-3.261 K0.000 F100.000
G3 X99.434 Y36.296 Z-5.400 I3.592 J-5.199 K0.000 F100.000
G3 X98.961 Y33.131 Z-5.400 I10.564 J-3.196 K0.000 F100.000
G2 X99.020 Y30.632 Z-5.400 I-37.779 J-2.133 K0.000 F100.000
G2 X98.653 Y28.857 Z-5.400 I-3.323 J-0.239 K0.000 F100.000
G2 X96.044 Y27.909 Z-5.400 I-1.784 J0.844 K0.000 F100.000
G2 X95.266 Y29.239 Z-5.400 I0.439 J1.148 K0.000 F100.000
G2 X95.640 Y30.291 Z-5.400 I4.988 J-1.179 K0.000 F100.000
G3 X95.717 Y31.600 Z-5.400 I-1.128 J0.724 K0.000 F100.000
G3 X93.741 Y32.214 Z-5.400 I-1.335 J-0.810 K0.000 F100.000
G3 X92.419 Y30.473 Z-5.400 I1.221 J-2.300 K0.000 F100.000
G3 X93.145 Y27.447 Z-5.400 I3.883 J-0.668 K0.000 F100.000
G3 X94.643 Y25.912 Z-5.400 I7.941 J6.254 K0.000 F100.000
G2 X96.559 Y24.115 Z-5.400 I-13.037 J-15.814 K0.000 F100.000
G2 X97.623 Y21.855 Z-5.400 I-3.201 J-2.887 K0.000 F100.000
G2 X94.668 Y16.398 Z-5.400 I-5.737 J-0.422 K0.000 F100.000
G2 X88.524 Y15.531 Z-5.400 I-4.368 J8.745 K0.000 F100.000
G2 X84.960 Y16.921 Z-5.400 I1.139 J8.184 K0.000 F100.000
G2 X83.368 Y18.786 Z-5.400 I2.555 J3.792 K0.000 F100.000
G3 X82.705 Y18.849 Z-5.400 I-0.353 J-0.189 K0.000 F100.000
G2 X79.748 Y16.280 Z-5.400 I-7.193 J5.294 K0.000 F100.000
G2 X76.726 Y15.368 Z-5.400 I-3.523 J6.211 K0.000 F100.000
G2 X72.669 Y17.949 Z-5.400 I-0.287 J4.028 K0.000 F100.000
G3 X72.016 Y18.049 Z-5.400 I-0.361 J-0.172 K0.000 F100.000
G2 X68.263 Y15.331 Z-5.400 I-7.570 J6.502 K0.000 F100.000
G2 X64.365 Y14.777 Z-5.400 I-2.882 J6.285 K0.000 F100.000
G2 X60.401 Y17.815 Z-5.400 I0.631 J4.928 K0.000 F100.000
G3 X59.691 Y17.833 Z-5.400 I-0.359 J-0.175 K0.000 F100.000
G2 X55.070 Y13.496 Z-5.400 I-8.103 J4.003 K0.000 F100.000
G2 X52.343 Y13.170 Z-5.400 I-1.939 J4.655 K0.000 F100.000
G2 X49.329 Y15.337 Z-5.400 I1.125 J4.745 K0.000 F100.000
G3 X48.654 Y15.306 Z-5.400 I-0.327 J-0.230 K0.000 F100.000
G2 X42.440 Y11.112 Z-5.400 I-6.900 J3.524 K0.000 F100.000
G2 X37.448 Y13.284 Z-5.400 I-0.576 J5.501 K0.000 F100.000
G2 X36.129 Y16.161 Z-5.400 I7.237 J5.057 K0.000 F100.000
G2 X36.110 Y22.815 Z-5.400 I14.215 J3.369 K0.000 F100.000
G2 X42.663 Y29.954 Z-5.400 I9.269 J-1.931 K0.000 F100.000
G2 X47.929 Y30.228 Z-5.400 I3.078 J-8.427 K0.000 F100.000
G3 X49.393 Y30.106 Z-5.400 I0.962 J2.691 K0.000 F100.000
G3 X51.811 Y31.162 Z-5.400 I-5.221 J15.254 K0.000 F100.000
G2 X53.932 Y32.120 Z-5.400 I4.694 J-7.565 K0.000 F100.000
G2 X54.342 Y32.049 Z-5.400 I0.146 J-0.379 K0.000 F100.000
G2 X54.528 Y31.022 Z-5.400 I-2.362 J-0.959 K0.000 F100.000
G3 X54.282 Y26.778 Z-5.400 I143.971 J-10.472 K0.000 F100.000
G3 X54.596 Y20.503 Z-5.400 I26.572 J-1.817 K0.000 F100.000
G3 X55.161 Y19.058 Z-5.400 I3.413 J0.503 K0.000 F100.000
G3 X57.436 Y18.042 Z-5.400 I1.867 J1.126 K0.000 F100.000
G3 X59.030 Y19.301 Z-5.400 I-0.460 J2.220 K0.000 F100.000
G1 X59.030 Y19.301 Z-5.400 F100.000
G2 X59.436 Y19.924 Z-5.400 I44.473 J-28.578 K0.000 F100.000
G3 X59.709 Y20.487 Z-5.400 I-0.677 J0.676 K0.000 F100.000
G2 X60.887 Y27.766 Z-5.400 I13.610 J1.532 K0.000 F100.000
G2 X64.729 Y32.198 Z-5.400 I9.125 J-4.028 K0.000 F100.000
G2 X71.080 Y33.423 Z-5.400 I4.685 J-7.210 K0.000 F100.000
G2 X72.706 Y32.825 Z-5.400 I-0.675 J-4.347 K0.000 F100.000
G3 X73.304 Y33.110 Z-5.400 I0.203 J0.345 K0.000 F100.000
G2 X76.057 Y47.740 Z-5.400 I164.007 J-23.289 K0.000 F100.000
G3 X75.798 Y48.212 Z-5.400 I-0.389 J0.094 K0.000 F100.000
G2 X66.186 Y51.643 Z-5.400 I85.366 J254.290 K0.000 F100.000
G3 X54.630 Y55.706 Z-5.400 I-47.089 J-115.469 K0.000 F100.000
G3 X36.132 Y57.637 Z-5.400 I-14.345 J-47.860 K0.000 F100.000
G3 X34.440 Y57.297 Z-5.400 I1.078 J-9.753 K0.000 F100.000
G3 X30.189 Y54.642 Z-5.400 I2.397 J-8.567 K0.000 F100.000
G3 X28.775 Y45.416 Z-5.400 I6.877 J-5.776 K0.000 F100.000
G2 X29.309 Y44.319 Z-5.400 I-624.788 J-304.983 K0.000 F100.000
G2 X29.286 Y43.627 Z-5.400 I-0.592 J-0.327 K0.000 F100.000
G2 X28.631 Y43.599 Z-5.400 I-0.366 J0.875 K0.000 F100.000
G2 X26.281 Y44.559 Z-5.400 I1.950 J8.129 K0.000 F100.000
G2 X21.453 Y50.023 Z-5.400 I7.168 J11.198 K0.000 F100.000
G2 X20.087 Y57.724 Z-5.400 I13.585 J6.380 K0.000 F100.000
G2 X29.267 Y70.303 Z-5.400 I14.690 J-1.080 K0.000 F100.000
G2 X37.423 Y71.549 Z-5.400 I6.920 J-17.987 K0.000 F100.000
G2 X45.977 Y69.643 Z-5.400 I-2.700 J-32.275 K0.000 F100.000
G2 X57.947 Y63.799 Z-5.400 I-29.103 J-74.787 K0.000 F100.000
G2 X68.796 Y57.373 Z-5.400 I-2719.305 J-4603.435 K0.000 F100.000
G3 X76.727 Y53.317 Z-5.400 I36.169 J60.943 K0.000 F100.000
G3 X77.277 Y53.590 Z-5.400 I0.161 J0.366 K0.000 F100.000
G2 X80.289 Y62.965 Z-5.400 I50.681 J-11.111 K0.000 F100.000
G2 X83.999 Y69.359 Z-5.400 I27.112 J-11.457 K0.000 F100.000
G2 X88.042 Y73.236 Z-5.400 I13.913 J-10.463 K0.000 F100.000
G2 X98.519 Y75.310 Z-5.400 I7.583 J-10.811 K0.000 F100.000
G2 X104.962 Y70.366 Z-5.400 I-1.982 J-9.254 K0.000 F100.000
G2 X106.153 Y66.730 Z-5.400 I-12.570 J-6.130 K0.000 F100.000
G2 X106.125 Y60.426 Z-5.400 I-19.417 J-3.068 K0.000 F100.000
G2 X100.101 Y50.565 Z-5.400 I-15.435 J2.658 K0.000 F100.000
G2 X87.772 Y46.533 Z-5.400 I-12.558 J17.538 K0.000 F100.000
G2 X82.800 Y47.054 Z-5.400 I1.285 J36.278 K0.000 F100.000
G3 X82.349 Y46.751 Z-5.400 I-0.062 J-0.395 K0.000 F100.000
G3 X78.849 Y28.024 Z-5.400 I160.082 J-39.608 K0.000 F100.000
G3 X78.550 Y24.180 Z-5.400 I45.739 J-5.494 K0.000 F100.000
G3 X78.779 Y21.351 Z-5.400 I8.752 J-0.717 K0.000 F100.000
G3 X79.838 Y19.958 Z-5.400 I2.114 J0.508 K0.000 F100.000
G3 X82.497 Y20.774 Z-5.400 I0.829 J2.036 K0.000 F100.000
G3 X83.117 Y21.564 Z-5.400 I-9.481 J8.085 K0.000 F100.000
G2 X83.393 Y22.303 Z-5.400 I2.545 J-0.529 K0.000 F100.000
G2 X85.929 Y23.502 Z-5.400 I2.082 J-1.124 K0.000 F100.000
G2 X87.140 Y22.451 Z-5.400 I-0.284 J-1.551 K0.000 F100.000
G2 X87.230 Y21.289 Z-5.400 I-2.973 J-0.814 K0.000 F100.000
G3 X87.422 Y19.736 Z-5.400 I3.487 J-0.356 K0.000 F100.000
G3 X89.992 Y19.412 Z-5.400 I1.372 J0.530 K0.000 F100.000
G3 X90.361 Y20.616 Z-5.400 I-2.120 J1.310 K0.000 F100.000
G3 X89.823 Y22.526 Z-5.400 I-3.559 J0.028 K0.000 F100.000
G3 X88.232 Y24.424 Z-5.400 I-9.415 J-6.275 K0.000 F100.000
G2 X86.376 Y26.668 Z-5.400 I7.599 J8.177 K0.000 F100.000
G2 X86.487 Y31.496 Z-5.400 I4.031 J2.322 K0.000 F100.000
G2 X89.667 Y33.895 Z-5.400 I5.468 J-3.940 K0.000 F100.000
G2 X96.472 Y33.847 Z-5.400 I3.334 J-9.588 K0.000 F100.000
G3 X96.989 Y34.184 Z-5.400 I0.120 J0.382 K0.000 F100.000
G2 X100.795 Y41.512 Z-5.400 I10.330 J-0.713 K0.000 F100.000
G2 X108.307 Y42.753 Z-5.400 I4.825 J-5.849 K0.000 F100.000
G2 X111.204 Y39.895 Z-5.400 I-1.765 J-4.687 K0.000 F100.000
G2 X111.605 Y36.600 Z-5.400 I-7.045 J-2.528 K0.000 F100.000
G3 X111.202 Y33.750 Z-5.400 I127.918 J-19.541 K0.000 F100.000
G3 X111.815 Y32.246 Z-5.400 I1.393 J-0.309 K0.000 F100.000
G3 X113.277 Y31.871 Z-5.400 I1.570 J3.076 K0.000 F100.000
G2 X113.519 Y31.770 Z-5.400 I0.015 J-0.304 K0.000 F100.000
G2 X113.537 Y31.308 Z-5.400 I-0.421 J-0.248 K0.000 F100.000
G2 X112.701 Y30.635 Z-5.400 I-0.895 J0.257 K0.000 F100.000
G3 X110.303 Y29.213 Z-5.400 I0.637 J-3.809 K0.000 F100.000
G3 X109.707 Y28.019 Z-5.400 I4.043 J-2.763 K0.000 F100.000
G3 X108.512 Y24.037 Z-5.400 I39.256 J-13.948 K0.000 F100.000
G3 X107.959 Y21.087 Z-5.400 I17.474 J-4.803 K0.000 F100.000
G3 X107.945 Y20.289 Z-5.400 I3.369 J-0.459 K0.000 F100.000
G3 X108.623 Y18.734 Z-5.400 I2.363 J0.106 K0.000 F100.000
G3 X111.581 Y18.356 Z-5.400 I1.773 J2.114 K0.000 F100.000
G3 X113.979 Y19.960 Z-5.400 I-5.509 J10.826 K0.000 F100.000
G3 X114.328 Y20.314 Z-5.400 I-0.254 J0.600 K0.000 F100.000
G2 X118.535 Y27.188 Z-5.400 I11.306 J-2.196 K0.000 F100.000
G2 X128.651 Y29.096 Z-5.400 I6.874 J-8.675 K0.000 F100.000
G2 X132.717 Y25.739 Z-5.400 I-1.501 J-5.960 K0.000 F100.000
G2 X133.299 Y22.375 Z-5.400 I-6.255 J-2.814 K0.000 F100.000
G2 X133.289 Y22.282 Z-5.400 I-15.337 J1.492 K0.000 F100.000
G0 Z5.000
G0 X153.367 Y9.805 Z5.000
G0 X153.367 Y9.805 Z3.000
G1 X153.367 Y9.805 Z-5.400 F100.000
G2 X153.382 Y9.829 Z-5.400 I9.591 J-5.960 K0.000 F100.000
G2 X156.667 Y14.374 Z-5.400 I57.072 J-37.803 K0.000 F100.000
G3 X162.836 Y22.951 Z-5.400 I-58.220 J48.379 K0.000 F100.000
G3 X165.387 Y28.189 Z-5.400 I-26.767 J16.275 K0.000 F100.000
G3 X165.616 Y29.468 Z-5.400 I-3.432 J1.275 K0.000 F100.000
G3 X164.397 Y31.453 Z-5.400 I-1.976 J0.154 K0.000 F100.000
G2 X164.124 Y31.716 Z-5.400 I0.035 J0.309 K0.000 F100.000
G2 X164.643 Y32.354 Z-5.400 I0.861 J-0.171 K0.000 F100.000
G2 X165.828 Y32.767 Z-5.400 I2.711 J-5.878 K0.000 F100.000
G2 X169.905 Y32.614 Z-5.400 I1.730 J-8.319 K0.000 F100.000
G2 X172.533 Y31.068 Z-5.400 I-1.460 J-5.489 K0.000 F100.000
G2 X173.297 Y27.081 Z-5.400 I-3.038 J-2.649 K0.000 F100.000
G2 X171.919 Y24.349 Z-5.400 I-16.209 J6.461 K0.000 F100.000
G2 X168.067 Y18.782 Z-5.400 I-92.613 J59.968 K0.000 F100.000
G3 X162.184 Y10.577 Z-5.400 I127.187 J-97.400 K0.000 F100.000
G3 X160.225 Y7.174 Z-5.400 I21.762 J-14.793 K0.000 F100.000
G3 X159.460 Y4.648 Z-5.400 I6.125 J-3.235 K0.000 F100.000
G3 X160.074 Y3.053 Z-5.400 I1.749 J-0.242 K0.000 F100.000
G3 X161.863 Y2.754 Z-5.400 I1.219 J1.784 K0.000 F100.000
G2 X162.769 Y3.022 Z-5.400 I4.646 J-13.993 K0.000 F100.000
G2 X163.001 Y2.871 Z-5.400 I0.053 J-0.172 K0.000 F100.000
G2 X162.597 Y2.187 Z-5.400 I-1.171 J0.230 K0.000 F100.000
G2 X159.093 Y0.516 Z-5.400 I-5.240 J6.477 K0.000 F100.000
G2 X154.225 Y1.483 Z-5.400 I-1.329 J6.049 K0.000 F100.000
G2 X152.020 Y6.650 Z-5.400 I2.736 J4.222 K0.000 F100.000
G2 X153.367 Y9.805 Z-5.400 I10.938 J-2.805 K0.000 F100.000
G0 Z5.000
G0 X33.490 Y15.493 Z5.000
G0 X33.490 Y15.493 Z3.000
G1 X33.490 Y15.493 Z-5.400 F100.000
G2 X33.420 Y14.588 Z-5.400 I-15.403 J0.731 K0.000 F100.000
G2 X29.257 Y7.759 Z-5.400 I-9.073 J0.848 K0.000 F100.000
G2 X23.230 Y6.113 Z-5.400 I-5.629 J8.753 K0.000 F100.000
G2 X17.915 Y8.868 Z-5.400 I0.255 J6.995 K0.000 F100.000
G3 X17.232 Y8.744 Z-5.400 I-0.306 J-0.258 K0.000 F100.000
G2 X13.518 Y2.880 Z-5.400 I-12.705 J3.939 K0.000 F100.000
G2 X10.572 Y1.259 Z-5.400 I-4.850 J5.325 K0.000 F100.000
G1 X9.910 Y1.110 Z-5.400 F100.000
G2 X5.804 Y2.408 Z-5.400 I-0.901 J4.295 K0.000 F100.000
G2 X4.034 Y5.804 Z-5.400 I6.947 J5.779 K0.000 F100.000
G2 X3.243 Y10.569 Z-5.400 I30.198 J7.463 K0.000 F100.000
G3 X2.533 Y14.383 Z-5.400 I-17.063 J-1.203 K0.000 F100.000
G3 X2.361 Y14.835 Z-5.400 I-1.706 J-0.390 K0.000 F100.000
G3 X1.308 Y15.311 Z-5.400 I-0.861 J-0.501 K0.000 F100.000
G2 X0.623 Y15.402 Z-5.400 I-0.246 J0.771 K0.000 F100.000
G2 X0.466 Y16.941 Z-5.400 I1.781 J0.959 K0.000 F100.000
G2 X0.495 Y16.992 Z-5.400 I0.127 J-0.037 K0.000 F100.000
G3 X2.716 Y18.561 Z-5.400 I-2.724 J6.213 K0.000 F100.000
G3 X4.963 Y22.586 Z-5.400 I-9.988 J8.217 K0.000 F100.000
G3 X5.888 Y25.945 Z-5.400 I-46.562 J14.626 K0.000 F100.000
G2 X6.420 Y26.831 Z-5.400 I1.712 J-0.426 K0.000 F100.000
G2 X7.010 Y26.886 Z-5.400 I0.330 J-0.347 K0.000 F100.000
G2 X7.404 Y26.157 Z-5.400 I-0.895 J-0.955 K0.000 F100.000
G2 X7.884 Y23.638 Z-5.400 I-41.200 J-9.151 K0.000 F100.000
G3 X8.283 Y21.720 Z-5.400 I9.064 J0.888 K0.000 F100.000
G3 X9.219 Y20.709 Z-5.400 I1.443 J0.397 K0.000 F100.000
G3 X10.801 Y20.919 Z-5.400 I0.450 J2.671 K0.000 F100.000
G2 X11.169 Y20.911 Z-5.400 I0.178 J-0.253 K0.000 F100.000
G2 X11.354 Y19.305 Z-5.400 I-1.911 J-1.033 K0.000 F100.000
G2 X11.014 Y18.903 Z-5.400 I-0.551 J0.121 K0.000 F100.000
G3 X9.593 Y17.728 Z-5.400 I0.724 J-2.321 K0.000 F100.000
G3 X9.420 Y16.382 Z-5.400 I2.322 J-0.984 K0.000 F100.000
G3 X10.411 Y10.462 Z-5.400 I40.259 J3.695 K0.000 F100.000
G3 X11.416 Y7.899 Z-5.400 I7.338 J1.400 K0.000 F100.000
G3 X12.904 Y6.978 Z-5.400 I1.749 J1.163 K0.000 F100.000
G3 X15.333 Y8.016 Z-5.400 I0.181 J2.938 K0.000 F100.000
G3 X16.810 Y10.489 Z-5.400 I-9.382 J7.279 K0.000 F100.000
G3 X16.834 Y10.800 Z-5.400 I-0.355 J0.184 K0.000 F100.000
G2 X16.464 Y17.837 Z-5.400 I10.831 J4.099 K0.000 F100.000
G2 X24.938 Y25.964 Z-5.400 I10.739 J-2.716 K0.000 F100.000
G2 X30.119 Y24.985 Z-5.400 I1.559 J-5.948 K0.000 F100.000
G2 X32.252 Y22.318 Z-5.400 I-4.120 J-5.482 K0.000 F100.000
G2 X33.490 Y15.493 Z-5.400 I-14.165 J-6.094 K0.000 F100.000
G0 Z5.000
G0 Z5.000
(Finish operation: Profile001)
(Begin postamble)
M5
G17 G90
M2
