%
(Header)
(Generated by gcodetools from Inkscape.)
(Using default header. To add your own header create file "header" in the output dir.)
M3
(Header end.)
G21 (All units in mm)

(Start cutting path id: path526)
(Change tool to Default tool)

G00 Z5.000000
G00 X133.538545 Y923.871766

G01 Z-0.125000 F100.0(Penetrate)
G03 X133.985501 Y922.995446 Z-0.125000 I1.635374 J0.281961 F400.000000
G03 X134.702710 Y922.760517 Z-0.125000 I0.583302 J0.568510
G03 X135.176773 Y923.064063 Z-0.125000 I-0.117604 J0.705626
G03 X135.311251 Y923.713016 Z-0.125000 I-0.716442 J0.486873
G03 X133.461510 Y925.361319 Z-0.125000 I-1.968884 J-0.347450
G02 X131.104381 Y927.470095 Z-0.125000 I0.151714 J2.541335
G02 X131.980676 Y929.725957 Z-0.125000 I2.291352 J0.408049
G02 X135.364167 Y931.227174 Z-0.125000 I4.813787 J-6.285951
G02 X138.527500 Y930.881445 Z-0.125000 I0.989721 J-5.589015
G02 X139.412287 Y929.771967 Z-0.125000 I-0.562025 J-1.355744
G02 X139.230776 Y928.733838 Z-0.125000 I-1.452069 J-0.281046
G02 X138.062914 Y927.919886 Z-0.125000 I-1.483785 J0.884139
G02 X137.110819 Y928.082286 Z-0.125000 I-0.237116 J1.481974
G02 X136.634166 Y928.740093 Z-0.125000 I0.447455 J0.825827
G02 X136.703306 Y929.339355 Z-0.125000 I1.040342 J0.183590
G03 X136.739999 Y929.692592 Z-0.125000 I-0.550795 J0.235739
G03 X136.505984 Y929.964145 Z-0.125000 I-0.340396 J-0.056733
G03 X135.999167 Y930.010092 Z-0.125000 I-0.354733 J-1.094684
G03 X135.398772 Y929.660576 Z-0.125000 I0.174843 J-0.990775
G03 X135.178959 Y928.819468 Z-0.125000 I0.793998 J-0.656778
G03 X137.224349 Y927.209668 Z-0.125000 I1.923309 J0.339407
G02 X139.756245 Y925.221139 Z-0.125000 I0.151169 J-2.413658
G02 X139.031888 Y922.897200 Z-0.125000 I-2.628428 J-0.455594
G02 X135.496459 Y921.040728 Z-0.125000 I-4.652190 J4.564902
G02 X131.858588 Y921.330920 Z-0.125000 I-1.253903 J7.228384
G02 X130.522299 Y922.892809 Z-0.125000 I0.658257 J1.915760
G02 X130.866928 Y924.174428 Z-0.125000 I1.500019 J0.283787
G02 X131.845214 Y924.744890 Z-0.125000 I1.320455 J-1.140388
G02 X133.007819 Y924.576794 Z-0.125000 I0.321932 J-1.877939
G02 X133.538545 Y923.871766 Z-0.125000 I-0.431084 J-0.876780
G01 X133.538545 Y923.871766 Z-0.125000
G00 Z5.000000

(End cutting path id: path526)


(Start cutting path id: path524)
(Change tool to Default tool)

G00 Z5.000000
G00 X125.230638 Y920.114687

G01 Z-0.125000 F100.0(Penetrate)
G02 X125.068968 Y919.606086 Z-0.125000 I-0.598446 J-0.089767 F400.000000
G02 X124.569181 Y919.347397 Z-0.125000 I-0.629076 J0.603236
G03 X122.661332 Y918.900071 Z-0.125000 I3.285444 J-18.304619
G02 X121.685226 Y918.685939 Z-0.125000 I-2.082160 J7.159569
G02 X121.172388 Y918.758720 Z-0.125000 I-0.144986 J0.821585
G02 X120.838561 Y919.215105 Z-0.125000 I0.268592 J0.546748
G02 X120.928900 Y922.141939 Z-0.125000 I6.753010 J1.256374
G03 X121.076685 Y926.358846 Z-0.125000 I-9.788157 J2.454079
G03 X120.841832 Y926.887166 Z-0.125000 I-1.074117 J-0.161118
G02 X120.653353 Y927.284887 Z-0.125000 I0.700613 J0.575539
G02 X121.060132 Y928.080390 Z-0.125000 I0.705357 J0.141071
G02 X124.331056 Y929.110510 Z-0.125000 I5.804166 J-12.721763
G02 X125.272099 Y928.999447 Z-0.125000 I0.283212 J-1.642629
G02 X125.653971 Y928.528427 Z-0.125000 I-0.257209 J-0.598837
G02 X125.698429 Y927.733034 Z-0.125000 I-2.768369 J-0.553674
G02 X125.653971 Y927.311345 Z-0.125000 I-10.936667 J0.939837
G02 X125.945001 Y927.972769 Z-0.125000 I3.700541 J-1.233514
G02 X128.379176 Y929.719050 Z-0.125000 I3.065912 J-1.703972
G02 X129.602916 Y929.498286 Z-0.125000 I0.323402 J-1.709412
G02 X130.231257 Y928.581344 Z-0.125000 I-0.695906 J-1.150633
G02 X129.991413 Y926.936012 Z-0.125000 I-2.531944 J-0.471059
G02 X128.405635 Y925.776764 Z-0.125000 I-1.945067 J0.996483
G02 X127.139613 Y926.052804 Z-0.125000 I-0.308064 J1.628341
G02 X126.738762 Y926.676346 Z-0.125000 I0.573132 J0.809062
G03 X126.505422 Y926.467637 Z-0.125000 I0.371515 J-0.650151
G03 X125.786263 Y925.168223 Z-0.125000 I4.811774 J-3.511787
G03 X125.145401 Y922.688448 Z-0.125000 I9.660836 J-3.819400
G03 X125.204180 Y920.167604 Z-0.125000 I8.223369 J-1.069361
G01 X125.230638 Y920.114687 Z-0.125000
G00 Z5.000000

(End cutting path id: path524)


(Start cutting path id: path522)
(Change tool to Default tool)

G00 Z5.000000
G00 X120.706269 Y922.099060

G01 Z-0.125000 F100.0(Penetrate)
G02 X121.086252 Y922.460799 Z-0.125000 I2.528969 J-2.276072 F400.000000
G02 X121.367727 Y922.601768 Z-0.125000 I0.456935 J-0.560873
G02 X121.715948 Y922.524565 Z-0.125000 I0.086633 J-0.433167
G02 X121.843976 Y922.310726 Z-0.125000 I-0.190594 J-0.259356
G02 X121.794008 Y921.926103 Z-0.125000 I-0.659370 J-0.109895
G02 X121.341268 Y921.146561 Z-0.125000 I-4.010775 J1.808120
G02 X119.815612 Y919.507061 Z-0.125000 I-8.471373 J6.353529
G02 X115.573359 Y917.495316 Z-0.125000 I-5.719237 J6.581615
G02 X111.428203 Y917.990718 Z-0.125000 I-1.260158 J7.045429
G02 X109.276284 Y920.723228 Z-0.125000 I1.492801 J3.389217
G02 X110.247206 Y924.477399 Z-0.125000 I4.580637 J0.817971
G02 X115.599817 Y927.628845 Z-0.125000 I6.916392 J-5.625904
G02 X118.515259 Y927.226258 Z-0.125000 I0.840170 J-4.673448
G02 X119.436271 Y926.014888 Z-0.125000 I-0.736559 J-1.515821
G02 X118.725042 Y923.790811 Z-0.125000 I-2.443678 J-0.444305
G02 X114.303361 Y921.331769 Z-0.125000 I-6.752460 J6.936909
G03 X115.077881 Y920.255749 Z-0.125000 I1.499189 J0.262358
G03 X117.240232 Y919.903021 Z-0.125000 I1.588513 J2.933797
G03 X119.646679 Y921.092187 Z-0.125000 I-0.851051 J4.751701
G03 X120.706269 Y922.125518 Z-0.125000 I-15.534564 J16.989250
G01 X120.706269 Y922.099060 Z-0.125000
G00 Z5.000000

(End cutting path id: path522)


(Start cutting path id: path522)
(Change tool to Default tool)

G00 Z5.000000
G00 X116.869816 Y925.776764

G01 Z-0.125000 F100.0(Penetrate)
G03 X116.573475 Y926.212238 Z-0.125000 I-0.632040 J-0.111537 F400.000000
G03 X115.917317 Y926.332388 Z-0.125000 I-0.483276 J-0.787482
G03 X114.594279 Y925.424200 Z-0.125000 I0.344572 J-1.919756
G03 X114.065236 Y922.601768 Z-0.125000 I3.485102 J-2.114054
G03 X116.629445 Y924.616658 Z-0.125000 I-1.763388 J4.883228
G03 X116.869816 Y925.776764 Z-0.125000 I-1.327808 J0.880073
G01 X116.869816 Y925.776764 Z-0.125000
G00 Z5.000000

(End cutting path id: path522)


(Start cutting path id: path520)
(Change tool to Default tool)

G00 Z5.000000
G00 X104.037540 Y923.713016

G01 Z-0.125000 F100.0(Penetrate)
G02 X104.384814 Y925.011094 Z-0.125000 I1.555851 J0.279255 F400.000000
G02 X105.810246 Y925.829680 Z-0.125000 I1.837132 J-1.548689
G02 X107.435226 Y925.453707 Z-0.125000 I0.366305 J-2.116426
G02 X108.350243 Y923.977599 Z-0.125000 I-1.339209 J-1.851812
G02 X107.786142 Y919.372626 Z-0.125000 I-7.916109 J-1.367328
G02 X102.555875 Y915.272819 Z-0.125000 I-6.447671 J2.839397
G02 X99.270558 Y915.710439 Z-0.125000 I-0.964896 J5.306930
G02 X98.110881 Y916.595734 Z-0.125000 I1.524612 J3.199338
G02 X97.240502 Y915.643387 Z-0.125000 I-7.147667 J5.658570
G02 X93.242554 Y913.632404 Z-0.125000 I-5.326262 J5.609345
G02 X90.627700 Y914.094255 Z-0.125000 I-0.688277 J3.736359
G02 X89.644225 Y915.510943 Z-0.125000 I1.044028 J1.774483
G02 X89.785278 Y918.719165 Z-0.125000 I7.043718 J1.297527
G03 X89.882350 Y920.829062 Z-0.125000 I-4.580560 J1.267923
G03 X89.663507 Y921.373895 Z-0.125000 I-1.257079 J-0.188562
G02 X89.511933 Y921.755102 Z-0.125000 I0.714888 J0.504987
G02 X89.915726 Y922.548131 Z-0.125000 I0.704077 J0.140815
G02 X93.163179 Y923.554267 Z-0.125000 I5.441029 J-11.817847
G02 X94.104222 Y923.443204 Z-0.125000 I0.283212 J-1.642629
G02 X94.486094 Y922.972184 Z-0.125000 I-0.257209 J-0.598837
G02 X94.400256 Y920.672760 Z-0.125000 I-5.384986 J-0.950292
G03 X94.274428 Y917.336566 Z-0.125000 I7.702351 J-1.960973
G03 X94.674005 Y916.621462 Z-0.125000 I1.219130 J0.212023
G03 X95.491509 Y916.384067 Z-0.125000 I0.660051 J0.746690
G03 X96.504267 Y916.909598 Z-0.125000 I-0.304112 J1.824675
G03 X97.290674 Y918.156773 Z-0.125000 I-2.448173 J2.415218
G03 X97.707016 Y920.195320 Z-0.125000 I-6.008390 J2.288910
G03 X97.581715 Y922.178435 Z-0.125000 I-9.745396 J0.379765
G03 X97.346861 Y922.706755 Z-0.125000 I-1.074117 J-0.161118
G02 X97.158382 Y923.104475 Z-0.125000 I0.700613 J0.575539
G02 X97.562175 Y923.897504 Z-0.125000 I0.704077 J0.140815
G02 X100.809628 Y924.903640 Z-0.125000 I5.441029 J-11.817847
G02 X101.750670 Y924.792578 Z-0.125000 I0.283212 J-1.642629
G02 X102.132543 Y924.321557 Z-0.125000 I-0.257209 J-0.598837
G02 X102.071124 Y921.964832 Z-0.125000 I-5.822117 J-1.027432
G03 X101.973793 Y918.685939 Z-0.125000 I8.160876 J-1.883139
G03 X102.490259 Y917.936518 Z-0.125000 I1.082436 J0.193292
G03 X103.376083 Y917.759899 Z-0.125000 I0.689511 J1.148491
G03 X105.136663 Y919.132414 Z-0.125000 I-0.420508 J2.354844
G03 X105.466288 Y921.781560 Z-0.125000 I-4.126551 J1.858535
G03 X104.829854 Y922.630935 Z-0.125000 I-1.168546 J-0.212463
G02 X104.063999 Y923.660100 Z-0.125000 I0.638934 J1.275003
G01 X104.037540 Y923.713016 Z-0.125000
G00 Z5.000000

(End cutting path id: path520)


(Start cutting path id: path518)
(Change tool to Default tool)

G00 Z5.000000
G00 X88.453601 Y919.188647

G01 Z-0.125000 F100.0(Penetrate)
G02 X87.534451 Y914.738322 Z-0.125000 I-6.028846 J-1.074910 F400.000000
G02 X82.844442 Y911.648032 Z-0.125000 I-5.955251 J3.933980
G02 X78.888834 Y912.279419 Z-0.125000 I-1.057560 J6.080970
G02 X77.102991 Y914.743653 Z-0.125000 I1.626008 J3.057599
G02 X78.007618 Y918.598342 Z-0.125000 I4.920694 J0.878695
G02 X83.479441 Y921.966768 Z-0.125000 I6.937280 J-5.140679
G02 X86.877481 Y921.387158 Z-0.125000 I0.886071 J-5.055819
G02 X88.453601 Y919.162189 Z-0.125000 I-1.556232 J-2.773131
G01 X88.453601 Y919.188647 Z-0.125000
G00 Z5.000000

(End cutting path id: path518)


(Start cutting path id: path518)
(Change tool to Default tool)

G00 Z5.000000
G00 X85.305064 Y917.945107

G01 Z-0.125000 F100.0(Penetrate)
G02 X84.040048 Y918.432279 Z-0.125000 I0.531832 J3.266971 F400.000000
G02 X83.691107 Y918.950522 Z-0.125000 I0.431021 J0.666807
G02 X83.953662 Y920.002883 Z-0.125000 I1.324783 J0.228411
G03 X84.008607 Y920.220521 Z-0.125000 I-0.221236 J0.171608
G03 X83.898313 Y920.378038 Z-0.125000 I-0.219989 J-0.036665
G03 X83.664649 Y920.405729 Z-0.125000 I-0.149924 J-0.265396
G03 X83.477696 Y920.353893 Z-0.125000 I-0.000000 J-0.363055
G03 X82.765067 Y919.797188 Z-0.125000 I1.909679 J-3.179013
G03 X81.917660 Y918.497812 Z-0.125000 I2.662213 J-2.662213
G03 X81.680277 Y916.013651 Z-0.125000 I4.281458 J-1.662554
G03 X82.630304 Y914.530309 Z-0.125000 I2.237760 J0.387305
G03 X84.326107 Y914.161570 Z-0.125000 I1.297988 J1.885544
G03 X85.941503 Y915.312101 Z-0.125000 I-0.390813 J2.258028
G03 X86.204646 Y916.886775 Z-0.125000 I-2.102546 J1.160679
G03 X85.913540 Y917.549874 Z-0.125000 I-1.368295 J-0.205244
G03 X85.305064 Y917.918649 Z-0.125000 I-0.813365 J-0.655670
G01 X85.305064 Y917.945107 Z-0.125000
G00 Z5.000000

(End cutting path id: path518)


(Start cutting path id: path510)
(Change tool to Default tool)

G00 Z5.000000
G00 X81.653818 Y935.989667

G01 Z-0.125000 F100.0(Penetrate)
G03 X82.009679 Y935.023090 Z-0.125000 I2.073139 J0.214463 F400.000000
G03 X82.553401 Y934.772586 Z-0.125000 I0.482428 J0.331785
G03 X82.971198 Y935.064105 Z-0.125000 I-0.055183 J0.524234
G03 X83.082567 Y935.672168 Z-0.125000 I-1.017369 J0.500564
G03 X81.652991 Y937.497769 Z-0.125000 I-2.160333 J-0.219164
G02 X79.828196 Y939.826121 Z-0.125000 I0.932901 J2.610389
G02 X80.761931 Y942.077325 Z-0.125000 I2.523038 J0.272761
G02 X83.426524 Y943.186325 Z-0.125000 I3.243609 J-4.037807
G02 X85.876546 Y942.612358 Z-0.125000 I0.393481 J-3.836435
G02 X86.654437 Y941.360702 Z-0.125000 I-0.899115 J-1.426344
G02 X86.429421 Y940.272079 Z-0.125000 I-1.889069 J-0.177100
G02 X85.490272 Y939.640913 Z-0.125000 I-1.078819 J0.590948
G02 X84.764741 Y939.858948 Z-0.125000 I-0.098754 J0.987540
G02 X84.352565 Y940.593412 Z-0.125000 I0.724486 J0.889463
G02 X84.439833 Y941.248672 Z-0.125000 I1.237057 J0.168690
G03 X84.484857 Y941.545910 Z-0.125000 I-0.559531 J0.236783
G03 X84.311391 Y941.830954 Z-0.125000 I-0.384033 J-0.038403
G03 X83.902774 Y941.916327 Z-0.125000 I-0.314000 J-0.482326
G03 X83.461639 Y941.666405 Z-0.125000 I0.121439 J-0.728636
G03 X83.188400 Y940.805078 Z-0.125000 I0.888138 J-0.755748
G03 X84.775592 Y939.014849 Z-0.125000 I2.036214 J0.206572
G02 X86.760270 Y936.783416 Z-0.125000 I-0.561707 J-2.497914
G02 X85.982224 Y934.418583 Z-0.125000 I-3.017495 J-0.317631
G02 X83.135483 Y932.999880 Z-0.125000 I-3.263803 J2.983621
G02 X80.196349 Y933.691514 Z-0.125000 I-0.445172 J4.699034
G02 X79.166738 Y935.328210 Z-0.125000 I1.168180 J1.877079
G02 X79.715220 Y936.778435 Z-0.125000 I1.699891 J0.185926
G02 X80.304445 Y937.047999 Z-0.125000 I0.715905 J-0.786096
G02 X81.151190 Y936.846930 Z-0.125000 I0.150140 J-1.251170
G02 X81.653818 Y936.016126 Z-0.125000 I-0.628772 J-0.947845
G01 X81.653818 Y935.989667 Z-0.125000
G00 Z5.000000

(End cutting path id: path510)


(Start cutting path id: path508)
(Change tool to Default tool)

G00 Z5.000000
G00 X79.537154 Y936.280709

G01 Z-0.125000 F100.0(Penetrate)
G02 X79.880849 Y936.623711 Z-0.125000 I3.038027 J-2.700469 F400.000000
G02 X80.092779 Y936.704042 Z-0.125000 I0.211929 J-0.239392
G02 X80.337577 Y936.619129 Z-0.125000 I0.000000 J-0.395326
G02 X80.463195 Y936.360084 Z-0.125000 I-0.204288 J-0.259045
G02 X80.404019 Y935.968875 Z-0.125000 I-0.852864 J-0.071072
G02 X80.013404 Y935.248835 Z-0.125000 I-3.349003 J1.350832
G02 X78.653628 Y933.677097 Z-0.125000 I-7.796021 J5.370592
G02 X75.197993 Y932.126756 Z-0.125000 I-4.021828 J4.338066
G02 X72.027148 Y932.932437 Z-0.125000 I-0.473257 J4.779892
G02 X70.223833 Y935.936751 Z-0.125000 I2.340619 J3.448307
G02 X71.296639 Y939.811957 Z-0.125000 I5.459541 J0.574689
G02 X75.621326 Y942.260285 Z-0.125000 I4.974066 J-3.742417
G02 X77.874219 Y941.658987 Z-0.125000 I0.351245 J-3.205110
G02 X78.664030 Y940.275912 Z-0.125000 I-1.148919 J-1.573147
G02 X77.883686 Y937.997583 Z-0.125000 I-2.847525 J-0.297503
G02 X74.324869 Y936.069042 Z-0.125000 I-4.788427 J4.588397
G03 X74.976839 Y934.860895 Z-0.125000 I1.764350 J0.172132
G03 X76.653200 Y934.375711 Z-0.125000 I1.417439 J1.758806
G03 X78.621283 Y935.306681 Z-0.125000 I-0.360965 J3.308846
G03 X79.563613 Y936.280709 Z-0.125000 I-17.620960 J17.990376
G01 X79.537154 Y936.280709 Z-0.125000
G00 Z5.000000

(End cutting path id: path508)


(Start cutting path id: path508)
(Change tool to Default tool)

G00 Z5.000000
G00 X76.573825 Y940.302370

G01 Z-0.125000 F100.0(Penetrate)
G03 X76.319049 Y940.780957 Z-0.125000 I-0.729061 J-0.081007 F400.000000
G03 X75.806534 Y940.937370 Z-0.125000 I-0.437749 J-0.516485
G03 X74.755697 Y940.251510 Z-0.125000 I0.125671 J-1.340496
G03 X74.166119 Y937.391957 Z-0.125000 I4.255751 J-2.367998
G03 X76.288644 Y939.090817 Z-0.125000 I-1.139815 J3.599415
G03 X76.547366 Y940.302370 Z-0.125000 I-1.716403 J0.999933
G01 X76.573825 Y940.302370 Z-0.125000
G00 Z5.000000

(End cutting path id: path508)


(Start cutting path id: path506)
(Change tool to Default tool)

G00 Z5.000000
G00 X65.567172 Y932.020922

G01 Z-0.125000 F100.0(Penetrate)
G02 X65.401225 Y931.510972 Z-0.125000 I-0.662822 J-0.066282 F400.000000
G02 X65.011548 Y931.306548 Z-0.125000 I-0.467399 J0.417349
G03 X63.441063 Y931.033513 Z-0.125000 I0.946789 J-10.099084
G02 X62.656759 Y930.909674 Z-0.125000 I-1.047630 J4.089368
G02 X62.239375 Y931.050583 Z-0.125000 I-0.036315 J0.581048
G02 X61.995301 Y931.518215 Z-0.125000 I0.469944 J0.542792
G02 X62.187309 Y934.389007 Z-0.125000 I9.016634 J0.838757
G03 X62.471551 Y938.661956 Z-0.125000 I-13.105111 J3.017697
G03 X62.300835 Y939.221670 Z-0.125000 I-1.492111 J-0.149211
G02 X62.180510 Y939.640913 Z-0.125000 I0.909400 J0.487891
G02 X62.636274 Y940.431306 Z-0.125000 I0.760967 J0.087804
G02 X65.223214 Y941.122578 Z-0.125000 I3.600885 J-8.289387
G02 X65.965639 Y940.932149 Z-0.125000 I0.097018 J-1.164214
G02 X66.281546 Y940.408204 Z-0.125000 I-0.394334 J-0.594969
G02 X66.287305 Y939.542037 Z-0.125000 I-4.639500 J-0.463950
G02 X66.228629 Y939.191122 Z-0.125000 I-2.237171 J0.193709
G02 X66.514272 Y939.904332 Z-0.125000 I6.160616 J-2.053539
G02 X68.530502 Y941.334244 Z-0.125000 I2.274983 J-1.071376
G02 X69.452922 Y941.035816 Z-0.125000 I0.120296 J-1.202956
G02 X69.985708 Y940.011329 Z-0.125000 I-1.071047 J-1.207782
G02 X69.785555 Y938.438837 Z-0.125000 I-3.307469 J-0.377996
G02 X68.398210 Y937.365499 Z-0.125000 I-1.578259 J0.606705
G02 X67.315492 Y937.837400 Z-0.125000 I-0.133223 J1.172366
G02 X67.075295 Y938.423831 Z-0.125000 I1.043501 J0.769817
G03 X66.884128 Y938.254886 Z-0.125000 I0.221804 J-0.443607
G03 X66.255088 Y936.995083 Z-0.125000 I4.747195 J-3.157297
G03 X65.648171 Y934.587071 Z-0.125000 I12.183256 J-4.351163
G03 X65.593630 Y932.020922 Z-0.125000 I9.823539 J-1.492444
G01 X65.567172 Y932.020922 Z-0.125000
G00 Z5.000000

(End cutting path id: path506)


(Start cutting path id: path516)
(Change tool to Default tool)

G00 Z5.000000
G00 X66.149255 Y919.744271

G01 Z-0.125000 F100.0(Penetrate)
G03 X66.540458 Y919.191211 Z-0.125000 I0.767350 J0.127892 F400.000000
G03 X68.001336 Y918.950522 Z-0.125000 I1.069158 J1.935535
G02 X68.329384 Y918.937117 Z-0.125000 I0.123820 J-0.990560
G02 X68.556960 Y918.712398 Z-0.125000 I-0.060339 J-0.288701
G02 X68.415401 Y917.860359 Z-0.125000 I-1.287380 J-0.223892
G02 X67.948419 Y917.521774 Z-0.125000 I-0.591240 J0.324121
G03 X66.538816 Y916.712426 Z-0.125000 I0.427959 J-2.377549
G03 X65.964047 Y915.246360 Z-0.125000 I1.833042 J-1.564344
G03 X65.836180 Y911.328141 Z-0.125000 I403.033365 J-15.113751
G02 X65.567172 Y907.838036 Z-0.125000 I-35.601184 J0.988622
G02 X62.901404 Y903.927891 Z-0.125000 I-5.018483 J0.557609
G02 X60.540095 Y903.102001 Z-0.125000 I-3.945890 J7.493159
G02 X60.003199 Y903.163144 Z-0.125000 I-0.161545 J0.969272
G02 X59.799263 Y903.419500 Z-0.125000 I0.128885 J0.311826
G02 X59.867943 Y903.753147 Z-0.125000 I0.525594 J0.065699
G03 X60.143221 Y904.239708 Z-0.125000 I-15.539730 J9.112929
G03 X60.566667 Y905.174402 Z-0.125000 I-6.354914 J3.442245
G03 X60.963428 Y906.859079 Z-0.125000 I-6.613880 J2.446703
G03 X61.403897 Y914.507732 Z-0.125000 I-58.027925 J7.178712
G03 X61.280927 Y915.775526 Z-0.125000 I-7.192872 J-0.057813
G03 X61.063460 Y916.100868 Z-0.125000 I-0.447803 J-0.063972
G03 X60.487178 Y916.198859 Z-0.125000 I-0.416044 J-0.703199
G02 X60.037574 Y916.273953 Z-0.125000 I-0.110792 J0.720150
G02 X59.852179 Y916.516359 Z-0.125000 I0.168646 J0.321081
G02 X59.995330 Y917.265455 Z-0.125000 I1.025431 J0.192268
G02 X60.460720 Y917.574691 Z-0.125000 I0.577696 J-0.364597
G03 X61.097716 Y917.938268 Z-0.125000 I-0.214562 J1.115723
G03 X61.360302 Y918.553648 Z-0.125000 I-0.796653 J0.703650
G02 X64.001115 Y923.402018 Z-0.125000 I6.894550 J-0.611942
G02 X67.260503 Y924.850723 Z-0.125000 I4.544489 J-5.833538
G02 X68.570516 Y926.671202 Z-0.125000 I6.982662 J-3.643128
G02 X70.991124 Y927.972803 Z-0.125000 I3.236368 J-3.117106
G02 X73.260008 Y927.620047 Z-0.125000 I0.617676 J-3.500163
G02 X74.351328 Y926.120722 Z-0.125000 I-0.973337 J-1.855301
G02 X74.023343 Y920.446175 Z-0.125000 I-12.214831 J-2.140744
G03 X73.663412 Y913.949904 Z-0.125000 I13.469868 J-4.004415
G03 X74.211758 Y913.068947 Z-0.125000 I1.340864 J0.223477
G03 X74.986327 Y912.891572 Z-0.125000 I0.598635 J0.834244
G03 X75.647179 Y913.203845 Z-0.125000 I-0.252799 J1.390393
G03 X76.203409 Y913.764696 Z-0.125000 I-2.954829 J3.486732
G02 X76.498254 Y914.061643 Z-0.125000 I1.528368 J-1.222694
G02 X76.732575 Y914.161570 Z-0.125000 I0.291737 J-0.359406
G02 X77.159364 Y914.047057 Z-0.125000 I0.087651 J-0.525904
G02 X77.288199 Y913.817612 Z-0.125000 I-0.231594 J-0.280935
G02 X77.233284 Y913.378754 Z-0.125000 I-0.798860 J-0.122902
G02 X76.917783 Y912.732822 Z-0.125000 I-6.275873 J2.665385
G02 X75.841176 Y911.411749 Z-0.125000 I-5.392658 J3.295513
G02 X72.896121 Y909.954700 Z-0.125000 I-3.893240 J4.164334
G02 X70.055881 Y910.566552 Z-0.125000 I-0.680157 J3.740864
G02 X68.980293 Y912.230114 Z-0.125000 I1.470687 J2.130379
G02 X69.279829 Y916.775143 Z-0.125000 I9.245797 J1.673049
G03 X69.668209 Y922.443018 Z-0.125000 I-11.276087 J3.619915
G03 X68.985742 Y923.351367 Z-0.125000 I-1.252922 J-0.230802
G03 X67.763211 Y923.527808 Z-0.125000 I-0.876652 J-1.750598
G03 X66.169380 Y921.950414 Z-0.125000 I0.355026 J-1.952641
G03 X66.149255 Y919.717813 Z-0.125000 I6.082791 J-1.171224
G01 X66.149255 Y919.744271 Z-0.125000
G00 Z5.000000

(End cutting path id: path516)


(Start cutting path id: path504)
(Change tool to Default tool)

G00 Z5.000000
G00 X49.771567 Y912.468239

G01 Z-0.125000 F100.0(Penetrate)
G02 X44.791704 Y914.003984 Z-0.125000 I-0.674469 J6.654758 F400.000000
G02 X42.442618 Y918.421356 Z-0.125000 I4.311198 J5.125913
G02 X44.403053 Y924.185764 Z-0.125000 I7.256600 J0.747650
G02 X48.263444 Y926.094263 Z-0.125000 I4.517488 J-4.279161
G02 X49.153723 Y925.897701 Z-0.125000 I0.136158 J-1.497735
G02 X49.268859 Y925.723847 Z-0.125000 I-0.117623 J-0.202949
G02 X49.224228 Y925.463290 Z-0.125000 I-0.452597 J-0.056575
G02 X48.977818 Y925.141765 Z-0.125000 I-0.957978 J0.478989
G03 X48.168364 Y923.982305 Z-0.125000 I1.690075 J-2.042174
G03 X47.998861 Y922.654684 Z-0.125000 I2.992006 J-1.056635
G03 X48.841427 Y920.999477 Z-0.125000 I2.558159 J0.260152
G03 X51.015107 Y920.299896 Z-0.125000 I1.872094 J2.090083
G03 X53.185833 Y921.849399 Z-0.125000 I-0.283397 J2.692272
G03 X54.934243 Y927.284887 Z-0.125000 I-20.827926 J9.698572
G03 X55.701626 Y933.502083 Z-0.125000 I-48.255726 J9.112118
G03 X55.856976 Y938.397373 Z-0.125000 I-89.689889 J5.296384
G03 X55.682041 Y938.767130 Z-0.125000 I-0.478243 J-0.000000
G03 X55.221977 Y938.900081 Z-0.125000 I-0.384807 J-0.469111
G02 X54.899305 Y939.040675 Z-0.125000 I-0.042794 J0.342356
G02 X54.825102 Y939.270497 Z-0.125000 I0.318802 J0.229822
G02 X54.920306 Y939.645565 Z-0.125000 I0.786416 J0.000000
G02 X55.248435 Y939.905496 Z-0.125000 I0.468325 J-0.254125
G03 X55.822717 Y940.426121 Z-0.125000 I-0.304199 J0.912597
G03 X56.068642 Y941.307786 Z-0.125000 I-2.840677 J1.267490
G02 X57.986220 Y947.013629 Z-0.125000 I13.869518 J-1.486020
G02 X61.254469 Y949.086526 Z-0.125000 I3.705823 J-2.229912
G02 X63.484326 Y948.543907 Z-0.125000 I0.343957 J-3.439568
G02 X64.164882 Y947.419653 Z-0.125000 I-0.825243 J-1.267664
G02 X63.792818 Y946.086160 Z-0.125000 I-1.920234 J-0.182879
G02 X62.921342 Y945.594030 Z-0.125000 I-0.990330 J0.736022
G02 X61.661142 Y946.658102 Z-0.125000 I-0.121536 J1.134337
G03 X60.963428 Y947.234445 Z-0.125000 I-0.618423 J-0.038162
G03 X59.969461 Y946.237018 Z-0.125000 I0.147180 J-1.140642
G03 X59.905096 Y941.572369 Z-0.125000 I20.883733 J-2.620933
G03 X60.266783 Y941.061286 Z-0.125000 I0.652595 J0.078311
G03 X62.524467 Y940.646328 Z-0.125000 I1.859382 J3.767213
G02 X62.757798 Y940.602538 Z-0.125000 I0.000000 J-0.643532
G02 X62.947800 Y940.355287 Z-0.125000 I-0.109124 J-0.280487
G02 X62.754990 Y939.735279 Z-0.125000 I-0.816793 J-0.085978
G02 X62.418634 Y939.561538 Z-0.125000 I-0.381861 J0.326812
G03 X60.194378 Y938.700432 Z-0.125000 I0.504925 J-4.607441
G03 X59.508221 Y937.418416 Z-0.125000 I0.984657 J-1.351634
G02 X56.914057 Y918.702476 Z-0.125000 I-81.835152 J1.805187
G02 X49.692192 Y912.494697 Z-0.125000 I-8.076963 J2.091700
G01 X49.771567 Y912.468239 Z-0.125000
G00 Z5.000000

(End cutting path id: path504)


(Start cutting path id: path494)
(Change tool to Default tool)

G00 Z5.000000
G00 X39.109391 Y898.497990

G01 Z-0.125000 F100.0(Penetrate)
G01 X21.408766 Y911.039240 Z-0.125000 F400.000000
G01 X21.593974 Y911.330280 Z-0.125000
G01 X39.321057 Y898.815490 Z-0.125000
G03 X39.211361 Y898.653876 Z-0.125000 I1.657275 J-1.242917
G02 X39.109391 Y898.524450 Z-0.125000 I-0.596229 J0.364864
G01 X39.109391 Y898.497990 Z-0.125000
G00 Z5.000000

(End cutting path id: path494)


(Start cutting path id: path486)
(Change tool to Default tool)

G00 Z5.000000
G00 X39.109391 Y898.497990

G01 Z-0.125000 F100.0(Penetrate)
G03 X39.219087 Y898.659604 Z-0.125000 I-1.657275 J1.242917 F400.000000
G02 X39.321057 Y898.789030 Z-0.125000 I0.596229 J-0.364864
G01 X21.593974 Y911.303820 Z-0.125000
G01 X21.408766 Y911.012780 Z-0.125000
G01 X39.109391 Y898.471530 Z-0.125000
G01 X39.109391 Y898.497990 Z-0.125000
G00 Z5.000000

(End cutting path id: path486)


(Start cutting path id: path490)
(Change tool to Default tool)

G00 Z5.000000
G00 X67.631470 Y882.120280

G01 Z-0.125000 F100.0(Penetrate)
G03 X64.395700 Y882.901607 Z-0.125000 I-24.943604 J-96.209954 F400.000000
G02 X61.228560 Y883.840070 Z-0.125000 I5.317788 J23.760043
G02 X54.515734 Y887.201080 Z-0.125000 I11.728451 J31.808969
G02 X48.396270 Y891.539450 Z-0.125000 I49.099701 J75.742385
G03 X46.543402 Y892.931840 Z-0.125000 I-36.446400 J-46.570579
G02 X44.692099 Y894.396950 Z-0.125000 I15.480349 J21.463073
G02 X55.616701 Y887.427234 Z-0.125000 I-570.037335 J-905.545231
G03 X67.631470 Y882.120280 Z-0.125000 I22.661104 J35.049996
G01 X67.631470 Y882.120280 Z-0.125000
G00 Z5.000000

(End cutting path id: path490)


(Start cutting path id: path486)
(Change tool to Default tool)

G00 Z5.000000
G00 X67.631470 Y882.120280

G01 Z-0.125000 F100.0(Penetrate)
G02 X55.582013 Y887.437016 Z-0.125000 I10.620086 J40.380942 F400.000000
G03 X44.692099 Y894.396950 Z-0.125000 I-670.221356 J-1036.667552
G03 X46.543402 Y892.931840 Z-0.125000 I17.331652 J19.997963
G02 X48.396270 Y891.539450 Z-0.125000 I-34.593532 J-47.962969
G03 X54.515734 Y887.201080 Z-0.125000 I55.219165 J71.404015
G03 X61.228560 Y883.840070 Z-0.125000 I18.441277 J28.447959
G03 X64.395700 Y882.901607 Z-0.125000 I8.484928 J22.821580
G02 X67.631470 Y882.120280 Z-0.125000 I-21.707834 J-96.991281
G01 X67.631470 Y882.120280 Z-0.125000
G00 Z5.000000

(End cutting path id: path486)


(Start cutting path id: path486)
(Change tool to Default tool)

G00 Z5.000000
G00 X78.743970 Y894.846740

G01 Z-0.125000 F100.0(Penetrate)
G03 X78.944965 Y894.136779 Z-0.125000 I72.180579 J20.051424 F400.000000
G02 X79.087930 Y893.550280 Z-0.125000 I-6.954139 J-2.005812
G03 X79.787232 Y890.527415 Z-0.125000 I76.526055 J16.111029
G02 X80.305020 Y887.491320 Z-0.125000 I-19.099454 J-4.819498
G02 X79.596413 Y885.145414 Z-0.125000 I-3.311120 J-0.279813
G02 X77.579810 Y883.601950 Z-0.125000 I-4.075066 J3.235129
G03 X75.619923 Y882.696497 Z-0.125000 I23.794832 J-54.078681
G02 X73.637520 Y881.829240 Z-0.125000 I-12.201611 J25.191462
G02 X66.308352 Y880.672312 Z-0.125000 I-6.272466 J15.942533
G02 X59.350020 Y882.384860 Z-0.125000 I1.237143 J20.019324
G02 X52.805212 Y885.762399 Z-0.125000 I28.082962 J62.447455
G02 X46.544182 Y889.634450 Z-0.125000 I78.741194 J134.320974
G02 X39.525961 Y894.527101 Z-0.125000 I75.206774 J115.359658
G03 X32.600641 Y899.582780 Z-0.125000 I-276.070383 J-370.892926
G02 X27.398893 Y903.330469 Z-0.125000 I973.893516 J1357.236529
G03 X22.149599 Y907.044030 Z-0.125000 I-178.653766 J-246.968694
G03 X14.849825 Y911.850560 Z-0.125000 I-96.657534 J-138.849306
G02 X7.729808 Y916.965910 Z-0.125000 I34.821012 J55.979934
G03 X5.322744 Y918.575573 Z-0.125000 I-9.369338 J-11.406185
G02 X2.755641 Y920.035070 Z-0.125000 I27.013940 J50.502078
G02 X2.532190 Y921.430928 Z-0.125000 I63.081891 J10.814058
G03 X2.305850 Y922.866114 Z-0.125000 I-82.323141 J-12.247557
G02 X2.716734 Y926.540022 Z-0.125000 I6.760828 J1.103810
G02 X4.343141 Y929.639448 Z-0.125000 I16.470144 J-6.666183
G02 X6.458880 Y932.459297 Z-0.125000 I25.001684 J-16.555170
G02 X8.761683 Y935.169239 Z-0.125000 I735.897003 J-623.003261
G02 X10.410054 Y937.016063 Z-0.125000 I28.019264 J-23.349379
G03 X12.095433 Y938.820489 Z-0.125000 I-78.829153 J75.317714
G03 X14.440654 Y941.410548 Z-0.125000 I-1060.705133 J962.793294
G02 X16.805016 Y943.979864 Z-0.125000 I139.745247 J-126.225289
G02 X20.593551 Y947.963720 Z-0.125000 I365.522068 J-343.807888
G03 X24.372099 Y951.917364 Z-0.125000 I-658.309856 J632.937540
G03 X27.048910 Y954.803112 Z-0.125000 I-159.330640 J150.478966
G02 X29.796058 Y957.579447 Z-0.125000 I35.015311 J-31.899906
G02 X33.486863 Y960.880690 Z-0.125000 I78.322275 J-83.850870
G02 X37.283766 Y964.088197 Z-0.125000 I240.856349 J-281.263917
G02 X40.384409 Y966.602323 Z-0.125000 I65.107669 J-77.127507
G03 X43.475016 Y969.088822 Z-0.125000 I-76.347654 J98.060690
G02 X48.878118 Y973.268531 Z-0.125000 I66.766115 J-80.726286
G02 X54.666890 Y976.920489 Z-0.125000 I31.839149 J-44.054790
G03 X57.759017 Y978.713049 Z-0.125000 I-31.748211 J58.328173
G02 X60.911060 Y980.386530 Z-0.125000 I14.589468 J-23.674411
G02 X64.183041 Y981.337863 Z-0.125000 I4.812874 J-10.450791
G02 X67.393350 Y979.963197 Z-0.125000 I0.455665 J-3.371778
G02 X68.269148 Y978.611546 Z-0.125000 I-13.552907 J-9.741121
G02 X68.822100 Y977.185072 Z-0.125000 I-4.233117 J-2.461317
G02 X69.447779 Y973.860382 Z-0.125000 I-45.295604 J-10.245468
G03 X70.012720 Y970.279447 Z-0.125000 I260.137456 J39.205210
G02 X73.001567 Y970.595959 Z-0.125000 I209.683488 J-1965.783948
G03 X76.151060 Y970.940906 Z-0.125000 I-38.117600 J362.578589
G03 X78.802057 Y971.289404 Z-0.125000 I-13.353798 J111.838518
G02 X81.416270 Y971.655281 Z-0.125000 I53.190955 J-370.530233
G03 X86.378416 Y972.300367 Z-0.125000 I-161.354036 J1260.578750
G02 X91.338140 Y972.925280 Z-0.125000 I55.365694 J-419.424627
G02 X95.113918 Y973.377122 Z-0.125000 I36.388838 J-288.078109
G03 X98.931680 Y973.851322 Z-0.125000 I-19.602056 J173.420719
G03 X104.719626 Y974.630488 Z-0.125000 I-85.553175 J657.408573
G02 X110.546890 Y975.412364 Z-0.125000 I83.687238 J-601.607558
G02 X114.191725 Y975.861027 Z-0.125000 I32.879908 J-252.079676
G03 X117.875850 Y976.311947 Z-0.125000 I-32.666916 J282.172106
G03 X121.560366 Y976.800102 Z-0.125000 I-69.995587 J542.464489
G02 X125.284180 Y977.290905 Z-0.125000 I62.114338 J-456.900871
G02 X128.581597 Y977.717989 Z-0.125000 I73.823766 J-557.032808
G02 X131.872310 Y978.084655 Z-0.125000 I13.966382 J-110.394170
G02 X135.551016 Y978.425338 Z-0.125000 I13.371665 J-124.355920
G03 X139.227720 Y978.746114 Z-0.125000 I-15.135556 J194.713734
G02 X142.667951 Y977.721064 Z-0.125000 I0.453624 J-4.763072
G02 X144.810430 Y975.200697 Z-0.125000 I-5.406356 J-6.766569
G02 X145.857160 Y973.052147 Z-0.125000 I-14.811633 J-8.545175
G02 X146.662510 Y970.808614 Z-0.125000 I-28.524003 J-11.505434
G02 X147.569048 Y967.682623 Z-0.125000 I-95.773321 J-29.468714
G02 X148.170640 Y964.537989 Z-0.125000 I-20.080553 J-5.471423
G02 X148.567349 Y959.513432 Z-0.125000 I-63.053187 J-7.506237
G03 X148.885010 Y954.457364 Z-0.125000 I107.019940 J4.185810
G03 X149.413908 Y948.441708 Z-0.125000 I337.802397 J26.668608
G03 X150.022720 Y942.418823 Z-0.125000 I728.538107 J70.600661
G03 X151.296391 Y936.361802 Z-0.125000 I29.182338 J2.974043
G03 X153.515220 Y930.565489 Z-0.125000 I56.122912 J18.161010
G02 X155.198508 Y926.452248 Z-0.125000 I-75.169297 J-33.163065
G02 X156.478560 Y922.231114 Z-0.125000 I-30.833256 J-11.654789
G02 X157.128705 Y917.250114 Z-0.125000 I-25.422605 J-5.851215
G02 X156.028760 Y912.097570 Z-0.125000 I-10.912097 J-0.364207
G02 X154.644999 Y910.155409 Z-0.125000 I-6.388901 J3.087962
G02 X152.430430 Y908.816740 Z-0.125000 I-3.851940 J3.871166
G03 X149.875277 Y907.528692 Z-0.125000 I2.870691 J-8.873112
G02 X147.350430 Y906.091530 Z-0.125000 I-8.182307 J11.438464
G02 X143.387240 Y904.435631 Z-0.125000 I-61.175965 J140.846515
G02 X139.333560 Y903.101740 Z-0.125000 I-12.451567 J31.013673
G02 X132.817772 Y901.554376 Z-0.125000 I-34.489047 J130.737410
G02 X126.236680 Y900.244240 Z-0.125000 I-58.401616 J276.179634
G02 X121.413093 Y899.534516 Z-0.125000 I-12.917746 J71.048048
G03 X116.526470 Y898.921320 Z-0.125000 I22.066587 J-195.628617
G03 X112.887142 Y898.355561 Z-0.125000 I18.608701 J-131.691347
G02 X109.250430 Y897.810070 Z-0.125000 I-16.034443 J94.503908
G02 X105.721245 Y897.397376 Z-0.125000 I-13.478027 J99.961965
G03 X102.159600 Y897.042780 Z-0.125000 I402.850758 J-4064.393324
G02 X97.356396 Y896.530039 Z-0.125000 I-378.974701 J3527.364288
G02 X92.555220 Y896.037360 Z-0.125000 I-74.682294 J704.142313
G02 X89.008972 Y895.749538 Z-0.125000 I-18.392124 J204.618674
G03 X85.464390 Y895.481740 Z-0.125000 I41.664049 J-575.057660
G03 X82.274208 Y895.191334 Z-0.125000 I24.238597 J-283.934857
G03 X78.770430 Y894.846740 Z-0.125000 I103.788390 J-1073.288788
G01 X78.743970 Y894.846740 Z-0.125000
G00 Z5.000000

(End cutting path id: path486)


(Start cutting path id: path512)
(Change tool to Default tool)

G00 Z5.000000
G00 X93.956928 Y936.571750

G01 Z-0.125000 F100.0(Penetrate)
G02 X94.210741 Y939.252300 Z-0.125000 I6.570957 J0.730106 F400.000000
G03 X94.406719 Y941.122578 Z-0.125000 I-4.635059 J1.431093
G03 X94.118786 Y941.649234 Z-0.125000 I-0.785198 J-0.087244
G03 X93.639428 Y941.784035 Z-0.125000 I-0.396172 J-0.489096
G03 X92.967012 Y941.405230 Z-0.125000 I0.085226 J-0.937491
G03 X92.051930 Y939.667371 Z-0.125000 I5.263870 J-3.881576
G03 X91.390211 Y936.497668 Z-0.125000 I11.146616 J-3.980934
G03 X91.364014 Y934.666753 Z-0.125000 I16.834127 J-1.156503
G02 X91.200387 Y934.149836 Z-0.125000 I-0.682654 J-0.068265
G02 X90.834849 Y933.952378 Z-0.125000 I-0.442914 J0.382859
G03 X89.241968 Y933.685338 Z-0.125000 I0.970045 J-10.670496
G02 X88.374227 Y933.555504 Z-0.125000 I-1.129719 J4.585768
G02 X87.972055 Y933.722020 Z-0.125000 I-0.027868 J0.501617
G02 X87.765686 Y934.190503 Z-0.125000 I0.615043 J0.550624
G02 X87.744018 Y935.110459 Z-0.125000 I6.020285 J0.602028
G02 X88.189019 Y941.545910 Z-0.125000 I195.610507 J-10.293020
G02 X88.757811 Y947.042036 Z-0.125000 I160.708086 J-13.854145
G02 X89.485475 Y951.996939 Z-0.125000 I97.254214 J-11.751616
G02 X84.081274 Y954.731100 Z-0.125000 I32.439051 J70.825261
G03 X79.299030 Y955.701101 Z-0.125000 I-3.920205 J-7.053597
G03 X76.965236 Y954.444663 Z-0.125000 I0.354220 J-3.453644
G03 X76.388617 Y952.526105 Z-0.125000 I2.023622 J-1.654127
G03 X76.825553 Y951.197681 Z-0.125000 I3.484081 J0.409892
G03 X77.896740 Y950.171316 Z-0.125000 I2.265792 J1.292575
G02 X78.240701 Y949.953174 Z-0.125000 I-0.898438 J-1.796875
G02 X78.346531 Y949.774442 Z-0.125000 I-0.177864 J-0.226014
G02 X78.297892 Y949.624089 Z-0.125000 I-0.169420 J-0.028237
G02 X77.420490 Y949.218818 Z-0.125000 I-0.998687 J1.009718
G02 X73.248891 Y949.863804 Z-0.125000 I-0.867519 J8.201999
G02 X69.721125 Y954.695686 Z-0.125000 I2.378664 J5.440423
G02 X71.323266 Y959.663475 Z-0.125000 I6.441252 J0.664903
G02 X75.780076 Y961.945260 Z-0.125000 I5.162897 J-4.590792
G02 X83.106397 Y959.864029 Z-0.125000 I1.034755 J-10.293093
G03 X90.094016 Y954.880894 Z-0.125000 I76.165408 J99.412436
G02 X93.411994 Y960.819098 Z-0.125000 I14.269377 J-4.076965
G02 X97.052549 Y962.659634 Z-0.125000 I4.250921 J-3.887512
G02 X100.971955 Y961.548033 Z-0.125000 I0.578252 J-5.426673
G02 X103.058583 Y957.817765 Z-0.125000 I-3.344753 J-4.319720
G02 X101.062893 Y952.385892 Z-0.125000 I-6.552563 J-0.675113
G02 X97.343590 Y950.674024 Z-0.125000 I-4.337661 J4.527933
G02 X95.162027 Y950.728978 Z-0.125000 I-0.871852 J8.718520
G02 X93.083804 Y951.150273 Z-0.125000 I3.172858 J20.988029
G03 X92.383601 Y946.838709 Z-0.125000 I43.315331 J-9.247093
G03 X91.893180 Y941.942785 Z-0.125000 I206.693611 J-23.176868
G02 X93.073332 Y943.285036 Z-0.125000 I4.950975 J-3.163123
G02 X95.359218 Y944.244657 Z-0.125000 I2.697259 J-3.222682
G02 X97.194503 Y943.753046 Z-0.125000 I0.270633 J-2.661224
G02 X97.978589 Y942.392576 Z-0.125000 I-1.118320 J-1.550710
G02 X97.776073 Y940.324435 Z-0.125000 I-5.274732 J-0.527473
G03 X97.555257 Y938.132790 Z-0.125000 I5.453122 J-1.656368
G03 X97.986627 Y937.367851 Z-0.125000 I1.123860 J0.129676
G03 X98.640047 Y937.180291 Z-0.125000 I0.562053 J0.726106
G03 X99.176793 Y937.420683 Z-0.125000 I-0.106309 J0.956782
G03 X99.645462 Y937.947582 Z-0.125000 I-2.101443 J2.341096
G02 X99.913356 Y938.231781 Z-0.125000 I1.627924 J-1.266163
G02 X100.095254 Y938.317998 Z-0.125000 I0.242302 J-0.276211
G02 X100.430250 Y938.167972 Z-0.125000 I-0.000000 J-0.449025
G02 X100.545045 Y937.921123 Z-0.125000 I-0.351144 J-0.313411
G02 X100.478774 Y937.475651 Z-0.125000 I-1.008769 J-0.077598
G02 X100.201087 Y936.889250 Z-0.125000 I-4.312909 J1.683411
G02 X99.222197 Y935.600813 Z-0.125000 I-5.056952 J2.825944
G02 X96.814424 Y934.481544 Z-0.125000 I-2.757110 J2.781664
G02 X94.798180 Y935.069869 Z-0.125000 I-0.294907 J2.738419
G02 X93.956928 Y936.598208 Z-0.125000 I1.425177 J1.780165
G01 X93.956928 Y936.571750 Z-0.125000
G00 Z5.000000

(End cutting path id: path512)


(Start cutting path id: path512)
(Change tool to Default tool)

G00 Z5.000000
G00 X93.560053 Y953.187563

G01 Z-0.125000 F100.0(Penetrate)
G03 X95.259315 Y952.613669 Z-0.125000 I3.085585 J6.333569 F400.000000
G03 X96.708591 Y952.552563 Z-0.125000 I0.918987 J4.578924
G03 X98.470004 Y953.461878 Z-0.125000 I-0.298863 J2.739575
G03 X99.169213 Y955.648184 Z-0.125000 I-2.119380 J1.882766
G03 X98.148164 Y957.103624 Z-0.125000 I-1.828538 J-0.196920
G03 X96.787966 Y957.341516 Z-0.125000 I-1.091553 J-2.233638
G03 X95.201581 Y956.472192 Z-0.125000 I0.255197 J-2.347815
G03 X93.560053 Y953.187563 Z-0.125000 I6.772204 J-5.436979
G01 X93.560053 Y953.187563 Z-0.125000
G00 Z5.000000

(End cutting path id: path512)


(Start cutting path id: path488)
(Change tool to Default tool)

G00 Z5.000000
G00 X62.366270 Y966.760489

G01 Z-0.125000 F100.0(Penetrate)
G02 X64.209357 Y966.897263 Z-0.125000 I6.321087 J-72.692527 F400.000000
G03 X66.176270 Y967.077989 Z-0.125000 I-2.006128 J32.627275
G03 X69.951894 Y967.545427 Z-0.125000 I-27.692265 J239.160042
G02 X73.690430 Y968.030489 Z-0.125000 I120.018259 J-910.371552
G01 X83.056680 Y969.221114 Z-0.125000
G01 X90.359180 Y970.173614 Z-0.125000
G02 X95.387529 Y970.845139 Z-0.125000 I1103.032420 J-8240.298438
G02 X100.413350 Y971.496531 Z-0.125000 I93.833666 J-704.260122
G02 X104.150457 Y971.947435 Z-0.125000 I34.553591 J-270.669452
G03 X107.848140 Y972.396114 Z-0.125000 I-27.775770 J244.368459
G03 X112.577413 Y973.045711 Z-0.125000 I-111.591586 J829.962659
G02 X117.267310 Y973.692572 Z-0.125000 I143.528114 J-1023.288010
G02 X120.933011 Y974.139224 Z-0.125000 I28.248039 J-216.567705
G03 X124.596260 Y974.565697 Z-0.125000 I-66.883422 J590.450879
G02 X128.296177 Y975.024849 Z-0.125000 I49.124135 J-380.712822
G03 X132.004600 Y975.544655 Z-0.125000 I-10.729398 J90.034481
G02 X135.421795 Y975.076018 Z-0.125000 I0.950187 J-5.764472
G02 X138.142930 Y972.475489 Z-0.125000 I-2.475659 J-5.314407
G02 X140.343389 Y967.232233 Z-0.125000 I-30.924489 J-16.061571
G02 X141.397310 Y961.601114 Z-0.125000 I-20.900564 J-6.825939
G03 X141.810638 Y956.521769 Z-0.125000 I135.434334 J8.464378
G02 X142.243970 Y951.441114 Z-0.125000 I-170.386378 J-17.091163
G02 X142.309896 Y948.365245 Z-0.125000 I-35.370329 J-2.296745
G03 X142.376260 Y945.329239 Z-0.125000 I34.638136 J-0.761576
G03 X143.027681 Y939.366523 Z-0.125000 I81.807408 J5.920443
G03 X144.651680 Y933.528823 Z-0.125000 I23.865772 J3.494515
G02 X146.776220 Y928.399503 Z-0.125000 I-681.411909 J-285.242194
G02 X148.779180 Y923.236531 Z-0.125000 I-135.912632 J-55.696924
G02 X150.157442 Y918.009321 Z-0.125000 I-26.480661 J-9.777481
G02 X150.075640 Y912.547360 Z-0.125000 I-15.319410 J-2.502160
G02 X148.489076 Y909.678225 Z-0.125000 I-5.272227 J1.042184
G02 X146.053970 Y907.546740 Z-0.125000 I-30.247769 J32.099703
G02 X142.207292 Y905.559055 Z-0.125000 I-6.954596 J8.742924
G02 X138.090010 Y904.556950 Z-0.125000 I-13.658120 J47.156961
G02 X131.568606 Y903.337844 Z-0.125000 I-47.546851 J236.291726
G02 X124.993140 Y902.255070 Z-0.125000 I-72.349630 J418.857611
G02 X121.345538 Y901.825807 Z-0.125000 I-8.158715 J53.615450
G03 X117.664180 Y901.434860 Z-0.125000 I6.836698 J-81.906042
G03 X113.026081 Y900.830846 Z-0.125000 I26.691163 J-223.065514
G02 X108.350850 Y900.244240 Z-0.125000 I-21.771581 J154.594730
G02 X103.619376 Y899.775288 Z-0.125000 I-25.760582 J235.807138
G03 X98.852310 Y899.344660 Z-0.125000 I160.590646 J-1804.343274
G01 X90.200430 Y898.497990 Z-0.125000
G02 X85.634827 Y898.120838 Z-0.125000 I-45.963108 J528.582689
G02 X81.072310 Y897.783610 Z-0.125000 I-41.273643 J527.377185
G02 X78.556560 Y897.664640 Z-0.125000 I-3.119483 J39.306095
G03 X76.071680 Y897.466110 Z-0.125000 I0.296484 J-19.361089
G03 X74.960541 Y897.065581 Z-0.125000 I0.389075 J-2.820873
G02 X73.849180 Y896.487160 Z-0.125000 I-4.404898 J7.106568
G02 X73.189964 Y896.266798 Z-0.125000 I-1.553061 J3.549793
G03 X72.499810 Y896.063820 Z-0.125000 I1.558882 J-6.575223
G02 X71.617447 Y895.820983 Z-0.125000 I-3.514315 J11.045016
G03 X70.806470 Y895.481740 Z-0.125000 I0.600012 J-2.573316
G03 X70.454599 Y894.983937 Z-0.125000 I0.417928 J-0.668673
G03 X70.594810 Y894.423410 Z-0.125000 I0.630788 J-0.140014
G02 X72.110576 Y891.515322 Z-0.125000 I-6.853008 J-5.421025
G02 X72.923140 Y888.417360 Z-0.125000 I-43.583621 J-13.087088
G02 X73.107312 Y887.274874 Z-0.125000 I-11.040814 J-2.365899
G02 X73.108350 Y886.141950 Z-0.125000 I-5.241427 J-0.571264
G02 X72.124162 Y884.453492 Z-0.125000 I-2.404532 J0.270515
G02 X70.197930 Y883.945910 Z-0.125000 I-1.618060 J2.231669
G02 X63.813740 Y885.592029 Z-0.125000 I2.919883 J24.527324
G02 X58.080020 Y888.629030 Z-0.125000 I12.131698 J29.835091
G02 X52.229227 Y892.736008 Z-0.125000 I82.502444 J123.753821
G03 X46.464807 Y896.936950 Z-0.125000 I-336.674527 J-455.920417
G02 X37.976153 Y903.047959 Z-0.125000 I16705.465201 J23214.105463
G03 X29.425641 Y909.081320 Z-0.125000 I-316.604249 J-439.617685
G03 X23.532835 Y912.965714 Z-0.125000 I-89.677469 J-129.632870
G02 X17.625224 Y916.807160 Z-0.125000 I116.005236 J184.863207
G02 X14.651785 Y919.033019 Z-0.125000 I21.385427 J31.666949
G03 X11.645641 Y921.172780 Z-0.125000 I-16.211062 J-19.593331
G02 X9.036390 Y925.575802 Z-0.125000 I2.832309 J4.653078
G02 X9.872933 Y929.560073 Z-0.125000 I8.127550 J0.373485
G02 X12.602012 Y933.692353 Z-0.125000 I17.999660 J-8.920183
G02 X15.799599 Y937.418198 Z-0.125000 I931.715941 J-796.380181
G02 X18.836776 Y940.772921 Z-0.125000 I91.794272 J-80.053167
G03 X21.911474 Y944.085698 Z-0.125000 I-265.816432 J249.796232
G03 X26.437082 Y949.011886 Z-0.125000 I-6765.219489 J6219.636933
G03 X30.933766 Y953.928197 Z-0.125000 I-1340.955444 J1231.014115
G02 X37.611609 Y960.495901 Z-0.125000 I61.726984 J-56.083366
G02 X44.771474 Y966.495906 Z-0.125000 I131.699631 J-149.886493
G02 X50.748298 Y971.086785 Z-0.125000 I157.896575 J-199.378119
G03 X56.783560 Y975.597572 Z-0.125000 I-1353.839157 J1817.678182
G02 X57.747225 Y976.302518 Z-0.125000 I30.029451 J-40.039268
G02 X58.767930 Y976.999864 Z-0.125000 I17.698723 J-24.809945
G02 X60.474758 Y977.217875 Z-0.125000 I1.077152 J-1.642659
G02 X61.625430 Y975.994447 Z-0.125000 I-0.572288 J-1.691090
G02 X62.399677 Y972.667141 Z-0.125000 I-54.180714 J-14.361315
G02 X62.974810 Y969.300489 Z-0.125000 I-57.843691 J-11.614017
G02 X62.842341 Y968.254208 Z-0.125000 I-1.934562 J-0.286593
G03 X62.313350 Y966.760489 Z-0.125000 I12.467873 J-5.255946
G01 X62.366270 Y966.760489 Z-0.125000
G00 Z5.000000

(End cutting path id: path488)


(Start cutting path id: path486)
(Change tool to Default tool)

G00 Z5.000000
G00 X62.366270 Y966.760489

G01 Z-0.125000 F100.0(Penetrate)
G02 X62.888743 Y968.231983 Z-0.125000 I12.631290 J-3.656404 F400.000000
G03 X63.027720 Y969.300489 Z-0.125000 I-1.851593 J0.784121
G03 X62.452588 Y972.667142 Z-0.125000 I-58.419554 J-8.247468
G03 X61.678350 Y975.994447 Z-0.125000 I-54.958115 J-11.034602
G03 X60.532852 Y977.230323 Z-0.125000 I-1.706099 J-0.432532
G03 X58.820850 Y976.999864 Z-0.125000 I-0.622232 J-1.851827
G03 X57.838123 Y976.324997 Z-0.125000 I73.057487 J-107.437672
G03 X56.836470 Y975.597572 Z-0.125000 I16.212268 J-23.377394
G02 X50.784972 Y971.082232 Z-0.125000 I-917.882127 J1223.840807
G03 X44.824391 Y966.495906 Z-0.125000 I129.847526 J-174.921748
G03 X37.649194 Y960.490329 Z-0.125000 I114.342619 J-143.900585
G03 X30.986682 Y953.928197 Z-0.125000 I55.771279 J-63.287682
G02 X26.489999 Y949.011886 Z-0.125000 I-1345.401083 J1226.050829
G02 X21.964391 Y944.085698 Z-0.125000 I-6769.489154 J6214.476644
G02 X18.889693 Y940.772921 Z-0.125000 I-268.899087 J246.490870
G03 X15.852516 Y937.418198 Z-0.125000 I88.757390 J-83.408147
G03 X12.634874 Y933.699951 Z-0.125000 I466.148250 J-406.639791
G03 X9.925849 Y929.560073 Z-0.125000 I14.487046 J-12.436232
G03 X9.094153 Y925.568483 Z-0.125000 I7.259036 J-3.594950
G03 X11.698558 Y921.172780 Z-0.125000 I5.463816 J0.267858
G02 X14.692290 Y919.024703 Z-0.125000 I-14.458967 J-23.311361
G03 X17.678141 Y916.807160 Z-0.125000 I23.300053 J28.253833
G03 X23.602623 Y912.961279 Z-0.125000 I142.465859 J212.978839
G02 X29.478558 Y909.081320 Z-0.125000 I-86.875433 J-137.956288
G02 X38.033794 Y903.034681 Z-0.125000 I-285.469653 J-412.979408
G03 X46.517724 Y896.936950 Z-0.125000 I1223.169801 J1692.876667
G02 X52.286487 Y892.722742 Z-0.125000 I-280.486275 J-390.008718
G03 X58.132930 Y888.629030 Z-0.125000 I77.362620 J104.263925
G03 X63.866654 Y885.592028 Z-0.125000 I17.865381 J26.798035
G03 X70.250850 Y883.945910 Z-0.125000 I9.304087 J22.881274
G03 X72.177091 Y884.453500 Z-0.125000 I0.308171 J2.739246
G03 X73.161270 Y886.141950 Z-0.125000 I-1.420357 J1.958970
G03 X73.170191 Y887.272609 Z-0.125000 I-5.694257 J0.610294
G03 X72.976060 Y888.417360 Z-0.125000 I-7.516179 J-0.685786
G03 X72.153072 Y891.521413 Z-0.125000 I-41.389772 J-9.312684
G03 X70.647720 Y894.423410 Z-0.125000 I-8.659529 J-2.650521
G02 X70.507509 Y894.983931 Z-0.125000 I0.490574 J0.420511
G02 X70.859390 Y895.481740 Z-0.125000 I0.769789 J-0.170863
G02 X71.670369 Y895.820984 Z-0.125000 I1.410993 J-2.234079
G03 X72.552720 Y896.063820 Z-0.125000 I-2.631756 J11.287010
G02 X73.239976 Y896.256013 Z-0.125000 I7.537644 J-25.628787
G03 X73.902100 Y896.487160 Z-0.125000 I-1.175890 J4.432252
G03 X75.013454 Y897.065579 Z-0.125000 I-3.293702 J7.685271
G02 X76.124600 Y897.466110 Z-0.125000 I1.500224 J-2.420371
G02 X78.608121 Y897.654626 Z-0.125000 I3.033336 J-23.508029
G03 X81.125220 Y897.783610 Z-0.125000 I-1.044124 J45.000821
G03 X85.687742 Y898.120838 Z-0.125000 I-36.711889 J527.725387
G03 X90.253350 Y898.497990 Z-0.125000 I-41.396643 J528.949983
G03 X94.578345 Y898.911304 Z-0.125000 I-52.381566 J570.966594
G03 X98.905220 Y899.344660 Z-0.125000 I-283.564200 J2853.082227
G02 X103.652530 Y899.774495 Z-0.125000 I195.291823 J-2130.468457
G03 X108.403760 Y900.244240 Z-0.125000 I-22.702942 J253.891642
G03 X113.078996 Y900.830846 Z-0.125000 I-17.096063 J155.179226
G02 X117.717100 Y901.434860 Z-0.125000 I31.328600 J-222.456652
G02 X121.376039 Y901.804814 Z-0.125000 I11.971425 J-100.121508
G03 X125.046060 Y902.255070 Z-0.125000 I-3.855071 J46.604800
G03 X131.601971 Y903.335971 Z-0.125000 I-72.705486 J461.397433
G03 X138.142930 Y904.556950 Z-0.125000 I-40.252155 J233.767424
G03 X142.241650 Y905.554240 Z-0.125000 I-10.021626 J50.108673
G03 X146.106890 Y907.546740 Z-0.125000 I-3.085063 J10.730027
G03 X148.567725 Y909.685378 Z-0.125000 I-25.014604 J31.268301
G03 X150.128560 Y912.547360 Z-0.125000 I-3.606188 J3.823307
G03 X150.214535 Y917.990391 Z-0.125000 I-15.135470 J2.961267
G03 X148.832100 Y923.236531 Z-0.125000 I-27.920692 J-4.552299
G03 X146.829140 Y928.399503 Z-0.125000 I-137.915592 J-50.533953
G03 X144.704600 Y933.528823 Z-0.125000 I-683.536448 J-280.112874
G02 X143.087880 Y939.385239 Z-0.125000 I21.957541 J9.212956
G02 X142.429180 Y945.329239 Z-0.125000 I95.314247 J13.570990
G02 X142.353143 Y948.385882 Z-0.125000 I28.829023 J2.246417
G03 X142.296890 Y951.441114 Z-0.125000 I-32.903668 J0.922310
G03 X141.873555 Y956.521114 Z-0.125000 I-122.770504 J-7.673277
G02 X141.450220 Y961.601114 Z-0.125000 I122.347169 J12.753277
G03 X140.386020 Y967.232667 Z-0.125000 I-22.828804 J-1.397653
G03 X138.195850 Y972.475489 Z-0.125000 I-32.483987 J-10.491191
G03 X135.476632 Y975.086274 Z-0.125000 I-5.240537 J-2.736721
G03 X132.057510 Y975.544655 Z-0.125000 I-2.431718 J-5.157472
G02 X128.365934 Y975.006067 Z-0.125000 I-12.403660 J72.096182
G02 X124.649180 Y974.565697 Z-0.125000 I-154.675329 J1289.566066
G01 X117.320220 Y973.692572 Z-0.125000
G03 X112.590945 Y973.042975 Z-0.125000 I111.590198 J-829.952119
G02 X107.901060 Y972.396114 Z-0.125000 I-143.538857 J1023.363735
G02 X104.163941 Y971.945210 Z-0.125000 I-34.554669 J270.678984
G03 X100.466260 Y971.496531 Z-0.125000 I27.775616 J-244.367240
G03 X95.440451 Y970.845139 Z-0.125000 I88.811647 J-704.939595
G03 X90.412100 Y970.173614 Z-0.125000 I1098.126098 J-8241.881200
G03 X86.759630 Y969.687270 Z-0.125000 I89.117411 J-683.234425
G02 X83.109600 Y969.221114 Z-0.125000 I-30.868649 J227.180528
G01 X73.743350 Y968.030489 Z-0.125000
G03 X69.985086 Y967.544189 Z-0.125000 I78.381920 J-620.523128
G02 X66.229180 Y967.077989 Z-0.125000 I-30.246982 J228.319952
G02 X64.241449 Y966.896460 Z-0.125000 I-3.942673 J32.198536
G03 X62.419180 Y966.760489 Z-0.125000 I3.884104 J-64.333143
G01 X62.366270 Y966.760489 Z-0.125000
G00 Z5.000000

(End cutting path id: path486)


(Start cutting path id: path500)
(Change tool to Default tool)

G00 Z5.000000
G00 X64.985640 Y977.343822

G01 Z-0.125000 F100.0(Penetrate)
G02 X64.163441 Y978.216114 Z-0.125000 I68.845690 J65.715787 F400.000000
G03 X63.186470 Y979.248822 Z-0.125000 I-64.052506 J-59.616969
G02 X64.519205 Y978.524893 Z-0.125000 I-0.335848 J-2.207020
G02 X64.985640 Y977.343822 Z-0.125000 I-1.382120 J-1.228473
G01 X64.985640 Y977.343822 Z-0.125000
G00 Z5.000000

(End cutting path id: path500)


(Start cutting path id: path486)
(Change tool to Default tool)

G00 Z5.000000
G00 X64.985640 Y977.343822

G01 Z-0.125000 F100.0(Penetrate)
G03 X64.529045 Y978.515525 Z-0.125000 I-1.731696 J-0.000000 F400.000000
G03 X63.186470 Y979.248822 Z-0.125000 I-1.749728 J-1.607842
G03 X64.150034 Y978.220648 Z-0.125000 I68.561042 J63.287085
G03 X64.985640 Y977.343822 Z-0.125000 I541.406310 J515.118130
G01 X64.985640 Y977.343822 Z-0.125000
G00 Z5.000000

(End cutting path id: path486)


(Start cutting path id: path498)
(Change tool to Default tool)

G00 Z5.000000
G00 X139.360010 Y976.232572

G01 Z-0.125000 F100.0(Penetrate)
G02 X142.979020 Y973.368077 Z-0.125000 I-0.869784 J-4.817268 F400.000000
G02 X144.492930 Y965.067156 Z-0.125000 I-16.973826 J-7.384174
G03 X142.691985 Y970.767584 Z-0.125000 I-57.848738 J-15.141545
G03 X139.360010 Y976.232572 Z-0.125000 I-15.759891 J-5.860485
G01 X139.360010 Y976.232572 Z-0.125000
G00 Z5.000000

(End cutting path id: path498)


(Start cutting path id: path486)
(Change tool to Default tool)

G00 Z5.000000
G00 X139.360010 Y976.232572

G01 Z-0.125000 F100.0(Penetrate)
G02 X142.687643 Y970.739002 Z-0.125000 I-12.934908 J-11.589703 F400.000000
G02 X144.492930 Y965.067156 Z-0.125000 I-55.211800 J-20.696547
G03 X142.979063 Y973.388299 Z-0.125000 I-17.961306 J1.030576
G03 X139.360010 Y976.232572 Z-0.125000 I-4.492123 J-1.991199
G01 X139.360010 Y976.232572 Z-0.125000
G00 Z5.000000

(End cutting path id: path486)


(Start cutting path id: path496)
(Change tool to Default tool)

G00 Z5.000000
G00 X153.568140 Y918.024240

G01 Z-0.125000 F100.0(Penetrate)
G03 X151.080852 Y926.545947 Z-0.125000 I-26.902233 J-3.228291 F400.000000
G02 X148.011890 Y934.798823 Z-0.125000 I42.936011 J20.663493
G03 X151.461161 Y926.718104 Z-0.125000 I89.037374 J33.229257
G02 X153.568140 Y918.024240 Z-0.125000 I-19.151464 J-9.243651
G01 X153.568140 Y918.024240 Z-0.125000
G00 Z5.000000

(End cutting path id: path496)


(Start cutting path id: path486)
(Change tool to Default tool)

G00 Z5.000000
G00 X153.568140 Y918.024240

G01 Z-0.125000 F100.0(Penetrate)
G03 X151.461161 Y926.718104 Z-0.125000 I-21.258443 J-0.549787 F400.000000
G02 X148.011890 Y934.798823 Z-0.125000 I85.588103 J41.309977
G03 X151.070308 Y926.546984 Z-0.125000 I46.523184 J12.550412
G02 X153.568140 Y918.024240 Z-0.125000 I-24.942606 J-11.937540
G01 X153.568140 Y918.024240 Z-0.125000
G00 Z5.000000

(End cutting path id: path486)


(Start cutting path id: path492)
(Change tool to Default tool)

G00 Z5.000000
G00 X6.750849 Y921.410910

G01 Z-0.125000 F100.0(Penetrate)
G02 X13.172336 Y916.886187 Z-0.125000 I-990.249999 J-1412.179046 F400.000000
G03 X19.477308 Y912.441530 Z-0.125000 I1081.026403 J1526.793117
G02 X17.959064 Y913.030989 Z-0.125000 I0.847417 J4.432621
G02 X12.617985 Y916.539265 Z-0.125000 I56.979446 J92.566640
G02 X7.483054 Y920.375766 Z-0.125000 I59.104495 J84.462536
G02 X6.750849 Y921.410910 Z-0.125000 I1.417702 J1.779339
G01 X6.750849 Y921.410910 Z-0.125000
G00 Z5.000000

(End cutting path id: path492)


(Start cutting path id: path486)
(Change tool to Default tool)

G00 Z5.000000
G00 X6.750849 Y921.410910

G01 Z-0.125000 F100.0(Penetrate)
G03 X7.483054 Y920.375766 Z-0.125000 I2.149907 J0.744195 F400.000000
G03 X12.617985 Y916.539265 Z-0.125000 I64.239426 J80.626034
G03 X17.959064 Y913.030989 Z-0.125000 I62.320526 J89.058364
G03 X19.477308 Y912.441530 Z-0.125000 I2.365660 J3.843162
G02 X13.176901 Y916.873265 Z-0.125000 I2143.666005 J3054.251895
G02 X6.750849 Y921.410910 Z-0.125000 I2867.091874 J4067.093094
G01 X6.750849 Y921.410910 Z-0.125000
G00 Z5.000000

(End cutting path id: path486)


(Footer)
M5
G00 X0.0000 Y0.0000
M2
(Using default footer. To add your own footer create file "footer" in the output dir.)
(end)
%