(Header)
(Generated by gcodetools from Inkscape.)
(Using default header. To add your own header create file "header" in the output dir.)
M3
(Header end.)
G21 (All units in mm)
(Start cutting path id: path842-6)
(Change tool to Cylindrical cutter)
G00 Z5.000000
G00 X137.491354 Y37.021720
G01 Z-0.330000 F50.0(Penetrate)
G03 X141.164367 Y36.405028 Z-0.330000 I3.144102 J7.479687 F200.000000
G03 X144.439094 Y37.021720 Z-0.330000 I-0.900525 J13.784917
G02 X147.099392 Y37.739596 Z-0.330000 I17.511854 J-59.607080
G02 X148.556704 Y37.624870 Z-0.330000 I0.555531 J-2.256492
G02 X149.957531 Y36.041241 Z-0.330000 I-0.931342 J-2.235212
G02 X149.820984 Y33.890020 Z-0.330000 I-3.149780 J-0.880015
G02 X148.021439 Y31.387594 Z-0.330000 I-6.368543 J2.681492
G02 X144.601484 Y28.798100 Z-0.330000 I-19.090646 J21.659965
G02 X131.518983 Y23.336668 Z-0.330000 I-21.300024 J32.622957
G02 X114.165964 Y24.947270 Z-0.330000 I-6.119118 J28.359262
G02 X99.912822 Y39.807329 Z-0.330000 I10.005659 J23.862543
G02 X100.293684 Y58.166520 Z-0.330000 I23.436573 J8.697353
G02 X109.501271 Y74.075825 Z-0.330000 I66.695632 J-27.981297
G02 X125.667725 Y95.045223 Z-0.330000 I2234.503785 J-1705.984538
G03 X141.147821 Y116.344280 Z-0.330000 I-314.839018 J245.099099
G03 X156.026390 Y143.824400 Z-0.330000 I-130.553813 J88.453703
G03 X157.277249 Y154.547891 Z-0.330000 I-17.923733 J7.525442
G03 X153.683410 Y159.088550 Z-0.330000 I-5.910983 J-0.985868
G02 X151.889817 Y160.846850 Z-0.330000 I1.305363 J3.125512
G02 X151.862394 Y163.345340 Z-0.330000 I2.904159 J1.281271
G02 X154.695442 Y166.253292 Z-0.330000 I5.101410 J-2.135994
G02 X163.391694 Y168.675039 Z-0.330000 I12.305011 J-27.361509
G02 X172.538580 Y168.755587 Z-0.330000 I4.932259 J-40.706164
G02 X182.645870 Y166.175480 Z-0.330000 I-3.660949 J-35.428532
G02 X193.924172 Y155.311018 Z-0.330000 I-8.367767 J-19.972689
G02 X194.233170 Y138.581690 Z-0.330000 I-18.797272 J-8.714712
G02 X185.331998 Y122.624520 Z-0.330000 I-75.504057 J31.656212
G02 X165.931857 Y95.932539 Z-0.330000 I-1709.560203 J1222.138384
G03 X146.740993 Y69.266938 Z-0.330000 I1054.267946 J-778.980556
G03 X136.691034 Y51.056390 Z-0.330000 I79.744122 J-55.887283
G03 X135.251924 Y39.930189 Z-0.330000 I19.491351 J-8.177265
G03 X137.502954 Y37.021720 Z-0.330000 I3.673137 J0.517516
G01 X137.502954 Y37.021720 Z-0.330000
G01 X137.491354 Y37.021720 Z-0.330000
G00 Z5.000000
(End cutting path id: path842-6)
(Start cutting path id: path842-6)
(Change tool to Cylindrical cutter)
G00 Z5.000000
G00 X137.491354 Y37.021720
G01 Z-0.660000 F50.0(Penetrate)
G03 X141.164367 Y36.405028 Z-0.660000 I3.144102 J7.479687 F200.000000
G03 X144.439094 Y37.021720 Z-0.660000 I-0.900525 J13.784917
G02 X147.099392 Y37.739596 Z-0.660000 I17.511854 J-59.607080
G02 X148.556704 Y37.624870 Z-0.660000 I0.555531 J-2.256492
G02 X149.957531 Y36.041241 Z-0.660000 I-0.931342 J-2.235212
G02 X149.820984 Y33.890020 Z-0.660000 I-3.149780 J-0.880015
G02 X148.021439 Y31.387594 Z-0.660000 I-6.368543 J2.681492
G02 X144.601484 Y28.798100 Z-0.660000 I-19.090646 J21.659965
G02 X131.518983 Y23.336668 Z-0.660000 I-21.300024 J32.622957
G02 X114.165964 Y24.947270 Z-0.660000 I-6.119118 J28.359262
G02 X99.912822 Y39.807329 Z-0.660000 I10.005659 J23.862543
G02 X100.293684 Y58.166520 Z-0.660000 I23.436573 J8.697353
G02 X109.501271 Y74.075825 Z-0.660000 I66.695632 J-27.981297
G02 X125.667725 Y95.045223 Z-0.660000 I2234.503785 J-1705.984538
G03 X141.147821 Y116.344280 Z-0.660000 I-314.839018 J245.099099
G03 X156.026390 Y143.824400 Z-0.660000 I-130.553813 J88.453703
G03 X157.277249 Y154.547891 Z-0.660000 I-17.923733 J7.525442
G03 X153.683410 Y159.088550 Z-0.660000 I-5.910983 J-0.985868
G02 X151.889817 Y160.846850 Z-0.660000 I1.305363 J3.125512
G02 X151.862394 Y163.345340 Z-0.660000 I2.904159 J1.281271
G02 X154.695442 Y166.253292 Z-0.660000 I5.101410 J-2.135994
G02 X163.391694 Y168.675039 Z-0.660000 I12.305011 J-27.361509
G02 X172.538580 Y168.755587 Z-0.660000 I4.932259 J-40.706164
G02 X182.645870 Y166.175480 Z-0.660000 I-3.660949 J-35.428532
G02 X193.924172 Y155.311018 Z-0.660000 I-8.367767 J-19.972689
G02 X194.233170 Y138.581690 Z-0.660000 I-18.797272 J-8.714712
G02 X185.331998 Y122.624520 Z-0.660000 I-75.504057 J31.656212
G02 X165.931857 Y95.932539 Z-0.660000 I-1709.560203 J1222.138384
G03 X146.740993 Y69.266938 Z-0.660000 I1054.267946 J-778.980556
G03 X136.691034 Y51.056390 Z-0.660000 I79.744122 J-55.887283
G03 X135.251924 Y39.930189 Z-0.660000 I19.491351 J-8.177265
G03 X137.502954 Y37.021720 Z-0.660000 I3.673137 J0.517516
G01 X137.502954 Y37.021720 Z-0.660000
G01 X137.491354 Y37.021720 Z-0.660000
G00 Z5.000000
(End cutting path id: path842-6)
(Start cutting path id: path842-6)
(Change tool to Cylindrical cutter)
G00 Z5.000000
G00 X137.491354 Y37.021720
G01 Z-0.990000 F50.0(Penetrate)
G03 X141.164367 Y36.405028 Z-0.990000 I3.144102 J7.479687 F200.000000
G03 X144.439094 Y37.021720 Z-0.990000 I-0.900525 J13.784917
G02 X147.099392 Y37.739596 Z-0.990000 I17.511854 J-59.607080
G02 X148.556704 Y37.624870 Z-0.990000 I0.555531 J-2.256492
G02 X149.957531 Y36.041241 Z-0.990000 I-0.931342 J-2.235212
G02 X149.820984 Y33.890020 Z-0.990000 I-3.149780 J-0.880015
G02 X148.021439 Y31.387594 Z-0.990000 I-6.368543 J2.681492
G02 X144.601484 Y28.798100 Z-0.990000 I-19.090646 J21.659965
G02 X131.518983 Y23.336668 Z-0.990000 I-21.300024 J32.622957
G02 X114.165964 Y24.947270 Z-0.990000 I-6.119118 J28.359262
G02 X99.912822 Y39.807329 Z-0.990000 I10.005659 J23.862543
G02 X100.293684 Y58.166520 Z-0.990000 I23.436573 J8.697353
G02 X109.501271 Y74.075825 Z-0.990000 I66.695632 J-27.981297
G02 X125.667725 Y95.045223 Z-0.990000 I2234.503785 J-1705.984538
G03 X141.147821 Y116.344280 Z-0.990000 I-314.839018 J245.099099
G03 X156.026390 Y143.824400 Z-0.990000 I-130.553813 J88.453703
G03 X157.277249 Y154.547891 Z-0.990000 I-17.923733 J7.525442
G03 X153.683410 Y159.088550 Z-0.990000 I-5.910983 J-0.985868
G02 X151.889817 Y160.846850 Z-0.990000 I1.305363 J3.125512
G02 X151.862394 Y163.345340 Z-0.990000 I2.904159 J1.281271
G02 X154.695442 Y166.253292 Z-0.990000 I5.101410 J-2.135994
G02 X163.391694 Y168.675039 Z-0.990000 I12.305011 J-27.361509
G02 X172.538580 Y168.755587 Z-0.990000 I4.932259 J-40.706164
G02 X182.645870 Y166.175480 Z-0.990000 I-3.660949 J-35.428532
G02 X193.924172 Y155.311018 Z-0.990000 I-8.367767 J-19.972689
G02 X194.233170 Y138.581690 Z-0.990000 I-18.797272 J-8.714712
G02 X185.331998 Y122.624520 Z-0.990000 I-75.504057 J31.656212
G02 X165.931857 Y95.932539 Z-0.990000 I-1709.560203 J1222.138384
G03 X146.740993 Y69.266938 Z-0.990000 I1054.267946 J-778.980556
G03 X136.691034 Y51.056390 Z-0.990000 I79.744122 J-55.887283
G03 X135.251924 Y39.930189 Z-0.990000 I19.491351 J-8.177265
G03 X137.502954 Y37.021720 Z-0.990000 I3.673137 J0.517516
G01 X137.502954 Y37.021720 Z-0.990000
G01 X137.491354 Y37.021720 Z-0.990000
G00 Z5.000000
(End cutting path id: path842-6)
(Start cutting path id: path842-6)
(Change tool to Cylindrical cutter)
G00 Z5.000000
G00 X137.491354 Y37.021720
G01 Z-1.320000 F50.0(Penetrate)
G03 X141.164367 Y36.405028 Z-1.320000 I3.144102 J7.479687 F200.000000
G03 X144.439094 Y37.021720 Z-1.320000 I-0.900525 J13.784917
G02 X147.099392 Y37.739596 Z-1.320000 I17.511854 J-59.607080
G02 X148.556704 Y37.624870 Z-1.320000 I0.555531 J-2.256492
G02 X149.957531 Y36.041241 Z-1.320000 I-0.931342 J-2.235212
G02 X149.820984 Y33.890020 Z-1.320000 I-3.149780 J-0.880015
G02 X148.021439 Y31.387594 Z-1.320000 I-6.368543 J2.681492
G02 X144.601484 Y28.798100 Z-1.320000 I-19.090646 J21.659965
G02 X131.518983 Y23.336668 Z-1.320000 I-21.300024 J32.622957
G02 X114.165964 Y24.947270 Z-1.320000 I-6.119118 J28.359262
G02 X99.912822 Y39.807329 Z-1.320000 I10.005659 J23.862543
G02 X100.293684 Y58.166520 Z-1.320000 I23.436573 J8.697353
G02 X109.501271 Y74.075825 Z-1.320000 I66.695632 J-27.981297
G02 X125.667725 Y95.045223 Z-1.320000 I2234.503785 J-1705.984538
G03 X141.147821 Y116.344280 Z-1.320000 I-314.839018 J245.099099
G03 X156.026390 Y143.824400 Z-1.320000 I-130.553813 J88.453703
G03 X157.277249 Y154.547891 Z-1.320000 I-17.923733 J7.525442
G03 X153.683410 Y159.088550 Z-1.320000 I-5.910983 J-0.985868
G02 X151.889817 Y160.846850 Z-1.320000 I1.305363 J3.125512
G02 X151.862394 Y163.345340 Z-1.320000 I2.904159 J1.281271
G02 X154.695442 Y166.253292 Z-1.320000 I5.101410 J-2.135994
G02 X163.391694 Y168.675039 Z-1.320000 I12.305011 J-27.361509
G02 X172.538580 Y168.755587 Z-1.320000 I4.932259 J-40.706164
G02 X182.645870 Y166.175480 Z-1.320000 I-3.660949 J-35.428532
G02 X193.924172 Y155.311018 Z-1.320000 I-8.367767 J-19.972689
G02 X194.233170 Y138.581690 Z-1.320000 I-18.797272 J-8.714712
G02 X185.331998 Y122.624520 Z-1.320000 I-75.504057 J31.656212
G02 X165.931857 Y95.932539 Z-1.320000 I-1709.560203 J1222.138384
G03 X146.740993 Y69.266938 Z-1.320000 I1054.267946 J-778.980556
G03 X136.691034 Y51.056390 Z-1.320000 I79.744122 J-55.887283
G03 X135.251924 Y39.930189 Z-1.320000 I19.491351 J-8.177265
G03 X137.502954 Y37.021720 Z-1.320000 I3.673137 J0.517516
G01 X137.502954 Y37.021720 Z-1.320000
G01 X137.491354 Y37.021720 Z-1.320000
G00 Z5.000000
(End cutting path id: path842-6)
(Start cutting path id: path842-6)
(Change tool to Cylindrical cutter)
G00 Z5.000000
G00 X137.491354 Y37.021720
G01 Z-1.650000 F50.0(Penetrate)
G03 X141.164367 Y36.405028 Z-1.650000 I3.144102 J7.479687 F200.000000
G03 X144.439094 Y37.021720 Z-1.650000 I-0.900525 J13.784917
G02 X147.099392 Y37.739596 Z-1.650000 I17.511854 J-59.607080
G02 X148.556704 Y37.624870 Z-1.650000 I0.555531 J-2.256492
G02 X149.957531 Y36.041241 Z-1.650000 I-0.931342 J-2.235212
G02 X149.820984 Y33.890020 Z-1.650000 I-3.149780 J-0.880015
G02 X148.021439 Y31.387594 Z-1.650000 I-6.368543 J2.681492
G02 X144.601484 Y28.798100 Z-1.650000 I-19.090646 J21.659965
G02 X131.518983 Y23.336668 Z-1.650000 I-21.300024 J32.622957
G02 X114.165964 Y24.947270 Z-1.650000 I-6.119118 J28.359262
G02 X99.912822 Y39.807329 Z-1.650000 I10.005659 J23.862543
G02 X100.293684 Y58.166520 Z-1.650000 I23.436573 J8.697353
G02 X109.501271 Y74.075825 Z-1.650000 I66.695632 J-27.981297
G02 X125.667725 Y95.045223 Z-1.650000 I2234.503785 J-1705.984538
G03 X141.147821 Y116.344280 Z-1.650000 I-314.839018 J245.099099
G03 X156.026390 Y143.824400 Z-1.650000 I-130.553813 J88.453703
G03 X157.277249 Y154.547891 Z-1.650000 I-17.923733 J7.525442
G03 X153.683410 Y159.088550 Z-1.650000 I-5.910983 J-0.985868
G02 X151.889817 Y160.846850 Z-1.650000 I1.305363 J3.125512
G02 X151.862394 Y163.345340 Z-1.650000 I2.904159 J1.281271
G02 X154.695442 Y166.253292 Z-1.650000 I5.101410 J-2.135994
G02 X163.391694 Y168.675039 Z-1.650000 I12.305011 J-27.361509
G02 X172.538580 Y168.755587 Z-1.650000 I4.932259 J-40.706164
G02 X182.645870 Y166.175480 Z-1.650000 I-3.660949 J-35.428532
G02 X193.924172 Y155.311018 Z-1.650000 I-8.367767 J-19.972689
G02 X194.233170 Y138.581690 Z-1.650000 I-18.797272 J-8.714712
G02 X185.331998 Y122.624520 Z-1.650000 I-75.504057 J31.656212
G02 X165.931857 Y95.932539 Z-1.650000 I-1709.560203 J1222.138384
G03 X146.740993 Y69.266938 Z-1.650000 I1054.267946 J-778.980556
G03 X136.691034 Y51.056390 Z-1.650000 I79.744122 J-55.887283
G03 X135.251924 Y39.930189 Z-1.650000 I19.491351 J-8.177265
G03 X137.502954 Y37.021720 Z-1.650000 I3.673137 J0.517516
G01 X137.502954 Y37.021720 Z-1.650000
G01 X137.491354 Y37.021720 Z-1.650000
G00 Z5.000000
(End cutting path id: path842-6)
(Start cutting path id: path842-6)
(Change tool to Cylindrical cutter)
G00 Z5.000000
G00 X137.491354 Y37.021720
G01 Z-1.980000 F50.0(Penetrate)
G03 X141.164367 Y36.405028 Z-1.980000 I3.144102 J7.479687 F200.000000
G03 X144.439094 Y37.021720 Z-1.980000 I-0.900525 J13.784917
G02 X147.099392 Y37.739596 Z-1.980000 I17.511854 J-59.607080
G02 X148.556704 Y37.624870 Z-1.980000 I0.555531 J-2.256492
G02 X149.957531 Y36.041241 Z-1.980000 I-0.931342 J-2.235212
G02 X149.820984 Y33.890020 Z-1.980000 I-3.149780 J-0.880015
G02 X148.021439 Y31.387594 Z-1.980000 I-6.368543 J2.681492
G02 X144.601484 Y28.798100 Z-1.980000 I-19.090646 J21.659965
G02 X131.518983 Y23.336668 Z-1.980000 I-21.300024 J32.622957
G02 X114.165964 Y24.947270 Z-1.980000 I-6.119118 J28.359262
G02 X99.912822 Y39.807329 Z-1.980000 I10.005659 J23.862543
G02 X100.293684 Y58.166520 Z-1.980000 I23.436573 J8.697353
G02 X109.501271 Y74.075825 Z-1.980000 I66.695632 J-27.981297
G02 X125.667725 Y95.045223 Z-1.980000 I2234.503785 J-1705.984538
G03 X141.147821 Y116.344280 Z-1.980000 I-314.839018 J245.099099
G03 X156.026390 Y143.824400 Z-1.980000 I-130.553813 J88.453703
G03 X157.277249 Y154.547891 Z-1.980000 I-17.923733 J7.525442
G03 X153.683410 Y159.088550 Z-1.980000 I-5.910983 J-0.985868
G02 X151.889817 Y160.846850 Z-1.980000 I1.305363 J3.125512
G02 X151.862394 Y163.345340 Z-1.980000 I2.904159 J1.281271
G02 X154.695442 Y166.253292 Z-1.980000 I5.101410 J-2.135994
G02 X163.391694 Y168.675039 Z-1.980000 I12.305011 J-27.361509
G02 X172.538580 Y168.755587 Z-1.980000 I4.932259 J-40.706164
G02 X182.645870 Y166.175480 Z-1.980000 I-3.660949 J-35.428532
G02 X193.924172 Y155.311018 Z-1.980000 I-8.367767 J-19.972689
G02 X194.233170 Y138.581690 Z-1.980000 I-18.797272 J-8.714712
G02 X185.331998 Y122.624520 Z-1.980000 I-75.504057 J31.656212
G02 X165.931857 Y95.932539 Z-1.980000 I-1709.560203 J1222.138384
G03 X146.740993 Y69.266938 Z-1.980000 I1054.267946 J-778.980556
G03 X136.691034 Y51.056390 Z-1.980000 I79.744122 J-55.887283
G03 X135.251924 Y39.930189 Z-1.980000 I19.491351 J-8.177265
G03 X137.502954 Y37.021720 Z-1.980000 I3.673137 J0.517516
G01 X137.502954 Y37.021720 Z-1.980000
G01 X137.491354 Y37.021720 Z-1.980000
G00 Z5.000000
(End cutting path id: path842-6)
(Start cutting path id: path842-6)
(Change tool to Cylindrical cutter)
G00 Z5.000000
G00 X137.491354 Y37.021720
G01 Z-2.310000 F50.0(Penetrate)
G03 X141.164367 Y36.405028 Z-2.310000 I3.144102 J7.479687 F200.000000
G03 X144.439094 Y37.021720 Z-2.310000 I-0.900525 J13.784917
G02 X147.099392 Y37.739596 Z-2.310000 I17.511854 J-59.607080
G02 X148.556704 Y37.624870 Z-2.310000 I0.555531 J-2.256492
G02 X149.957531 Y36.041241 Z-2.310000 I-0.931342 J-2.235212
G02 X149.820984 Y33.890020 Z-2.310000 I-3.149780 J-0.880015
G02 X148.021439 Y31.387594 Z-2.310000 I-6.368543 J2.681492
G02 X144.601484 Y28.798100 Z-2.310000 I-19.090646 J21.659965
G02 X131.518983 Y23.336668 Z-2.310000 I-21.300024 J32.622957
G02 X114.165964 Y24.947270 Z-2.310000 I-6.119118 J28.359262
G02 X99.912822 Y39.807329 Z-2.310000 I10.005659 J23.862543
G02 X100.293684 Y58.166520 Z-2.310000 I23.436573 J8.697353
G02 X109.501271 Y74.075825 Z-2.310000 I66.695632 J-27.981297
G02 X125.667725 Y95.045223 Z-2.310000 I2234.503785 J-1705.984538
G03 X141.147821 Y116.344280 Z-2.310000 I-314.839018 J245.099099
G03 X156.026390 Y143.824400 Z-2.310000 I-130.553813 J88.453703
G03 X157.277249 Y154.547891 Z-2.310000 I-17.923733 J7.525442
G03 X153.683410 Y159.088550 Z-2.310000 I-5.910983 J-0.985868
G02 X151.889817 Y160.846850 Z-2.310000 I1.305363 J3.125512
G02 X151.862394 Y163.345340 Z-2.310000 I2.904159 J1.281271
G02 X154.695442 Y166.253292 Z-2.310000 I5.101410 J-2.135994
G02 X163.391694 Y168.675039 Z-2.310000 I12.305011 J-27.361509
G02 X172.538580 Y168.755587 Z-2.310000 I4.932259 J-40.706164
G02 X182.645870 Y166.175480 Z-2.310000 I-3.660949 J-35.428532
G02 X193.924172 Y155.311018 Z-2.310000 I-8.367767 J-19.972689
G02 X194.233170 Y138.581690 Z-2.310000 I-18.797272 J-8.714712
G02 X185.331998 Y122.624520 Z-2.310000 I-75.504057 J31.656212
G02 X165.931857 Y95.932539 Z-2.310000 I-1709.560203 J1222.138384
G03 X146.740993 Y69.266938 Z-2.310000 I1054.267946 J-778.980556
G03 X136.691034 Y51.056390 Z-2.310000 I79.744122 J-55.887283
G03 X135.251924 Y39.930189 Z-2.310000 I19.491351 J-8.177265
G03 X137.502954 Y37.021720 Z-2.310000 I3.673137 J0.517516
G01 X137.502954 Y37.021720 Z-2.310000
G01 X137.491354 Y37.021720 Z-2.310000
G00 Z5.000000
(End cutting path id: path842-6)
(Start cutting path id: path842-6)
(Change tool to Cylindrical cutter)
G00 Z5.000000
G00 X137.491354 Y37.021720
G01 Z-2.640000 F50.0(Penetrate)
G03 X141.164367 Y36.405028 Z-2.640000 I3.144102 J7.479687 F200.000000
G03 X144.439094 Y37.021720 Z-2.640000 I-0.900525 J13.784917
G02 X147.099392 Y37.739596 Z-2.640000 I17.511854 J-59.607080
G02 X148.556704 Y37.624870 Z-2.640000 I0.555531 J-2.256492
G02 X149.957531 Y36.041241 Z-2.640000 I-0.931342 J-2.235212
G02 X149.820984 Y33.890020 Z-2.640000 I-3.149780 J-0.880015
G02 X148.021439 Y31.387594 Z-2.640000 I-6.368543 J2.681492
G02 X144.601484 Y28.798100 Z-2.640000 I-19.090646 J21.659965
G02 X131.518983 Y23.336668 Z-2.640000 I-21.300024 J32.622957
G02 X114.165964 Y24.947270 Z-2.640000 I-6.119118 J28.359262
G02 X99.912822 Y39.807329 Z-2.640000 I10.005659 J23.862543
G02 X100.293684 Y58.166520 Z-2.640000 I23.436573 J8.697353
G02 X109.501271 Y74.075825 Z-2.640000 I66.695632 J-27.981297
G02 X125.667725 Y95.045223 Z-2.640000 I2234.503785 J-1705.984538
G03 X141.147821 Y116.344280 Z-2.640000 I-314.839018 J245.099099
G03 X156.026390 Y143.824400 Z-2.640000 I-130.553813 J88.453703
G03 X157.277249 Y154.547891 Z-2.640000 I-17.923733 J7.525442
G03 X153.683410 Y159.088550 Z-2.640000 I-5.910983 J-0.985868
G02 X151.889817 Y160.846850 Z-2.640000 I1.305363 J3.125512
G02 X151.862394 Y163.345340 Z-2.640000 I2.904159 J1.281271
G02 X154.695442 Y166.253292 Z-2.640000 I5.101410 J-2.135994
G02 X163.391694 Y168.675039 Z-2.640000 I12.305011 J-27.361509
G02 X172.538580 Y168.755587 Z-2.640000 I4.932259 J-40.706164
G02 X182.645870 Y166.175480 Z-2.640000 I-3.660949 J-35.428532
G02 X193.924172 Y155.311018 Z-2.640000 I-8.367767 J-19.972689
G02 X194.233170 Y138.581690 Z-2.640000 I-18.797272 J-8.714712
G02 X185.331998 Y122.624520 Z-2.640000 I-75.504057 J31.656212
G02 X165.931857 Y95.932539 Z-2.640000 I-1709.560203 J1222.138384
G03 X146.740993 Y69.266938 Z-2.640000 I1054.267946 J-778.980556
G03 X136.691034 Y51.056390 Z-2.640000 I79.744122 J-55.887283
G03 X135.251924 Y39.930189 Z-2.640000 I19.491351 J-8.177265
G03 X137.502954 Y37.021720 Z-2.640000 I3.673137 J0.517516
G01 X137.502954 Y37.021720 Z-2.640000
G01 X137.491354 Y37.021720 Z-2.640000
G00 Z5.000000
(End cutting path id: path842-6)
(Start cutting path id: path842-6)
(Change tool to Cylindrical cutter)
G00 Z5.000000
G00 X137.491354 Y37.021720
G01 Z-2.970000 F50.0(Penetrate)
G03 X141.164367 Y36.405028 Z-2.970000 I3.144102 J7.479687 F200.000000
G03 X144.439094 Y37.021720 Z-2.970000 I-0.900525 J13.784917
G02 X147.099392 Y37.739596 Z-2.970000 I17.511854 J-59.607080
G02 X148.556704 Y37.624870 Z-2.970000 I0.555531 J-2.256492
G02 X149.957531 Y36.041241 Z-2.970000 I-0.931342 J-2.235212
G02 X149.820984 Y33.890020 Z-2.970000 I-3.149780 J-0.880015
G02 X148.021439 Y31.387594 Z-2.970000 I-6.368543 J2.681492
G02 X144.601484 Y28.798100 Z-2.970000 I-19.090646 J21.659965
G02 X131.518983 Y23.336668 Z-2.970000 I-21.300024 J32.622957
G02 X114.165964 Y24.947270 Z-2.970000 I-6.119118 J28.359262
G02 X99.912822 Y39.807329 Z-2.970000 I10.005659 J23.862543
G02 X100.293684 Y58.166520 Z-2.970000 I23.436573 J8.697353
G02 X109.501271 Y74.075825 Z-2.970000 I66.695632 J-27.981297
G02 X125.667725 Y95.045223 Z-2.970000 I2234.503785 J-1705.984538
G03 X141.147821 Y116.344280 Z-2.970000 I-314.839018 J245.099099
G03 X156.026390 Y143.824400 Z-2.970000 I-130.553813 J88.453703
G03 X157.277249 Y154.547891 Z-2.970000 I-17.923733 J7.525442
G03 X153.683410 Y159.088550 Z-2.970000 I-5.910983 J-0.985868
G02 X151.889817 Y160.846850 Z-2.970000 I1.305363 J3.125512
G02 X151.862394 Y163.345340 Z-2.970000 I2.904159 J1.281271
G02 X154.695442 Y166.253292 Z-2.970000 I5.101410 J-2.135994
G02 X163.391694 Y168.675039 Z-2.970000 I12.305011 J-27.361509
G02 X172.538580 Y168.755587 Z-2.970000 I4.932259 J-40.706164
G02 X182.645870 Y166.175480 Z-2.970000 I-3.660949 J-35.428532
G02 X193.924172 Y155.311018 Z-2.970000 I-8.367767 J-19.972689
G02 X194.233170 Y138.581690 Z-2.970000 I-18.797272 J-8.714712
G02 X185.331998 Y122.624520 Z-2.970000 I-75.504057 J31.656212
G02 X165.931857 Y95.932539 Z-2.970000 I-1709.560203 J1222.138384
G03 X146.740993 Y69.266938 Z-2.970000 I1054.267946 J-778.980556
G03 X136.691034 Y51.056390 Z-2.970000 I79.744122 J-55.887283
G03 X135.251924 Y39.930189 Z-2.970000 I19.491351 J-8.177265
G03 X137.502954 Y37.021720 Z-2.970000 I3.673137 J0.517516
G01 X137.502954 Y37.021720 Z-2.970000
G01 X137.491354 Y37.021720 Z-2.970000
G00 Z5.000000
(End cutting path id: path842-6)
(Start cutting path id: path842-6)
(Change tool to Cylindrical cutter)
G00 Z5.000000
G00 X137.491354 Y37.021720
G01 Z-3.300000 F50.0(Penetrate)
G03 X141.164367 Y36.405028 Z-3.300000 I3.144102 J7.479687 F200.000000
G03 X144.439094 Y37.021720 Z-3.300000 I-0.900525 J13.784917
G02 X147.099392 Y37.739596 Z-3.300000 I17.511854 J-59.607080
G02 X148.556704 Y37.624870 Z-3.300000 I0.555531 J-2.256492
G02 X149.957531 Y36.041241 Z-3.300000 I-0.931342 J-2.235212
G02 X149.820984 Y33.890020 Z-3.300000 I-3.149780 J-0.880015
G02 X148.021439 Y31.387594 Z-3.300000 I-6.368543 J2.681492
G02 X144.601484 Y28.798100 Z-3.300000 I-19.090646 J21.659965
G02 X131.518983 Y23.336668 Z-3.300000 I-21.300024 J32.622957
G02 X114.165964 Y24.947270 Z-3.300000 I-6.119118 J28.359262
G02 X99.912822 Y39.807329 Z-3.300000 I10.005659 J23.862543
G02 X100.293684 Y58.166520 Z-3.300000 I23.436573 J8.697353
G02 X109.501271 Y74.075825 Z-3.300000 I66.695632 J-27.981297
G02 X125.667725 Y95.045223 Z-3.300000 I2234.503785 J-1705.984538
G03 X141.147821 Y116.344280 Z-3.300000 I-314.839018 J245.099099
G03 X156.026390 Y143.824400 Z-3.300000 I-130.553813 J88.453703
G03 X157.277249 Y154.547891 Z-3.300000 I-17.923733 J7.525442
G03 X153.683410 Y159.088550 Z-3.300000 I-5.910983 J-0.985868
G02 X151.889817 Y160.846850 Z-3.300000 I1.305363 J3.125512
G02 X151.862394 Y163.345340 Z-3.300000 I2.904159 J1.281271
G02 X154.695442 Y166.253292 Z-3.300000 I5.101410 J-2.135994
G02 X163.391694 Y168.675039 Z-3.300000 I12.305011 J-27.361509
G02 X172.538580 Y168.755587 Z-3.300000 I4.932259 J-40.706164
G02 X182.645870 Y166.175480 Z-3.300000 I-3.660949 J-35.428532
G02 X193.924172 Y155.311018 Z-3.300000 I-8.367767 J-19.972689
G02 X194.233170 Y138.581690 Z-3.300000 I-18.797272 J-8.714712
G02 X185.331998 Y122.624520 Z-3.300000 I-75.504057 J31.656212
G02 X165.931857 Y95.932539 Z-3.300000 I-1709.560203 J1222.138384
G03 X146.740993 Y69.266938 Z-3.300000 I1054.267946 J-778.980556
G03 X136.691034 Y51.056390 Z-3.300000 I79.744122 J-55.887283
G03 X135.251924 Y39.930189 Z-3.300000 I19.491351 J-8.177265
G03 X137.502954 Y37.021720 Z-3.300000 I3.673137 J0.517516
G01 X137.502954 Y37.021720 Z-3.300000
G01 X137.491354 Y37.021720 Z-3.300000
G00 Z5.000000
(End cutting path id: path842-6)
(Start cutting path id: path842-6)
(Change tool to Cylindrical cutter)
G00 Z5.000000
G00 X137.491354 Y37.021720
G01 Z-3.630000 F50.0(Penetrate)
G03 X141.164367 Y36.405028 Z-3.630000 I3.144102 J7.479687 F200.000000
G03 X144.439094 Y37.021720 Z-3.630000 I-0.900525 J13.784917
G02 X147.099392 Y37.739596 Z-3.630000 I17.511854 J-59.607080
G02 X148.556704 Y37.624870 Z-3.630000 I0.555531 J-2.256492
G02 X149.957531 Y36.041241 Z-3.630000 I-0.931342 J-2.235212
G02 X149.820984 Y33.890020 Z-3.630000 I-3.149780 J-0.880015
G02 X148.021439 Y31.387594 Z-3.630000 I-6.368543 J2.681492
G02 X144.601484 Y28.798100 Z-3.630000 I-19.090646 J21.659965
G02 X131.518983 Y23.336668 Z-3.630000 I-21.300024 J32.622957
G02 X114.165964 Y24.947270 Z-3.630000 I-6.119118 J28.359262
G02 X99.912822 Y39.807329 Z-3.630000 I10.005659 J23.862543
G02 X100.293684 Y58.166520 Z-3.630000 I23.436573 J8.697353
G02 X109.501271 Y74.075825 Z-3.630000 I66.695632 J-27.981297
G02 X125.667725 Y95.045223 Z-3.630000 I2234.503785 J-1705.984538
G03 X141.147821 Y116.344280 Z-3.630000 I-314.839018 J245.099099
G03 X156.026390 Y143.824400 Z-3.630000 I-130.553813 J88.453703
G03 X157.277249 Y154.547891 Z-3.630000 I-17.923733 J7.525442
G03 X153.683410 Y159.088550 Z-3.630000 I-5.910983 J-0.985868
G02 X151.889817 Y160.846850 Z-3.630000 I1.305363 J3.125512
G02 X151.862394 Y163.345340 Z-3.630000 I2.904159 J1.281271
G02 X154.695442 Y166.253292 Z-3.630000 I5.101410 J-2.135994
G02 X163.391694 Y168.675039 Z-3.630000 I12.305011 J-27.361509
G02 X172.538580 Y168.755587 Z-3.630000 I4.932259 J-40.706164
G02 X182.645870 Y166.175480 Z-3.630000 I-3.660949 J-35.428532
G02 X193.924172 Y155.311018 Z-3.630000 I-8.367767 J-19.972689
G02 X194.233170 Y138.581690 Z-3.630000 I-18.797272 J-8.714712
G02 X185.331998 Y122.624520 Z-3.630000 I-75.504057 J31.656212
G02 X165.931857 Y95.932539 Z-3.630000 I-1709.560203 J1222.138384
G03 X146.740993 Y69.266938 Z-3.630000 I1054.267946 J-778.980556
G03 X136.691034 Y51.056390 Z-3.630000 I79.744122 J-55.887283
G03 X135.251924 Y39.930189 Z-3.630000 I19.491351 J-8.177265
G03 X137.502954 Y37.021720 Z-3.630000 I3.673137 J0.517516
G01 X137.502954 Y37.021720 Z-3.630000
G01 X137.491354 Y37.021720 Z-3.630000
G00 Z5.000000
(End cutting path id: path842-6)
(Start cutting path id: path842-6)
(Change tool to Cylindrical cutter)
G00 Z5.000000
G00 X137.491354 Y37.021720
G01 Z-3.960000 F50.0(Penetrate)
G03 X141.164367 Y36.405028 Z-3.960000 I3.144102 J7.479687 F200.000000
G03 X144.439094 Y37.021720 Z-3.960000 I-0.900525 J13.784917
G02 X147.099392 Y37.739596 Z-3.960000 I17.511854 J-59.607080
G02 X148.556704 Y37.624870 Z-3.960000 I0.555531 J-2.256492
G02 X149.957531 Y36.041241 Z-3.960000 I-0.931342 J-2.235212
G02 X149.820984 Y33.890020 Z-3.960000 I-3.149780 J-0.880015
G02 X148.021439 Y31.387594 Z-3.960000 I-6.368543 J2.681492
G02 X144.601484 Y28.798100 Z-3.960000 I-19.090646 J21.659965
G02 X131.518983 Y23.336668 Z-3.960000 I-21.300024 J32.622957
G02 X114.165964 Y24.947270 Z-3.960000 I-6.119118 J28.359262
G02 X99.912822 Y39.807329 Z-3.960000 I10.005659 J23.862543
G02 X100.293684 Y58.166520 Z-3.960000 I23.436573 J8.697353
G02 X109.501271 Y74.075825 Z-3.960000 I66.695632 J-27.981297
G02 X125.667725 Y95.045223 Z-3.960000 I2234.503785 J-1705.984538
G03 X141.147821 Y116.344280 Z-3.960000 I-314.839018 J245.099099
G03 X156.026390 Y143.824400 Z-3.960000 I-130.553813 J88.453703
G03 X157.277249 Y154.547891 Z-3.960000 I-17.923733 J7.525442
G03 X153.683410 Y159.088550 Z-3.960000 I-5.910983 J-0.985868
G02 X151.889817 Y160.846850 Z-3.960000 I1.305363 J3.125512
G02 X151.862394 Y163.345340 Z-3.960000 I2.904159 J1.281271
G02 X154.695442 Y166.253292 Z-3.960000 I5.101410 J-2.135994
G02 X163.391694 Y168.675039 Z-3.960000 I12.305011 J-27.361509
G02 X172.538580 Y168.755587 Z-3.960000 I4.932259 J-40.706164
G02 X182.645870 Y166.175480 Z-3.960000 I-3.660949 J-35.428532
G02 X193.924172 Y155.311018 Z-3.960000 I-8.367767 J-19.972689
G02 X194.233170 Y138.581690 Z-3.960000 I-18.797272 J-8.714712
G02 X185.331998 Y122.624520 Z-3.960000 I-75.504057 J31.656212
G02 X165.931857 Y95.932539 Z-3.960000 I-1709.560203 J1222.138384
G03 X146.740993 Y69.266938 Z-3.960000 I1054.267946 J-778.980556
G03 X136.691034 Y51.056390 Z-3.960000 I79.744122 J-55.887283
G03 X135.251924 Y39.930189 Z-3.960000 I19.491351 J-8.177265
G03 X137.502954 Y37.021720 Z-3.960000 I3.673137 J0.517516
G01 X137.502954 Y37.021720 Z-3.960000
G01 X137.491354 Y37.021720 Z-3.960000
G00 Z5.000000
(End cutting path id: path842-6)
(Start cutting path id: path842-6)
(Change tool to Cylindrical cutter)
G00 Z5.000000
G00 X137.491354 Y37.021720
G01 Z-4.290000 F50.0(Penetrate)
G03 X141.164367 Y36.405028 Z-4.290000 I3.144102 J7.479687 F200.000000
G03 X144.439094 Y37.021720 Z-4.290000 I-0.900525 J13.784917
G02 X147.099392 Y37.739596 Z-4.290000 I17.511854 J-59.607080
G02 X148.556704 Y37.624870 Z-4.290000 I0.555531 J-2.256492
G02 X149.957531 Y36.041241 Z-4.290000 I-0.931342 J-2.235212
G02 X149.820984 Y33.890020 Z-4.290000 I-3.149780 J-0.880015
G02 X148.021439 Y31.387594 Z-4.290000 I-6.368543 J2.681492
G02 X144.601484 Y28.798100 Z-4.290000 I-19.090646 J21.659965
G02 X131.518983 Y23.336668 Z-4.290000 I-21.300024 J32.622957
G02 X114.165964 Y24.947270 Z-4.290000 I-6.119118 J28.359262
G02 X99.912822 Y39.807329 Z-4.290000 I10.005659 J23.862543
G02 X100.293684 Y58.166520 Z-4.290000 I23.436573 J8.697353
G02 X109.501271 Y74.075825 Z-4.290000 I66.695632 J-27.981297
G02 X125.667725 Y95.045223 Z-4.290000 I2234.503785 J-1705.984538
G03 X141.147821 Y116.344280 Z-4.290000 I-314.839018 J245.099099
G03 X156.026390 Y143.824400 Z-4.290000 I-130.553813 J88.453703
G03 X157.277249 Y154.547891 Z-4.290000 I-17.923733 J7.525442
G03 X153.683410 Y159.088550 Z-4.290000 I-5.910983 J-0.985868
G02 X151.889817 Y160.846850 Z-4.290000 I1.305363 J3.125512
G02 X151.862394 Y163.345340 Z-4.290000 I2.904159 J1.281271
G02 X154.695442 Y166.253292 Z-4.290000 I5.101410 J-2.135994
G02 X163.391694 Y168.675039 Z-4.290000 I12.305011 J-27.361509
G02 X172.538580 Y168.755587 Z-4.290000 I4.932259 J-40.706164
G02 X182.645870 Y166.175480 Z-4.290000 I-3.660949 J-35.428532
G02 X193.924172 Y155.311018 Z-4.290000 I-8.367767 J-19.972689
G02 X194.233170 Y138.581690 Z-4.290000 I-18.797272 J-8.714712
G02 X185.331998 Y122.624520 Z-4.290000 I-75.504057 J31.656212
G02 X165.931857 Y95.932539 Z-4.290000 I-1709.560203 J1222.138384
G03 X146.740993 Y69.266938 Z-4.290000 I1054.267946 J-778.980556
G03 X136.691034 Y51.056390 Z-4.290000 I79.744122 J-55.887283
G03 X135.251924 Y39.930189 Z-4.290000 I19.491351 J-8.177265
G03 X137.502954 Y37.021720 Z-4.290000 I3.673137 J0.517516
G01 X137.502954 Y37.021720 Z-4.290000
G01 X137.491354 Y37.021720 Z-4.290000
G00 Z5.000000
(End cutting path id: path842-6)
(Start cutting path id: path842-6)
(Change tool to Cylindrical cutter)
G00 Z5.000000
G00 X137.491354 Y37.021720
G01 Z-4.620000 F50.0(Penetrate)
G03 X141.164367 Y36.405028 Z-4.620000 I3.144102 J7.479687 F200.000000
G03 X144.439094 Y37.021720 Z-4.620000 I-0.900525 J13.784917
G02 X147.099392 Y37.739596 Z-4.620000 I17.511854 J-59.607080
G02 X148.556704 Y37.624870 Z-4.620000 I0.555531 J-2.256492
G02 X149.957531 Y36.041241 Z-4.620000 I-0.931342 J-2.235212
G02 X149.820984 Y33.890020 Z-4.620000 I-3.149780 J-0.880015
G02 X148.021439 Y31.387594 Z-4.620000 I-6.368543 J2.681492
G02 X144.601484 Y28.798100 Z-4.620000 I-19.090646 J21.659965
G02 X131.518983 Y23.336668 Z-4.620000 I-21.300024 J32.622957
G02 X114.165964 Y24.947270 Z-4.620000 I-6.119118 J28.359262
G02 X99.912822 Y39.807329 Z-4.620000 I10.005659 J23.862543
G02 X100.293684 Y58.166520 Z-4.620000 I23.436573 J8.697353
G02 X109.501271 Y74.075825 Z-4.620000 I66.695632 J-27.981297
G02 X125.667725 Y95.045223 Z-4.620000 I2234.503785 J-1705.984538
G03 X141.147821 Y116.344280 Z-4.620000 I-314.839018 J245.099099
G03 X156.026390 Y143.824400 Z-4.620000 I-130.553813 J88.453703
G03 X157.277249 Y154.547891 Z-4.620000 I-17.923733 J7.525442
G03 X153.683410 Y159.088550 Z-4.620000 I-5.910983 J-0.985868
G02 X151.889817 Y160.846850 Z-4.620000 I1.305363 J3.125512
G02 X151.862394 Y163.345340 Z-4.620000 I2.904159 J1.281271
G02 X154.695442 Y166.253292 Z-4.620000 I5.101410 J-2.135994
G02 X163.391694 Y168.675039 Z-4.620000 I12.305011 J-27.361509
G02 X172.538580 Y168.755587 Z-4.620000 I4.932259 J-40.706164
G02 X182.645870 Y166.175480 Z-4.620000 I-3.660949 J-35.428532
G02 X193.924172 Y155.311018 Z-4.620000 I-8.367767 J-19.972689
G02 X194.233170 Y138.581690 Z-4.620000 I-18.797272 J-8.714712
G02 X185.331998 Y122.624520 Z-4.620000 I-75.504057 J31.656212
G02 X165.931857 Y95.932539 Z-4.620000 I-1709.560203 J1222.138384
G03 X146.740993 Y69.266938 Z-4.620000 I1054.267946 J-778.980556
G03 X136.691034 Y51.056390 Z-4.620000 I79.744122 J-55.887283
G03 X135.251924 Y39.930189 Z-4.620000 I19.491351 J-8.177265
G03 X137.502954 Y37.021720 Z-4.620000 I3.673137 J0.517516
G01 X137.502954 Y37.021720 Z-4.620000
G01 X137.491354 Y37.021720 Z-4.620000
G00 Z5.000000
(End cutting path id: path842-6)
(Start cutting path id: path842-6)
(Change tool to Cylindrical cutter)
G00 Z5.000000
G00 X137.491354 Y37.021720
G01 Z-4.950000 F50.0(Penetrate)
G03 X141.164367 Y36.405028 Z-4.950000 I3.144102 J7.479687 F200.000000
G03 X144.439094 Y37.021720 Z-4.950000 I-0.900525 J13.784917
G02 X147.099392 Y37.739596 Z-4.950000 I17.511854 J-59.607080
G02 X148.556704 Y37.624870 Z-4.950000 I0.555531 J-2.256492
G02 X149.957531 Y36.041241 Z-4.950000 I-0.931342 J-2.235212
G02 X149.820984 Y33.890020 Z-4.950000 I-3.149780 J-0.880015
G02 X148.021439 Y31.387594 Z-4.950000 I-6.368543 J2.681492
G02 X144.601484 Y28.798100 Z-4.950000 I-19.090646 J21.659965
G02 X131.518983 Y23.336668 Z-4.950000 I-21.300024 J32.622957
G02 X114.165964 Y24.947270 Z-4.950000 I-6.119118 J28.359262
G02 X99.912822 Y39.807329 Z-4.950000 I10.005659 J23.862543
G02 X100.293684 Y58.166520 Z-4.950000 I23.436573 J8.697353
G02 X109.501271 Y74.075825 Z-4.950000 I66.695632 J-27.981297
G02 X125.667725 Y95.045223 Z-4.950000 I2234.503785 J-1705.984538
G03 X141.147821 Y116.344280 Z-4.950000 I-314.839018 J245.099099
G03 X156.026390 Y143.824400 Z-4.950000 I-130.553813 J88.453703
G03 X157.277249 Y154.547891 Z-4.950000 I-17.923733 J7.525442
G03 X153.683410 Y159.088550 Z-4.950000 I-5.910983 J-0.985868
G02 X151.889817 Y160.846850 Z-4.950000 I1.305363 J3.125512
G02 X151.862394 Y163.345340 Z-4.950000 I2.904159 J1.281271
G02 X154.695442 Y166.253292 Z-4.950000 I5.101410 J-2.135994
G02 X163.391694 Y168.675039 Z-4.950000 I12.305011 J-27.361509
G02 X172.538580 Y168.755587 Z-4.950000 I4.932259 J-40.706164
G02 X182.645870 Y166.175480 Z-4.950000 I-3.660949 J-35.428532
G02 X193.924172 Y155.311018 Z-4.950000 I-8.367767 J-19.972689
G02 X194.233170 Y138.581690 Z-4.950000 I-18.797272 J-8.714712
G02 X185.331998 Y122.624520 Z-4.950000 I-75.504057 J31.656212
G02 X165.931857 Y95.932539 Z-4.950000 I-1709.560203 J1222.138384
G03 X146.740993 Y69.266938 Z-4.950000 I1054.267946 J-778.980556
G03 X136.691034 Y51.056390 Z-4.950000 I79.744122 J-55.887283
G03 X135.251924 Y39.930189 Z-4.950000 I19.491351 J-8.177265
G03 X137.502954 Y37.021720 Z-4.950000 I3.673137 J0.517516
G01 X137.502954 Y37.021720 Z-4.950000
G01 X137.491354 Y37.021720 Z-4.950000
G00 Z5.000000
(End cutting path id: path842-6)
(Start cutting path id: path842-6)
(Change tool to Cylindrical cutter)
G00 Z5.000000
G00 X137.491354 Y37.021720
G01 Z-5.280000 F50.0(Penetrate)
G03 X141.164367 Y36.405028 Z-5.280000 I3.144102 J7.479687 F200.000000
G03 X144.439094 Y37.021720 Z-5.280000 I-0.900525 J13.784917
G02 X147.099392 Y37.739596 Z-5.280000 I17.511854 J-59.607080
G02 X148.556704 Y37.624870 Z-5.280000 I0.555531 J-2.256492
G02 X149.957531 Y36.041241 Z-5.280000 I-0.931342 J-2.235212
G02 X149.820984 Y33.890020 Z-5.280000 I-3.149780 J-0.880015
G02 X148.021439 Y31.387594 Z-5.280000 I-6.368543 J2.681492
G02 X144.601484 Y28.798100 Z-5.280000 I-19.090646 J21.659965
G02 X131.518983 Y23.336668 Z-5.280000 I-21.300024 J32.622957
G02 X114.165964 Y24.947270 Z-5.280000 I-6.119118 J28.359262
G02 X99.912822 Y39.807329 Z-5.280000 I10.005659 J23.862543
G02 X100.293684 Y58.166520 Z-5.280000 I23.436573 J8.697353
G02 X109.501271 Y74.075825 Z-5.280000 I66.695632 J-27.981297
G02 X125.667725 Y95.045223 Z-5.280000 I2234.503785 J-1705.984538
G03 X141.147821 Y116.344280 Z-5.280000 I-314.839018 J245.099099
G03 X156.026390 Y143.824400 Z-5.280000 I-130.553813 J88.453703
G03 X157.277249 Y154.547891 Z-5.280000 I-17.923733 J7.525442
G03 X153.683410 Y159.088550 Z-5.280000 I-5.910983 J-0.985868
G02 X151.889817 Y160.846850 Z-5.280000 I1.305363 J3.125512
G02 X151.862394 Y163.345340 Z-5.280000 I2.904159 J1.281271
G02 X154.695442 Y166.253292 Z-5.280000 I5.101410 J-2.135994
G02 X163.391694 Y168.675039 Z-5.280000 I12.305011 J-27.361509
G02 X172.538580 Y168.755587 Z-5.280000 I4.932259 J-40.706164
G02 X182.645870 Y166.175480 Z-5.280000 I-3.660949 J-35.428532
G02 X193.924172 Y155.311018 Z-5.280000 I-8.367767 J-19.972689
G02 X194.233170 Y138.581690 Z-5.280000 I-18.797272 J-8.714712
G02 X185.331998 Y122.624520 Z-5.280000 I-75.504057 J31.656212
G02 X165.931857 Y95.932539 Z-5.280000 I-1709.560203 J1222.138384
G03 X146.740993 Y69.266938 Z-5.280000 I1054.267946 J-778.980556
G03 X136.691034 Y51.056390 Z-5.280000 I79.744122 J-55.887283
G03 X135.251924 Y39.930189 Z-5.280000 I19.491351 J-8.177265
G03 X137.502954 Y37.021720 Z-5.280000 I3.673137 J0.517516
G01 X137.502954 Y37.021720 Z-5.280000
G01 X137.491354 Y37.021720 Z-5.280000
G00 Z5.000000
(End cutting path id: path842-6)
(Start cutting path id: path842-6)
(Change tool to Cylindrical cutter)
G00 Z5.000000
G00 X137.491354 Y37.021720
G01 Z-5.610000 F50.0(Penetrate)
G03 X141.164367 Y36.405028 Z-5.610000 I3.144102 J7.479687 F200.000000
G03 X144.439094 Y37.021720 Z-5.610000 I-0.900525 J13.784917
G02 X147.099392 Y37.739596 Z-5.610000 I17.511854 J-59.607080
G02 X148.556704 Y37.624870 Z-5.610000 I0.555531 J-2.256492
G02 X149.957531 Y36.041241 Z-5.610000 I-0.931342 J-2.235212
G02 X149.820984 Y33.890020 Z-5.610000 I-3.149780 J-0.880015
G02 X148.021439 Y31.387594 Z-5.610000 I-6.368543 J2.681492
G02 X144.601484 Y28.798100 Z-5.610000 I-19.090646 J21.659965
G02 X131.518983 Y23.336668 Z-5.610000 I-21.300024 J32.622957
G02 X114.165964 Y24.947270 Z-5.610000 I-6.119118 J28.359262
G02 X99.912822 Y39.807329 Z-5.610000 I10.005659 J23.862543
G02 X100.293684 Y58.166520 Z-5.610000 I23.436573 J8.697353
G02 X109.501271 Y74.075825 Z-5.610000 I66.695632 J-27.981297
G02 X125.667725 Y95.045223 Z-5.610000 I2234.503785 J-1705.984538
G03 X141.147821 Y116.344280 Z-5.610000 I-314.839018 J245.099099
G03 X156.026390 Y143.824400 Z-5.610000 I-130.553813 J88.453703
G03 X157.277249 Y154.547891 Z-5.610000 I-17.923733 J7.525442
G03 X153.683410 Y159.088550 Z-5.610000 I-5.910983 J-0.985868
G02 X151.889817 Y160.846850 Z-5.610000 I1.305363 J3.125512
G02 X151.862394 Y163.345340 Z-5.610000 I2.904159 J1.281271
G02 X154.695442 Y166.253292 Z-5.610000 I5.101410 J-2.135994
G02 X163.391694 Y168.675039 Z-5.610000 I12.305011 J-27.361509
G02 X172.538580 Y168.755587 Z-5.610000 I4.932259 J-40.706164
G02 X182.645870 Y166.175480 Z-5.610000 I-3.660949 J-35.428532
G02 X193.924172 Y155.311018 Z-5.610000 I-8.367767 J-19.972689
G02 X194.233170 Y138.581690 Z-5.610000 I-18.797272 J-8.714712
G02 X185.331998 Y122.624520 Z-5.610000 I-75.504057 J31.656212
G02 X165.931857 Y95.932539 Z-5.610000 I-1709.560203 J1222.138384
G03 X146.740993 Y69.266938 Z-5.610000 I1054.267946 J-778.980556
G03 X136.691034 Y51.056390 Z-5.610000 I79.744122 J-55.887283
G03 X135.251924 Y39.930189 Z-5.610000 I19.491351 J-8.177265
G03 X137.502954 Y37.021720 Z-5.610000 I3.673137 J0.517516
G01 X137.502954 Y37.021720 Z-5.610000
G01 X137.491354 Y37.021720 Z-5.610000
G00 Z5.000000
(End cutting path id: path842-6)
(Start cutting path id: path842-6)
(Change tool to Cylindrical cutter)
G00 Z5.000000
G00 X137.491354 Y37.021720
G01 Z-5.940000 F50.0(Penetrate)
G03 X141.164367 Y36.405028 Z-5.940000 I3.144102 J7.479687 F200.000000
G03 X144.439094 Y37.021720 Z-5.940000 I-0.900525 J13.784917
G02 X147.099392 Y37.739596 Z-5.940000 I17.511854 J-59.607080
G02 X148.556704 Y37.624870 Z-5.940000 I0.555531 J-2.256492
G02 X149.957531 Y36.041241 Z-5.940000 I-0.931342 J-2.235212
G02 X149.820984 Y33.890020 Z-5.940000 I-3.149780 J-0.880015
G02 X148.021439 Y31.387594 Z-5.940000 I-6.368543 J2.681492
G02 X144.601484 Y28.798100 Z-5.940000 I-19.090646 J21.659965
G02 X131.518983 Y23.336668 Z-5.940000 I-21.300024 J32.622957
G02 X114.165964 Y24.947270 Z-5.940000 I-6.119118 J28.359262
G02 X99.912822 Y39.807329 Z-5.940000 I10.005659 J23.862543
G02 X100.293684 Y58.166520 Z-5.940000 I23.436573 J8.697353
G02 X109.501271 Y74.075825 Z-5.940000 I66.695632 J-27.981297
G02 X125.667725 Y95.045223 Z-5.940000 I2234.503785 J-1705.984538
G03 X141.147821 Y116.344280 Z-5.940000 I-314.839018 J245.099099
G03 X156.026390 Y143.824400 Z-5.940000 I-130.553813 J88.453703
G03 X157.277249 Y154.547891 Z-5.940000 I-17.923733 J7.525442
G03 X153.683410 Y159.088550 Z-5.940000 I-5.910983 J-0.985868
G02 X151.889817 Y160.846850 Z-5.940000 I1.305363 J3.125512
G02 X151.862394 Y163.345340 Z-5.940000 I2.904159 J1.281271
G02 X154.695442 Y166.253292 Z-5.940000 I5.101410 J-2.135994
G02 X163.391694 Y168.675039 Z-5.940000 I12.305011 J-27.361509
G02 X172.538580 Y168.755587 Z-5.940000 I4.932259 J-40.706164
G02 X182.645870 Y166.175480 Z-5.940000 I-3.660949 J-35.428532
G02 X193.924172 Y155.311018 Z-5.940000 I-8.367767 J-19.972689
G02 X194.233170 Y138.581690 Z-5.940000 I-18.797272 J-8.714712
G02 X185.331998 Y122.624520 Z-5.940000 I-75.504057 J31.656212
G02 X165.931857 Y95.932539 Z-5.940000 I-1709.560203 J1222.138384
G03 X146.740993 Y69.266938 Z-5.940000 I1054.267946 J-778.980556
G03 X136.691034 Y51.056390 Z-5.940000 I79.744122 J-55.887283
G03 X135.251924 Y39.930189 Z-5.940000 I19.491351 J-8.177265
G03 X137.502954 Y37.021720 Z-5.940000 I3.673137 J0.517516
G01 X137.502954 Y37.021720 Z-5.940000
G01 X137.491354 Y37.021720 Z-5.940000
G00 Z5.000000
(End cutting path id: path842-6)
(Start cutting path id: path842-6)
(Change tool to Cylindrical cutter)
G00 Z5.000000
G00 X137.491354 Y37.021720
G01 Z-6.000000 F50.0(Penetrate)
G03 X141.164367 Y36.405028 Z-6.000000 I3.144102 J7.479687 F200.000000
G03 X144.439094 Y37.021720 Z-6.000000 I-0.900525 J13.784917
G02 X147.099392 Y37.739596 Z-6.000000 I17.511854 J-59.607080
G02 X148.556704 Y37.624870 Z-6.000000 I0.555531 J-2.256492
G02 X149.957531 Y36.041241 Z-6.000000 I-0.931342 J-2.235212
G02 X149.820984 Y33.890020 Z-6.000000 I-3.149780 J-0.880015
G02 X148.021439 Y31.387594 Z-6.000000 I-6.368543 J2.681492
G02 X144.601484 Y28.798100 Z-6.000000 I-19.090646 J21.659965
G02 X131.518983 Y23.336668 Z-6.000000 I-21.300024 J32.622957
G02 X114.165964 Y24.947270 Z-6.000000 I-6.119118 J28.359262
G02 X99.912822 Y39.807329 Z-6.000000 I10.005659 J23.862543
G02 X100.293684 Y58.166520 Z-6.000000 I23.436573 J8.697353
G02 X109.501271 Y74.075825 Z-6.000000 I66.695632 J-27.981297
G02 X125.667725 Y95.045223 Z-6.000000 I2234.503785 J-1705.984538
G03 X141.147821 Y116.344280 Z-6.000000 I-314.839018 J245.099099
G03 X156.026390 Y143.824400 Z-6.000000 I-130.553813 J88.453703
G03 X157.277249 Y154.547891 Z-6.000000 I-17.923733 J7.525442
G03 X153.683410 Y159.088550 Z-6.000000 I-5.910983 J-0.985868
G02 X151.889817 Y160.846850 Z-6.000000 I1.305363 J3.125512
G02 X151.862394 Y163.345340 Z-6.000000 I2.904159 J1.281271
G02 X154.695442 Y166.253292 Z-6.000000 I5.101410 J-2.135994
G02 X163.391694 Y168.675039 Z-6.000000 I12.305011 J-27.361509
G02 X172.538580 Y168.755587 Z-6.000000 I4.932259 J-40.706164
G02 X182.645870 Y166.175480 Z-6.000000 I-3.660949 J-35.428532
G02 X193.924172 Y155.311018 Z-6.000000 I-8.367767 J-19.972689
G02 X194.233170 Y138.581690 Z-6.000000 I-18.797272 J-8.714712
G02 X185.331998 Y122.624520 Z-6.000000 I-75.504057 J31.656212
G02 X165.931857 Y95.932539 Z-6.000000 I-1709.560203 J1222.138384
G03 X146.740993 Y69.266938 Z-6.000000 I1054.267946 J-778.980556
G03 X136.691034 Y51.056390 Z-6.000000 I79.744122 J-55.887283
G03 X135.251924 Y39.930189 Z-6.000000 I19.491351 J-8.177265
G03 X137.502954 Y37.021720 Z-6.000000 I3.673137 J0.517516
G01 X137.502954 Y37.021720 Z-6.000000
G01 X137.491354 Y37.021720 Z-6.000000
G00 Z5.000000
(End cutting path id: path842-6)
(Footer)
M5
G00 X0.0000 Y0.0000
M2
(Using default footer. To add your own footer create file "footer" in the output dir.)
(end)
%
