%
(Header)
(Generated by gcodetools from Inkscape.)
(Using default header. To add your own header create file "header" in the output dir.)
M3
(Header end.)
G21 (All units in mm)

(Start cutting path id: path836-3-7)
(Change tool to Cylindrical cutter)

G00 Z5.000000
G00 X260.070910 Y223.744670

G01 Z-1.000000 F50.0(Penetrate)
G03 X236.642753 Y209.476143 Z-1.000000 I5.269463 J-35.020328 F200.000000
G03 X227.464690 Y176.029650 Z-1.000000 I40.076147 J-28.979833
G03 X221.291964 Y176.699949 Z-1.000000 I-8.798555 J-52.267951
G03 X215.741950 Y176.590420 Z-1.000000 I-1.985946 J-40.037828
G03 X189.721401 Y165.068845 Z-1.000000 I4.000402 J-44.178031
G03 X182.692690 Y146.864720 Z-1.000000 I14.905545 J-16.214085
G03 X188.092908 Y134.374729 Z-1.000000 I21.697135 J1.968627
G03 X196.167827 Y127.060390 Z-1.000000 I37.430862 J33.208645
G02 X204.853815 Y120.134488 Z-1.000000 I-70.559815 J-97.400868
G02 X209.260060 Y111.481560 Z-1.000000 I-8.614243 J-9.834885
G02 X208.242504 Y107.029700 Z-1.000000 I-7.307568 J-0.671939
G02 X205.306250 Y105.189630 Z-1.000000 I-3.279858 J1.970999
G02 X200.988190 Y107.181844 Z-1.000000 I-0.429460 J4.744893
G02 X198.566470 Y113.752900 Z-1.000000 I10.997155 J7.784713
G03 X194.353507 Y121.444123 Z-1.000000 I-10.922529 J-0.983488
G03 X187.930010 Y123.314830 Z-1.000000 I-5.588284 J-7.225021
G03 X180.426250 Y119.210561 Z-1.000000 I0.955897 J-10.659277
G03 X177.161900 Y108.035110 Z-1.000000 I12.562240 J-9.733916
G03 X187.164852 Y92.659895 Z-1.000000 I19.544957 J1.774227
G03 X210.948200 Y87.623180 Z-1.000000 I20.060185 J36.053321
G03 X236.085207 Y99.213709 Z-1.000000 I-3.740095 J41.164602
G03 X243.759450 Y120.025960 Z-1.000000 I-18.036362 J18.471684
G03 X238.039598 Y131.660441 Z-1.000000 I-18.018853 J-1.635333
G03 X228.846696 Y138.580446 Z-1.000000 I-38.338488 J-41.364706
G02 X219.340876 Y145.285445 Z-1.000000 I42.229441 J69.960384
G02 X214.120130 Y155.127250 Z-1.000000 I9.109424 J11.137861
G02 X216.106300 Y162.376341 Z-1.000000 I10.684952 J0.969082
G02 X219.935450 Y164.561650 Z-1.000000 I4.316698 J-3.116402
G02 X223.517076 Y163.693101 Z-1.000000 I0.515458 J-5.693443
G02 X225.009270 Y161.239910 Z-1.000000 I-1.740784 J-2.739282
G02 X224.576600 Y158.161473 Z-1.000000 I-6.713421 J-0.626062
G03 X223.851260 Y153.039230 Z-1.000000 I10.498069 J-4.099066
G03 X227.214763 Y147.664787 Z-1.000000 I6.985863 J0.632266
G03 X233.046240 Y146.320970 Z-1.000000 I4.969579 J8.240710
G03 X240.363132 Y150.698015 Z-1.000000 I-0.890295 J9.792430
G03 X242.746990 Y160.163040 Z-1.000000 I-12.335838 J8.139611
G03 X241.379485 Y168.157133 Z-1.000000 I-50.956998 J-4.602912
G02 X239.701050 Y177.977020 Z-1.000000 I60.808104 J15.446820
G02 X245.060397 Y199.251745 Z-1.000000 I33.022965 J2.993540
G02 X254.643340 Y204.980010 Z-1.000000 I10.749992 J-7.104009
G02 X258.954259 Y203.324597 Z-1.000000 I0.462271 J-5.236999
G02 X261.206990 Y198.281680 Z-1.000000 I-6.250543 J-5.816811
G02 X258.354711 Y184.199605 Z-1.000000 I-24.983302 J-2.269610
G02 X251.994110 Y176.386350 Z-1.000000 I-23.171669 J12.367912
G03 X249.388137 Y173.751985 Z-1.000000 I11.548573 J-14.030232
G03 X248.457530 Y170.663800 Z-1.000000 I3.343485 J-2.691850
G03 X252.149711 Y166.414601 Z-1.000000 I4.792243 J0.435348
G02 X255.638250 Y162.400420 Z-1.000000 I-1.039407 J-4.426255
G02 X254.272379 Y142.858076 Z-1.000000 I-61.359160 J-5.530330
G03 X252.528020 Y117.851500 Z-1.000000 I76.702373 J-17.914583
G03 X259.962311 Y101.542914 Z-1.000000 I26.920914 J2.423177
G03 X279.202490 Y94.357010 Z-1.000000 I17.101844 J16.439364
G03 X301.337924 Y103.665308 Z-1.000000 I-3.583123 J39.494318
G03 X314.268480 Y118.246590 Z-1.000000 I-45.393313 J53.278397
G03 X326.268725 Y101.226081 Z-1.000000 I30.447770 J8.726467
G03 X348.151270 Y93.676940 Z-1.000000 I23.612768 J32.956039
G03 X369.854345 Y97.725738 Z-1.000000 I2.083041 J49.026828
G03 X383.899720 Y108.167369 Z-1.000000 I-15.482868 J35.493766
G03 X392.922126 Y124.231870 Z-1.000000 I-36.843705 J31.258665
G03 X396.951430 Y146.224710 Z-1.000000 I-76.761762 J25.429032
G03 X389.450765 Y169.011752 Z-1.000000 I-33.998667 J1.436870
G03 X367.040550 Y180.324170 Z-1.000000 I-23.699340 J-19.095212
G03 X326.773679 Y163.743590 Z-1.000000 I-2.191980 J-51.862124
G03 X312.886460 Y130.426020 Z-1.000000 I38.352575 J-35.538855
G03 X312.877146 Y130.004351 Z-1.000000 I10.365993 J-0.439905
G02 X312.871860 Y129.586510 Z-1.000000 I-19.182025 J0.033715
G03 X311.789695 Y128.470382 Z-1.000000 I13.411781 J-14.086346
G02 X310.321380 Y126.875880 Z-1.000000 I-56.687725 J50.728230
G02 X304.800433 Y121.327645 Z-1.000000 I-71.550826 J65.677902
G02 X298.452240 Y118.504040 Z-1.000000 I-7.308707 J7.883870
G02 X292.360755 Y120.394996 Z-1.000000 I-0.744619 J8.358266
G02 X288.291320 Y128.102230 Z-1.000000 I7.230511 J8.745677
G01 X288.302820 Y128.104230 Z-1.000000
G02 X288.545467 Y144.251901 Z-1.000000 I76.173010 J6.931028
G02 X290.521840 Y158.811540 Z-1.000000 I516.275750 J-62.667016
G02 X294.008551 Y166.586594 Z-1.000000 I16.289903 J-2.635850
G02 X300.133220 Y171.023480 Z-1.000000 I11.363061 J-9.239863
G03 X303.679181 Y173.902158 Z-1.000000 I-2.927430 J7.229313
G03 X304.562460 Y177.363540 Z-1.000000 I-4.421673 J2.971717
G03 X303.138483 Y179.793843 Z-1.000000 I-3.313216 J-0.308975
G03 X301.194080 Y180.303770 Z-1.000000 I-1.676593 J-2.430955
G02 X294.329877 Y182.218921 Z-1.000000 I-0.913643 J9.984125
G02 X292.652690 Y185.193690 Z-1.000000 I2.474365 J3.355244
G02 X292.448214 Y191.652205 Z-1.000000 I57.035524 J5.038233
G03 X292.249140 Y197.571420 Z-1.000000 I-50.696806 J1.257928
G03 X288.862459 Y210.296173 Z-1.000000 I-38.877003 J-3.534021
G03 X282.955658 Y218.184848 Z-1.000000 I-21.179173 J-9.702571
G03 X274.324052 Y222.837455 Z-1.000000 I-14.690492 J-16.921016
G03 X261.966420 Y223.971780 Z-1.000000 I-9.256133 J-32.957929
G03 X261.014277 Y223.871855 Z-1.000000 I3.051754 J-33.665196
G03 X260.070820 Y223.744620 Z-1.000000 I3.678915 J-30.840896
G01 X260.070910 Y223.744670 Z-1.000000
G00 Z5.000000

(End cutting path id: path836-3-7)


(Start cutting path id: path836-3-7)
(Change tool to Cylindrical cutter)

G00 Z5.000000
G00 X260.070910 Y223.744670

G01 Z-2.000000 F50.0(Penetrate)
G03 X236.642753 Y209.476143 Z-2.000000 I5.269463 J-35.020328 F200.000000
G03 X227.464690 Y176.029650 Z-2.000000 I40.076147 J-28.979833
G03 X221.291964 Y176.699949 Z-2.000000 I-8.798555 J-52.267951
G03 X215.741950 Y176.590420 Z-2.000000 I-1.985946 J-40.037828
G03 X189.721401 Y165.068845 Z-2.000000 I4.000402 J-44.178031
G03 X182.692690 Y146.864720 Z-2.000000 I14.905545 J-16.214085
G03 X188.092908 Y134.374729 Z-2.000000 I21.697135 J1.968627
G03 X196.167827 Y127.060390 Z-2.000000 I37.430862 J33.208645
G02 X204.853815 Y120.134488 Z-2.000000 I-70.559815 J-97.400868
G02 X209.260060 Y111.481560 Z-2.000000 I-8.614243 J-9.834885
G02 X208.242504 Y107.029700 Z-2.000000 I-7.307568 J-0.671939
G02 X205.306250 Y105.189630 Z-2.000000 I-3.279858 J1.970999
G02 X200.988190 Y107.181844 Z-2.000000 I-0.429460 J4.744893
G02 X198.566470 Y113.752900 Z-2.000000 I10.997155 J7.784713
G03 X194.353507 Y121.444123 Z-2.000000 I-10.922529 J-0.983488
G03 X187.930010 Y123.314830 Z-2.000000 I-5.588284 J-7.225021
G03 X180.426250 Y119.210561 Z-2.000000 I0.955897 J-10.659277
G03 X177.161900 Y108.035110 Z-2.000000 I12.562240 J-9.733916
G03 X187.164852 Y92.659895 Z-2.000000 I19.544957 J1.774227
G03 X210.948200 Y87.623180 Z-2.000000 I20.060185 J36.053321
G03 X236.085207 Y99.213709 Z-2.000000 I-3.740095 J41.164602
G03 X243.759450 Y120.025960 Z-2.000000 I-18.036362 J18.471684
G03 X238.039598 Y131.660441 Z-2.000000 I-18.018853 J-1.635333
G03 X228.846696 Y138.580446 Z-2.000000 I-38.338488 J-41.364706
G02 X219.340876 Y145.285445 Z-2.000000 I42.229441 J69.960384
G02 X214.120130 Y155.127250 Z-2.000000 I9.109424 J11.137861
G02 X216.106300 Y162.376341 Z-2.000000 I10.684952 J0.969082
G02 X219.935450 Y164.561650 Z-2.000000 I4.316698 J-3.116402
G02 X223.517076 Y163.693101 Z-2.000000 I0.515458 J-5.693443
G02 X225.009270 Y161.239910 Z-2.000000 I-1.740784 J-2.739282
G02 X224.576600 Y158.161473 Z-2.000000 I-6.713421 J-0.626062
G03 X223.851260 Y153.039230 Z-2.000000 I10.498069 J-4.099066
G03 X227.214763 Y147.664787 Z-2.000000 I6.985863 J0.632266
G03 X233.046240 Y146.320970 Z-2.000000 I4.969579 J8.240710
G03 X240.363132 Y150.698015 Z-2.000000 I-0.890295 J9.792430
G03 X242.746990 Y160.163040 Z-2.000000 I-12.335838 J8.139611
G03 X241.379485 Y168.157133 Z-2.000000 I-50.956998 J-4.602912
G02 X239.701050 Y177.977020 Z-2.000000 I60.808104 J15.446820
G02 X245.060397 Y199.251745 Z-2.000000 I33.022965 J2.993540
G02 X254.643340 Y204.980010 Z-2.000000 I10.749992 J-7.104009
G02 X258.954259 Y203.324597 Z-2.000000 I0.462271 J-5.236999
G02 X261.206990 Y198.281680 Z-2.000000 I-6.250543 J-5.816811
G02 X258.354711 Y184.199605 Z-2.000000 I-24.983302 J-2.269610
G02 X251.994110 Y176.386350 Z-2.000000 I-23.171669 J12.367912
G03 X249.388137 Y173.751985 Z-2.000000 I11.548573 J-14.030232
G03 X248.457530 Y170.663800 Z-2.000000 I3.343485 J-2.691850
G03 X252.149711 Y166.414601 Z-2.000000 I4.792243 J0.435348
G02 X255.638250 Y162.400420 Z-2.000000 I-1.039407 J-4.426255
G02 X254.272379 Y142.858076 Z-2.000000 I-61.359160 J-5.530330
G03 X252.528020 Y117.851500 Z-2.000000 I76.702373 J-17.914583
G03 X259.962311 Y101.542914 Z-2.000000 I26.920914 J2.423177
G03 X279.202490 Y94.357010 Z-2.000000 I17.101844 J16.439364
G03 X301.337924 Y103.665308 Z-2.000000 I-3.583123 J39.494318
G03 X314.268480 Y118.246590 Z-2.000000 I-45.393313 J53.278397
G03 X326.268725 Y101.226081 Z-2.000000 I30.447770 J8.726467
G03 X348.151270 Y93.676940 Z-2.000000 I23.612768 J32.956039
G03 X369.854345 Y97.725738 Z-2.000000 I2.083041 J49.026828
G03 X383.899720 Y108.167369 Z-2.000000 I-15.482868 J35.493766
G03 X392.922126 Y124.231870 Z-2.000000 I-36.843705 J31.258665
G03 X396.951430 Y146.224710 Z-2.000000 I-76.761762 J25.429032
G03 X389.450765 Y169.011752 Z-2.000000 I-33.998667 J1.436870
G03 X367.040550 Y180.324170 Z-2.000000 I-23.699340 J-19.095212
G03 X326.773679 Y163.743590 Z-2.000000 I-2.191980 J-51.862124
G03 X312.886460 Y130.426020 Z-2.000000 I38.352575 J-35.538855
G03 X312.877146 Y130.004351 Z-2.000000 I10.365993 J-0.439905
G02 X312.871860 Y129.586510 Z-2.000000 I-19.182025 J0.033715
G03 X311.789695 Y128.470382 Z-2.000000 I13.411781 J-14.086346
G02 X310.321380 Y126.875880 Z-2.000000 I-56.687725 J50.728230
G02 X304.800433 Y121.327645 Z-2.000000 I-71.550826 J65.677902
G02 X298.452240 Y118.504040 Z-2.000000 I-7.308707 J7.883870
G02 X292.360755 Y120.394996 Z-2.000000 I-0.744619 J8.358266
G02 X288.291320 Y128.102230 Z-2.000000 I7.230511 J8.745677
G01 X288.302820 Y128.104230 Z-2.000000
G02 X288.545467 Y144.251901 Z-2.000000 I76.173010 J6.931028
G02 X290.521840 Y158.811540 Z-2.000000 I516.275750 J-62.667016
G02 X294.008551 Y166.586594 Z-2.000000 I16.289903 J-2.635850
G02 X300.133220 Y171.023480 Z-2.000000 I11.363061 J-9.239863
G03 X303.679181 Y173.902158 Z-2.000000 I-2.927430 J7.229313
G03 X304.562460 Y177.363540 Z-2.000000 I-4.421673 J2.971717
G03 X303.138483 Y179.793843 Z-2.000000 I-3.313216 J-0.308975
G03 X301.194080 Y180.303770 Z-2.000000 I-1.676593 J-2.430955
G02 X294.329877 Y182.218921 Z-2.000000 I-0.913643 J9.984125
G02 X292.652690 Y185.193690 Z-2.000000 I2.474365 J3.355244
G02 X292.448214 Y191.652205 Z-2.000000 I57.035524 J5.038233
G03 X292.249140 Y197.571420 Z-2.000000 I-50.696806 J1.257928
G03 X288.862459 Y210.296173 Z-2.000000 I-38.877003 J-3.534021
G03 X282.955658 Y218.184848 Z-2.000000 I-21.179173 J-9.702571
G03 X274.324052 Y222.837455 Z-2.000000 I-14.690492 J-16.921016
G03 X261.966420 Y223.971780 Z-2.000000 I-9.256133 J-32.957929
G03 X261.014277 Y223.871855 Z-2.000000 I3.051754 J-33.665196
G03 X260.070820 Y223.744620 Z-2.000000 I3.678915 J-30.840896
G01 X260.070910 Y223.744670 Z-2.000000
G00 Z5.000000

(End cutting path id: path836-3-7)


(Start cutting path id: path836-3-7)
(Change tool to Cylindrical cutter)

G00 Z5.000000
G00 X260.070910 Y223.744670

G01 Z-3.000000 F50.0(Penetrate)
G03 X236.642753 Y209.476143 Z-3.000000 I5.269463 J-35.020328 F200.000000
G03 X227.464690 Y176.029650 Z-3.000000 I40.076147 J-28.979833
G03 X221.291964 Y176.699949 Z-3.000000 I-8.798555 J-52.267951
G03 X215.741950 Y176.590420 Z-3.000000 I-1.985946 J-40.037828
G03 X189.721401 Y165.068845 Z-3.000000 I4.000402 J-44.178031
G03 X182.692690 Y146.864720 Z-3.000000 I14.905545 J-16.214085
G03 X188.092908 Y134.374729 Z-3.000000 I21.697135 J1.968627
G03 X196.167827 Y127.060390 Z-3.000000 I37.430862 J33.208645
G02 X204.853815 Y120.134488 Z-3.000000 I-70.559815 J-97.400868
G02 X209.260060 Y111.481560 Z-3.000000 I-8.614243 J-9.834885
G02 X208.242504 Y107.029700 Z-3.000000 I-7.307568 J-0.671939
G02 X205.306250 Y105.189630 Z-3.000000 I-3.279858 J1.970999
G02 X200.988190 Y107.181844 Z-3.000000 I-0.429460 J4.744893
G02 X198.566470 Y113.752900 Z-3.000000 I10.997155 J7.784713
G03 X194.353507 Y121.444123 Z-3.000000 I-10.922529 J-0.983488
G03 X187.930010 Y123.314830 Z-3.000000 I-5.588284 J-7.225021
G03 X180.426250 Y119.210561 Z-3.000000 I0.955897 J-10.659277
G03 X177.161900 Y108.035110 Z-3.000000 I12.562240 J-9.733916
G03 X187.164852 Y92.659895 Z-3.000000 I19.544957 J1.774227
G03 X210.948200 Y87.623180 Z-3.000000 I20.060185 J36.053321
G03 X236.085207 Y99.213709 Z-3.000000 I-3.740095 J41.164602
G03 X243.759450 Y120.025960 Z-3.000000 I-18.036362 J18.471684
G03 X238.039598 Y131.660441 Z-3.000000 I-18.018853 J-1.635333
G03 X228.846696 Y138.580446 Z-3.000000 I-38.338488 J-41.364706
G02 X219.340876 Y145.285445 Z-3.000000 I42.229441 J69.960384
G02 X214.120130 Y155.127250 Z-3.000000 I9.109424 J11.137861
G02 X216.106300 Y162.376341 Z-3.000000 I10.684952 J0.969082
G02 X219.935450 Y164.561650 Z-3.000000 I4.316698 J-3.116402
G02 X223.517076 Y163.693101 Z-3.000000 I0.515458 J-5.693443
G02 X225.009270 Y161.239910 Z-3.000000 I-1.740784 J-2.739282
G02 X224.576600 Y158.161473 Z-3.000000 I-6.713421 J-0.626062
G03 X223.851260 Y153.039230 Z-3.000000 I10.498069 J-4.099066
G03 X227.214763 Y147.664787 Z-3.000000 I6.985863 J0.632266
G03 X233.046240 Y146.320970 Z-3.000000 I4.969579 J8.240710
G03 X240.363132 Y150.698015 Z-3.000000 I-0.890295 J9.792430
G03 X242.746990 Y160.163040 Z-3.000000 I-12.335838 J8.139611
G03 X241.379485 Y168.157133 Z-3.000000 I-50.956998 J-4.602912
G02 X239.701050 Y177.977020 Z-3.000000 I60.808104 J15.446820
G02 X245.060397 Y199.251745 Z-3.000000 I33.022965 J2.993540
G02 X254.643340 Y204.980010 Z-3.000000 I10.749992 J-7.104009
G02 X258.954259 Y203.324597 Z-3.000000 I0.462271 J-5.236999
G02 X261.206990 Y198.281680 Z-3.000000 I-6.250543 J-5.816811
G02 X258.354711 Y184.199605 Z-3.000000 I-24.983302 J-2.269610
G02 X251.994110 Y176.386350 Z-3.000000 I-23.171669 J12.367912
G03 X249.388137 Y173.751985 Z-3.000000 I11.548573 J-14.030232
G03 X248.457530 Y170.663800 Z-3.000000 I3.343485 J-2.691850
G03 X252.149711 Y166.414601 Z-3.000000 I4.792243 J0.435348
G02 X255.638250 Y162.400420 Z-3.000000 I-1.039407 J-4.426255
G02 X254.272379 Y142.858076 Z-3.000000 I-61.359160 J-5.530330
G03 X252.528020 Y117.851500 Z-3.000000 I76.702373 J-17.914583
G03 X259.962311 Y101.542914 Z-3.000000 I26.920914 J2.423177
G03 X279.202490 Y94.357010 Z-3.000000 I17.101844 J16.439364
G03 X301.337924 Y103.665308 Z-3.000000 I-3.583123 J39.494318
G03 X314.268480 Y118.246590 Z-3.000000 I-45.393313 J53.278397
G03 X326.268725 Y101.226081 Z-3.000000 I30.447770 J8.726467
G03 X348.151270 Y93.676940 Z-3.000000 I23.612768 J32.956039
G03 X369.854345 Y97.725738 Z-3.000000 I2.083041 J49.026828
G03 X383.899720 Y108.167369 Z-3.000000 I-15.482868 J35.493766
G03 X392.922126 Y124.231870 Z-3.000000 I-36.843705 J31.258665
G03 X396.951430 Y146.224710 Z-3.000000 I-76.761762 J25.429032
G03 X389.450765 Y169.011752 Z-3.000000 I-33.998667 J1.436870
G03 X367.040550 Y180.324170 Z-3.000000 I-23.699340 J-19.095212
G03 X326.773679 Y163.743590 Z-3.000000 I-2.191980 J-51.862124
G03 X312.886460 Y130.426020 Z-3.000000 I38.352575 J-35.538855
G03 X312.877146 Y130.004351 Z-3.000000 I10.365993 J-0.439905
G02 X312.871860 Y129.586510 Z-3.000000 I-19.182025 J0.033715
G03 X311.789695 Y128.470382 Z-3.000000 I13.411781 J-14.086346
G02 X310.321380 Y126.875880 Z-3.000000 I-56.687725 J50.728230
G02 X304.800433 Y121.327645 Z-3.000000 I-71.550826 J65.677902
G02 X298.452240 Y118.504040 Z-3.000000 I-7.308707 J7.883870
G02 X292.360755 Y120.394996 Z-3.000000 I-0.744619 J8.358266
G02 X288.291320 Y128.102230 Z-3.000000 I7.230511 J8.745677
G01 X288.302820 Y128.104230 Z-3.000000
G02 X288.545467 Y144.251901 Z-3.000000 I76.173010 J6.931028
G02 X290.521840 Y158.811540 Z-3.000000 I516.275750 J-62.667016
G02 X294.008551 Y166.586594 Z-3.000000 I16.289903 J-2.635850
G02 X300.133220 Y171.023480 Z-3.000000 I11.363061 J-9.239863
G03 X303.679181 Y173.902158 Z-3.000000 I-2.927430 J7.229313
G03 X304.562460 Y177.363540 Z-3.000000 I-4.421673 J2.971717
G03 X303.138483 Y179.793843 Z-3.000000 I-3.313216 J-0.308975
G03 X301.194080 Y180.303770 Z-3.000000 I-1.676593 J-2.430955
G02 X294.329877 Y182.218921 Z-3.000000 I-0.913643 J9.984125
G02 X292.652690 Y185.193690 Z-3.000000 I2.474365 J3.355244
G02 X292.448214 Y191.652205 Z-3.000000 I57.035524 J5.038233
G03 X292.249140 Y197.571420 Z-3.000000 I-50.696806 J1.257928
G03 X288.862459 Y210.296173 Z-3.000000 I-38.877003 J-3.534021
G03 X282.955658 Y218.184848 Z-3.000000 I-21.179173 J-9.702571
G03 X274.324052 Y222.837455 Z-3.000000 I-14.690492 J-16.921016
G03 X261.966420 Y223.971780 Z-3.000000 I-9.256133 J-32.957929
G03 X261.014277 Y223.871855 Z-3.000000 I3.051754 J-33.665196
G03 X260.070820 Y223.744620 Z-3.000000 I3.678915 J-30.840896
G01 X260.070910 Y223.744670 Z-3.000000
G00 Z5.000000

(End cutting path id: path836-3-7)


(Start cutting path id: path836-3-7)
(Change tool to Cylindrical cutter)

G00 Z5.000000
G00 X260.070910 Y223.744670

G01 Z-4.000000 F50.0(Penetrate)
G03 X236.642753 Y209.476143 Z-4.000000 I5.269463 J-35.020328 F200.000000
G03 X227.464690 Y176.029650 Z-4.000000 I40.076147 J-28.979833
G03 X221.291964 Y176.699949 Z-4.000000 I-8.798555 J-52.267951
G03 X215.741950 Y176.590420 Z-4.000000 I-1.985946 J-40.037828
G03 X189.721401 Y165.068845 Z-4.000000 I4.000402 J-44.178031
G03 X182.692690 Y146.864720 Z-4.000000 I14.905545 J-16.214085
G03 X188.092908 Y134.374729 Z-4.000000 I21.697135 J1.968627
G03 X196.167827 Y127.060390 Z-4.000000 I37.430862 J33.208645
G02 X204.853815 Y120.134488 Z-4.000000 I-70.559815 J-97.400868
G02 X209.260060 Y111.481560 Z-4.000000 I-8.614243 J-9.834885
G02 X208.242504 Y107.029700 Z-4.000000 I-7.307568 J-0.671939
G02 X205.306250 Y105.189630 Z-4.000000 I-3.279858 J1.970999
G02 X200.988190 Y107.181844 Z-4.000000 I-0.429460 J4.744893
G02 X198.566470 Y113.752900 Z-4.000000 I10.997155 J7.784713
G03 X194.353507 Y121.444123 Z-4.000000 I-10.922529 J-0.983488
G03 X187.930010 Y123.314830 Z-4.000000 I-5.588284 J-7.225021
G03 X180.426250 Y119.210561 Z-4.000000 I0.955897 J-10.659277
G03 X177.161900 Y108.035110 Z-4.000000 I12.562240 J-9.733916
G03 X187.164852 Y92.659895 Z-4.000000 I19.544957 J1.774227
G03 X210.948200 Y87.623180 Z-4.000000 I20.060185 J36.053321
G03 X236.085207 Y99.213709 Z-4.000000 I-3.740095 J41.164602
G03 X243.759450 Y120.025960 Z-4.000000 I-18.036362 J18.471684
G03 X238.039598 Y131.660441 Z-4.000000 I-18.018853 J-1.635333
G03 X228.846696 Y138.580446 Z-4.000000 I-38.338488 J-41.364706
G02 X219.340876 Y145.285445 Z-4.000000 I42.229441 J69.960384
G02 X214.120130 Y155.127250 Z-4.000000 I9.109424 J11.137861
G02 X216.106300 Y162.376341 Z-4.000000 I10.684952 J0.969082
G02 X219.935450 Y164.561650 Z-4.000000 I4.316698 J-3.116402
G02 X223.517076 Y163.693101 Z-4.000000 I0.515458 J-5.693443
G02 X225.009270 Y161.239910 Z-4.000000 I-1.740784 J-2.739282
G02 X224.576600 Y158.161473 Z-4.000000 I-6.713421 J-0.626062
G03 X223.851260 Y153.039230 Z-4.000000 I10.498069 J-4.099066
G03 X227.214763 Y147.664787 Z-4.000000 I6.985863 J0.632266
G03 X233.046240 Y146.320970 Z-4.000000 I4.969579 J8.240710
G03 X240.363132 Y150.698015 Z-4.000000 I-0.890295 J9.792430
G03 X242.746990 Y160.163040 Z-4.000000 I-12.335838 J8.139611
G03 X241.379485 Y168.157133 Z-4.000000 I-50.956998 J-4.602912
G02 X239.701050 Y177.977020 Z-4.000000 I60.808104 J15.446820
G02 X245.060397 Y199.251745 Z-4.000000 I33.022965 J2.993540
G02 X254.643340 Y204.980010 Z-4.000000 I10.749992 J-7.104009
G02 X258.954259 Y203.324597 Z-4.000000 I0.462271 J-5.236999
G02 X261.206990 Y198.281680 Z-4.000000 I-6.250543 J-5.816811
G02 X258.354711 Y184.199605 Z-4.000000 I-24.983302 J-2.269610
G02 X251.994110 Y176.386350 Z-4.000000 I-23.171669 J12.367912
G03 X249.388137 Y173.751985 Z-4.000000 I11.548573 J-14.030232
G03 X248.457530 Y170.663800 Z-4.000000 I3.343485 J-2.691850
G03 X252.149711 Y166.414601 Z-4.000000 I4.792243 J0.435348
G02 X255.638250 Y162.400420 Z-4.000000 I-1.039407 J-4.426255
G02 X254.272379 Y142.858076 Z-4.000000 I-61.359160 J-5.530330
G03 X252.528020 Y117.851500 Z-4.000000 I76.702373 J-17.914583
G03 X259.962311 Y101.542914 Z-4.000000 I26.920914 J2.423177
G03 X279.202490 Y94.357010 Z-4.000000 I17.101844 J16.439364
G03 X301.337924 Y103.665308 Z-4.000000 I-3.583123 J39.494318
G03 X314.268480 Y118.246590 Z-4.000000 I-45.393313 J53.278397
G03 X326.268725 Y101.226081 Z-4.000000 I30.447770 J8.726467
G03 X348.151270 Y93.676940 Z-4.000000 I23.612768 J32.956039
G03 X369.854345 Y97.725738 Z-4.000000 I2.083041 J49.026828
G03 X383.899720 Y108.167369 Z-4.000000 I-15.482868 J35.493766
G03 X392.922126 Y124.231870 Z-4.000000 I-36.843705 J31.258665
G03 X396.951430 Y146.224710 Z-4.000000 I-76.761762 J25.429032
G03 X389.450765 Y169.011752 Z-4.000000 I-33.998667 J1.436870
G03 X367.040550 Y180.324170 Z-4.000000 I-23.699340 J-19.095212
G03 X326.773679 Y163.743590 Z-4.000000 I-2.191980 J-51.862124
G03 X312.886460 Y130.426020 Z-4.000000 I38.352575 J-35.538855
G03 X312.877146 Y130.004351 Z-4.000000 I10.365993 J-0.439905
G02 X312.871860 Y129.586510 Z-4.000000 I-19.182025 J0.033715
G03 X311.789695 Y128.470382 Z-4.000000 I13.411781 J-14.086346
G02 X310.321380 Y126.875880 Z-4.000000 I-56.687725 J50.728230
G02 X304.800433 Y121.327645 Z-4.000000 I-71.550826 J65.677902
G02 X298.452240 Y118.504040 Z-4.000000 I-7.308707 J7.883870
G02 X292.360755 Y120.394996 Z-4.000000 I-0.744619 J8.358266
G02 X288.291320 Y128.102230 Z-4.000000 I7.230511 J8.745677
G01 X288.302820 Y128.104230 Z-4.000000
G02 X288.545467 Y144.251901 Z-4.000000 I76.173010 J6.931028
G02 X290.521840 Y158.811540 Z-4.000000 I516.275750 J-62.667016
G02 X294.008551 Y166.586594 Z-4.000000 I16.289903 J-2.635850
G02 X300.133220 Y171.023480 Z-4.000000 I11.363061 J-9.239863
G03 X303.679181 Y173.902158 Z-4.000000 I-2.927430 J7.229313
G03 X304.562460 Y177.363540 Z-4.000000 I-4.421673 J2.971717
G03 X303.138483 Y179.793843 Z-4.000000 I-3.313216 J-0.308975
G03 X301.194080 Y180.303770 Z-4.000000 I-1.676593 J-2.430955
G02 X294.329877 Y182.218921 Z-4.000000 I-0.913643 J9.984125
G02 X292.652690 Y185.193690 Z-4.000000 I2.474365 J3.355244
G02 X292.448214 Y191.652205 Z-4.000000 I57.035524 J5.038233
G03 X292.249140 Y197.571420 Z-4.000000 I-50.696806 J1.257928
G03 X288.862459 Y210.296173 Z-4.000000 I-38.877003 J-3.534021
G03 X282.955658 Y218.184848 Z-4.000000 I-21.179173 J-9.702571
G03 X274.324052 Y222.837455 Z-4.000000 I-14.690492 J-16.921016
G03 X261.966420 Y223.971780 Z-4.000000 I-9.256133 J-32.957929
G03 X261.014277 Y223.871855 Z-4.000000 I3.051754 J-33.665196
G03 X260.070820 Y223.744620 Z-4.000000 I3.678915 J-30.840896
G01 X260.070910 Y223.744670 Z-4.000000
G00 Z5.000000

(End cutting path id: path836-3-7)


(Start cutting path id: path836)
(Change tool to Cylindrical cutter)

G00 Z5.000000
G00 X190.631640 Y239.478780

G01 Z-1.000000 F50.0(Penetrate)
G02 X190.897793 Y239.509355 Z-1.000000 I0.487304 J-3.068272 F200.000000
G02 X191.076060 Y239.511580 Z-1.000000 I0.108048 J-1.514005
G02 X192.262602 Y238.952898 Z-1.000000 I-0.071084 J-1.690313
G02 X192.668520 Y237.824980 Z-1.000000 I-1.179778 J-1.061582
G02 X191.673732 Y235.286498 Z-1.000000 I-4.186993 J0.176650
G03 X188.411070 Y226.967610 Z-1.000000 I10.470674 J-8.905841
G03 X189.828671 Y222.343637 Z-1.000000 I7.235462 J-0.311067
G03 X196.990470 Y216.384510 Z-1.000000 I15.815816 J11.724607
G02 X200.307115 Y212.529940 Z-1.000000 I-3.348895 J-6.235719
G02 X201.298140 Y205.980330 Z-1.000000 I-16.267223 J-5.811184
G02 X196.816005 Y192.426472 Z-1.000000 I-26.019526 J1.086386
G02 X186.001590 Y186.992680 Z-1.000000 I-10.285278 J6.991515
G02 X177.883442 Y192.026439 Z-1.000000 I0.403212 J9.713390
G02 X174.478820 Y206.586320 Z-1.000000 I24.349176 J13.371712
G02 X178.649668 Y227.387668 Z-1.000000 I68.335639 J-2.883062
G02 X184.019100 Y235.510510 Z-1.000000 I19.992779 J-7.379704
G02 X188.833799 Y238.903351 Z-1.000000 I13.514501 J-14.065470
G02 X190.631630 Y239.478830 Z-1.000000 I2.770939 J-5.560577
G01 X190.631640 Y239.478780 Z-1.000000
G00 Z5.000000

(End cutting path id: path836)


(Start cutting path id: path836)
(Change tool to Cylindrical cutter)

G00 Z5.000000
G00 X190.631640 Y239.478780

G01 Z-2.000000 F50.0(Penetrate)
G02 X190.897793 Y239.509355 Z-2.000000 I0.487304 J-3.068272 F200.000000
G02 X191.076060 Y239.511580 Z-2.000000 I0.108048 J-1.514005
G02 X192.262602 Y238.952898 Z-2.000000 I-0.071084 J-1.690313
G02 X192.668520 Y237.824980 Z-2.000000 I-1.179778 J-1.061582
G02 X191.673732 Y235.286498 Z-2.000000 I-4.186993 J0.176650
G03 X188.411070 Y226.967610 Z-2.000000 I10.470674 J-8.905841
G03 X189.828671 Y222.343637 Z-2.000000 I7.235462 J-0.311067
G03 X196.990470 Y216.384510 Z-2.000000 I15.815816 J11.724607
G02 X200.307115 Y212.529940 Z-2.000000 I-3.348895 J-6.235719
G02 X201.298140 Y205.980330 Z-2.000000 I-16.267223 J-5.811184
G02 X196.816005 Y192.426472 Z-2.000000 I-26.019526 J1.086386
G02 X186.001590 Y186.992680 Z-2.000000 I-10.285278 J6.991515
G02 X177.883442 Y192.026439 Z-2.000000 I0.403212 J9.713390
G02 X174.478820 Y206.586320 Z-2.000000 I24.349176 J13.371712
G02 X178.649668 Y227.387668 Z-2.000000 I68.335639 J-2.883062
G02 X184.019100 Y235.510510 Z-2.000000 I19.992779 J-7.379704
G02 X188.833799 Y238.903351 Z-2.000000 I13.514501 J-14.065470
G02 X190.631630 Y239.478830 Z-2.000000 I2.770939 J-5.560577
G01 X190.631640 Y239.478780 Z-2.000000
G00 Z5.000000

(End cutting path id: path836)


(Start cutting path id: path836)
(Change tool to Cylindrical cutter)

G00 Z5.000000
G00 X190.631640 Y239.478780

G01 Z-3.000000 F50.0(Penetrate)
G02 X190.897793 Y239.509355 Z-3.000000 I0.487304 J-3.068272 F200.000000
G02 X191.076060 Y239.511580 Z-3.000000 I0.108048 J-1.514005
G02 X192.262602 Y238.952898 Z-3.000000 I-0.071084 J-1.690313
G02 X192.668520 Y237.824980 Z-3.000000 I-1.179778 J-1.061582
G02 X191.673732 Y235.286498 Z-3.000000 I-4.186993 J0.176650
G03 X188.411070 Y226.967610 Z-3.000000 I10.470674 J-8.905841
G03 X189.828671 Y222.343637 Z-3.000000 I7.235462 J-0.311067
G03 X196.990470 Y216.384510 Z-3.000000 I15.815816 J11.724607
G02 X200.307115 Y212.529940 Z-3.000000 I-3.348895 J-6.235719
G02 X201.298140 Y205.980330 Z-3.000000 I-16.267223 J-5.811184
G02 X196.816005 Y192.426472 Z-3.000000 I-26.019526 J1.086386
G02 X186.001590 Y186.992680 Z-3.000000 I-10.285278 J6.991515
G02 X177.883442 Y192.026439 Z-3.000000 I0.403212 J9.713390
G02 X174.478820 Y206.586320 Z-3.000000 I24.349176 J13.371712
G02 X178.649668 Y227.387668 Z-3.000000 I68.335639 J-2.883062
G02 X184.019100 Y235.510510 Z-3.000000 I19.992779 J-7.379704
G02 X188.833799 Y238.903351 Z-3.000000 I13.514501 J-14.065470
G02 X190.631630 Y239.478830 Z-3.000000 I2.770939 J-5.560577
G01 X190.631640 Y239.478780 Z-3.000000
G00 Z5.000000

(End cutting path id: path836)


(Start cutting path id: path836)
(Change tool to Cylindrical cutter)

G00 Z5.000000
G00 X190.631640 Y239.478780

G01 Z-4.000000 F50.0(Penetrate)
G02 X190.897793 Y239.509355 Z-4.000000 I0.487304 J-3.068272 F200.000000
G02 X191.076060 Y239.511580 Z-4.000000 I0.108048 J-1.514005
G02 X192.262602 Y238.952898 Z-4.000000 I-0.071084 J-1.690313
G02 X192.668520 Y237.824980 Z-4.000000 I-1.179778 J-1.061582
G02 X191.673732 Y235.286498 Z-4.000000 I-4.186993 J0.176650
G03 X188.411070 Y226.967610 Z-4.000000 I10.470674 J-8.905841
G03 X189.828671 Y222.343637 Z-4.000000 I7.235462 J-0.311067
G03 X196.990470 Y216.384510 Z-4.000000 I15.815816 J11.724607
G02 X200.307115 Y212.529940 Z-4.000000 I-3.348895 J-6.235719
G02 X201.298140 Y205.980330 Z-4.000000 I-16.267223 J-5.811184
G02 X196.816005 Y192.426472 Z-4.000000 I-26.019526 J1.086386
G02 X186.001590 Y186.992680 Z-4.000000 I-10.285278 J6.991515
G02 X177.883442 Y192.026439 Z-4.000000 I0.403212 J9.713390
G02 X174.478820 Y206.586320 Z-4.000000 I24.349176 J13.371712
G02 X178.649668 Y227.387668 Z-4.000000 I68.335639 J-2.883062
G02 X184.019100 Y235.510510 Z-4.000000 I19.992779 J-7.379704
G02 X188.833799 Y238.903351 Z-4.000000 I13.514501 J-14.065470
G02 X190.631630 Y239.478830 Z-4.000000 I2.770939 J-5.560577
G01 X190.631640 Y239.478780 Z-4.000000
G00 Z5.000000

(End cutting path id: path836)


(Start cutting path id: path836)
(Change tool to Cylindrical cutter)

G00 Z5.000000
G00 X85.904130 Y297.109980

G01 Z-1.000000 F50.0(Penetrate)
G03 X62.475973 Y282.841453 Z-1.000000 I5.269463 J-35.020328 F200.000000
G03 X53.297910 Y249.394960 Z-1.000000 I40.076147 J-28.979833
G03 X47.125184 Y250.065259 Z-1.000000 I-8.798555 J-52.267951
G03 X41.575170 Y249.955730 Z-1.000000 I-1.985946 J-40.037828
G03 X15.554621 Y238.434155 Z-1.000000 I4.000402 J-44.178031
G03 X8.525910 Y220.230030 Z-1.000000 I14.905545 J-16.214085
G03 X13.926128 Y207.740039 Z-1.000000 I21.697135 J1.968627
G03 X22.001047 Y200.425700 Z-1.000000 I37.430862 J33.208645
G02 X30.687035 Y193.499798 Z-1.000000 I-70.559815 J-97.400868
G02 X35.093280 Y184.846870 Z-1.000000 I-8.614243 J-9.834885
G02 X34.075724 Y180.395010 Z-1.000000 I-7.307568 J-0.671939
G02 X31.139470 Y178.554940 Z-1.000000 I-3.279858 J1.970999
G02 X26.821410 Y180.547154 Z-1.000000 I-0.429460 J4.744893
G02 X24.399690 Y187.118210 Z-1.000000 I10.997155 J7.784713
G03 X20.186727 Y194.809433 Z-1.000000 I-10.922529 J-0.983488
G03 X13.763230 Y196.680140 Z-1.000000 I-5.588284 J-7.225021
G03 X6.259470 Y192.575871 Z-1.000000 I0.955897 J-10.659277
G03 X2.995120 Y181.400420 Z-1.000000 I12.562240 J-9.733916
G03 X12.998072 Y166.025205 Z-1.000000 I19.544957 J1.774227
G03 X36.781420 Y160.988490 Z-1.000000 I20.060185 J36.053321
G03 X61.918427 Y172.579019 Z-1.000000 I-3.740095 J41.164602
G03 X69.592670 Y193.391270 Z-1.000000 I-18.036362 J18.471684
G03 X63.872818 Y205.025751 Z-1.000000 I-18.018853 J-1.635333
G03 X54.679916 Y211.945756 Z-1.000000 I-38.338488 J-41.364706
G02 X45.174096 Y218.650755 Z-1.000000 I42.229441 J69.960384
G02 X39.953350 Y228.492560 Z-1.000000 I9.109424 J11.137861
G02 X41.939520 Y235.741651 Z-1.000000 I10.684952 J0.969082
G02 X45.768670 Y237.926960 Z-1.000000 I4.316698 J-3.116402
G02 X49.350296 Y237.058411 Z-1.000000 I0.515458 J-5.693443
G02 X50.842490 Y234.605220 Z-1.000000 I-1.740784 J-2.739282
G02 X50.409820 Y231.526783 Z-1.000000 I-6.713421 J-0.626062
G03 X49.684480 Y226.404540 Z-1.000000 I10.498069 J-4.099066
G03 X53.047983 Y221.030097 Z-1.000000 I6.985863 J0.632266
G03 X58.879460 Y219.686280 Z-1.000000 I4.969579 J8.240710
G03 X66.196352 Y224.063325 Z-1.000000 I-0.890295 J9.792430
G03 X68.580210 Y233.528350 Z-1.000000 I-12.335838 J8.139611
G03 X67.212705 Y241.522443 Z-1.000000 I-50.956995 J-4.602924
G02 X65.534270 Y251.342330 Z-1.000000 I60.808100 J15.446835
G02 X70.893617 Y272.617055 Z-1.000000 I33.022965 J2.993540
G02 X80.476560 Y278.345320 Z-1.000000 I10.749992 J-7.104009
G02 X84.787479 Y276.689907 Z-1.000000 I0.462271 J-5.236999
G02 X87.040210 Y271.646990 Z-1.000000 I-6.250543 J-5.816811
G02 X84.187931 Y257.564915 Z-1.000000 I-24.983302 J-2.269610
G02 X77.827330 Y249.751660 Z-1.000000 I-23.171669 J12.367912
G03 X75.221357 Y247.117295 Z-1.000000 I11.548573 J-14.030232
G03 X74.290750 Y244.029110 Z-1.000000 I3.343485 J-2.691850
G03 X77.982931 Y239.779911 Z-1.000000 I4.792243 J0.435348
G02 X81.471470 Y235.765730 Z-1.000000 I-1.039407 J-4.426255
G02 X80.105599 Y216.223386 Z-1.000000 I-61.359161 J-5.530331
G03 X78.361240 Y191.216810 Z-1.000000 I76.702374 J-17.914581
G03 X85.795531 Y174.908224 Z-1.000000 I26.920914 J2.423177
G03 X105.035710 Y167.722320 Z-1.000000 I17.101844 J16.439364
G03 X127.171144 Y177.030618 Z-1.000000 I-3.583123 J39.494318
G03 X140.101700 Y191.611900 Z-1.000000 I-45.393313 J53.278397
G03 X152.101945 Y174.591391 Z-1.000000 I30.447770 J8.726467
G03 X173.984490 Y167.042250 Z-1.000000 I23.612768 J32.956039
G03 X195.687565 Y171.091048 Z-1.000000 I2.083041 J49.026828
G03 X209.732940 Y181.532679 Z-1.000000 I-15.482868 J35.493766
G03 X218.755346 Y197.597180 Z-1.000000 I-36.843705 J31.258665
G03 X222.784650 Y219.590020 Z-1.000000 I-76.761762 J25.429032
G03 X215.283985 Y242.377062 Z-1.000000 I-33.998667 J1.436870
G03 X192.873770 Y253.689480 Z-1.000000 I-23.699340 J-19.095212
G03 X152.606899 Y237.108900 Z-1.000000 I-2.191980 J-51.862124
G03 X138.719680 Y203.791330 Z-1.000000 I38.352575 J-35.538855
G03 X138.710366 Y203.369661 Z-1.000000 I10.365993 J-0.439905
G02 X138.705080 Y202.951820 Z-1.000000 I-19.182025 J0.033715
G03 X137.622915 Y201.835692 Z-1.000000 I13.411781 J-14.086346
G02 X136.154600 Y200.241190 Z-1.000000 I-56.687725 J50.728230
G02 X130.633653 Y194.692955 Z-1.000000 I-71.550826 J65.677902
G02 X124.285460 Y191.869350 Z-1.000000 I-7.308707 J7.883870
G02 X118.193975 Y193.760306 Z-1.000000 I-0.744619 J8.358266
G02 X114.124540 Y201.467540 Z-1.000000 I7.230511 J8.745677
G01 X114.136040 Y201.469540 Z-1.000000
G02 X114.378687 Y217.617211 Z-1.000000 I76.173010 J6.931028
G02 X116.355060 Y232.176850 Z-1.000000 I516.275750 J-62.667016
G02 X119.841771 Y239.951904 Z-1.000000 I16.289903 J-2.635850
G02 X125.966440 Y244.388790 Z-1.000000 I11.363061 J-9.239863
G03 X129.512401 Y247.267468 Z-1.000000 I-2.927430 J7.229313
G03 X130.395680 Y250.728850 Z-1.000000 I-4.421673 J2.971717
G03 X128.971703 Y253.159153 Z-1.000000 I-3.313216 J-0.308975
G03 X127.027300 Y253.669080 Z-1.000000 I-1.676593 J-2.430955
G02 X120.163097 Y255.584231 Z-1.000000 I-0.913643 J9.984125
G02 X118.485910 Y258.559000 Z-1.000000 I2.474365 J3.355244
G02 X118.281434 Y265.017515 Z-1.000000 I57.035524 J5.038233
G03 X118.082360 Y270.936730 Z-1.000000 I-50.696806 J1.257928
G03 X114.695679 Y283.661483 Z-1.000000 I-38.877003 J-3.534021
G03 X108.788877 Y291.550157 Z-1.000000 I-21.179173 J-9.702571
G03 X100.157272 Y296.202765 Z-1.000000 I-14.690492 J-16.921016
G03 X87.799640 Y297.337090 Z-1.000000 I-9.256133 J-32.957929
G03 X86.847497 Y297.237165 Z-1.000000 I3.051754 J-33.665196
G03 X85.904040 Y297.109930 Z-1.000000 I3.678915 J-30.840896
G01 X85.904130 Y297.109980 Z-1.000000
G00 Z5.000000

(End cutting path id: path836)


(Start cutting path id: path836)
(Change tool to Cylindrical cutter)

G00 Z5.000000
G00 X85.904130 Y297.109980

G01 Z-2.000000 F50.0(Penetrate)
G03 X62.475973 Y282.841453 Z-2.000000 I5.269463 J-35.020328 F200.000000
G03 X53.297910 Y249.394960 Z-2.000000 I40.076147 J-28.979833
G03 X47.125184 Y250.065259 Z-2.000000 I-8.798555 J-52.267951
G03 X41.575170 Y249.955730 Z-2.000000 I-1.985946 J-40.037828
G03 X15.554621 Y238.434155 Z-2.000000 I4.000402 J-44.178031
G03 X8.525910 Y220.230030 Z-2.000000 I14.905545 J-16.214085
G03 X13.926128 Y207.740039 Z-2.000000 I21.697135 J1.968627
G03 X22.001047 Y200.425700 Z-2.000000 I37.430862 J33.208645
G02 X30.687035 Y193.499798 Z-2.000000 I-70.559815 J-97.400868
G02 X35.093280 Y184.846870 Z-2.000000 I-8.614243 J-9.834885
G02 X34.075724 Y180.395010 Z-2.000000 I-7.307568 J-0.671939
G02 X31.139470 Y178.554940 Z-2.000000 I-3.279858 J1.970999
G02 X26.821410 Y180.547154 Z-2.000000 I-0.429460 J4.744893
G02 X24.399690 Y187.118210 Z-2.000000 I10.997155 J7.784713
G03 X20.186727 Y194.809433 Z-2.000000 I-10.922529 J-0.983488
G03 X13.763230 Y196.680140 Z-2.000000 I-5.588284 J-7.225021
G03 X6.259470 Y192.575871 Z-2.000000 I0.955897 J-10.659277
G03 X2.995120 Y181.400420 Z-2.000000 I12.562240 J-9.733916
G03 X12.998072 Y166.025205 Z-2.000000 I19.544957 J1.774227
G03 X36.781420 Y160.988490 Z-2.000000 I20.060185 J36.053321
G03 X61.918427 Y172.579019 Z-2.000000 I-3.740095 J41.164602
G03 X69.592670 Y193.391270 Z-2.000000 I-18.036362 J18.471684
G03 X63.872818 Y205.025751 Z-2.000000 I-18.018853 J-1.635333
G03 X54.679916 Y211.945756 Z-2.000000 I-38.338488 J-41.364706
G02 X45.174096 Y218.650755 Z-2.000000 I42.229441 J69.960384
G02 X39.953350 Y228.492560 Z-2.000000 I9.109424 J11.137861
G02 X41.939520 Y235.741651 Z-2.000000 I10.684952 J0.969082
G02 X45.768670 Y237.926960 Z-2.000000 I4.316698 J-3.116402
G02 X49.350296 Y237.058411 Z-2.000000 I0.515458 J-5.693443
G02 X50.842490 Y234.605220 Z-2.000000 I-1.740784 J-2.739282
G02 X50.409820 Y231.526783 Z-2.000000 I-6.713421 J-0.626062
G03 X49.684480 Y226.404540 Z-2.000000 I10.498069 J-4.099066
G03 X53.047983 Y221.030097 Z-2.000000 I6.985863 J0.632266
G03 X58.879460 Y219.686280 Z-2.000000 I4.969579 J8.240710
G03 X66.196352 Y224.063325 Z-2.000000 I-0.890295 J9.792430
G03 X68.580210 Y233.528350 Z-2.000000 I-12.335838 J8.139611
G03 X67.212705 Y241.522443 Z-2.000000 I-50.956995 J-4.602924
G02 X65.534270 Y251.342330 Z-2.000000 I60.808100 J15.446835
G02 X70.893617 Y272.617055 Z-2.000000 I33.022965 J2.993540
G02 X80.476560 Y278.345320 Z-2.000000 I10.749992 J-7.104009
G02 X84.787479 Y276.689907 Z-2.000000 I0.462271 J-5.236999
G02 X87.040210 Y271.646990 Z-2.000000 I-6.250543 J-5.816811
G02 X84.187931 Y257.564915 Z-2.000000 I-24.983302 J-2.269610
G02 X77.827330 Y249.751660 Z-2.000000 I-23.171669 J12.367912
G03 X75.221357 Y247.117295 Z-2.000000 I11.548573 J-14.030232
G03 X74.290750 Y244.029110 Z-2.000000 I3.343485 J-2.691850
G03 X77.982931 Y239.779911 Z-2.000000 I4.792243 J0.435348
G02 X81.471470 Y235.765730 Z-2.000000 I-1.039407 J-4.426255
G02 X80.105599 Y216.223386 Z-2.000000 I-61.359161 J-5.530331
G03 X78.361240 Y191.216810 Z-2.000000 I76.702374 J-17.914581
G03 X85.795531 Y174.908224 Z-2.000000 I26.920914 J2.423177
G03 X105.035710 Y167.722320 Z-2.000000 I17.101844 J16.439364
G03 X127.171144 Y177.030618 Z-2.000000 I-3.583123 J39.494318
G03 X140.101700 Y191.611900 Z-2.000000 I-45.393313 J53.278397
G03 X152.101945 Y174.591391 Z-2.000000 I30.447770 J8.726467
G03 X173.984490 Y167.042250 Z-2.000000 I23.612768 J32.956039
G03 X195.687565 Y171.091048 Z-2.000000 I2.083041 J49.026828
G03 X209.732940 Y181.532679 Z-2.000000 I-15.482868 J35.493766
G03 X218.755346 Y197.597180 Z-2.000000 I-36.843705 J31.258665
G03 X222.784650 Y219.590020 Z-2.000000 I-76.761762 J25.429032
G03 X215.283985 Y242.377062 Z-2.000000 I-33.998667 J1.436870
G03 X192.873770 Y253.689480 Z-2.000000 I-23.699340 J-19.095212
G03 X152.606899 Y237.108900 Z-2.000000 I-2.191980 J-51.862124
G03 X138.719680 Y203.791330 Z-2.000000 I38.352575 J-35.538855
G03 X138.710366 Y203.369661 Z-2.000000 I10.365993 J-0.439905
G02 X138.705080 Y202.951820 Z-2.000000 I-19.182025 J0.033715
G03 X137.622915 Y201.835692 Z-2.000000 I13.411781 J-14.086346
G02 X136.154600 Y200.241190 Z-2.000000 I-56.687725 J50.728230
G02 X130.633653 Y194.692955 Z-2.000000 I-71.550826 J65.677902
G02 X124.285460 Y191.869350 Z-2.000000 I-7.308707 J7.883870
G02 X118.193975 Y193.760306 Z-2.000000 I-0.744619 J8.358266
G02 X114.124540 Y201.467540 Z-2.000000 I7.230511 J8.745677
G01 X114.136040 Y201.469540 Z-2.000000
G02 X114.378687 Y217.617211 Z-2.000000 I76.173010 J6.931028
G02 X116.355060 Y232.176850 Z-2.000000 I516.275750 J-62.667016
G02 X119.841771 Y239.951904 Z-2.000000 I16.289903 J-2.635850
G02 X125.966440 Y244.388790 Z-2.000000 I11.363061 J-9.239863
G03 X129.512401 Y247.267468 Z-2.000000 I-2.927430 J7.229313
G03 X130.395680 Y250.728850 Z-2.000000 I-4.421673 J2.971717
G03 X128.971703 Y253.159153 Z-2.000000 I-3.313216 J-0.308975
G03 X127.027300 Y253.669080 Z-2.000000 I-1.676593 J-2.430955
G02 X120.163097 Y255.584231 Z-2.000000 I-0.913643 J9.984125
G02 X118.485910 Y258.559000 Z-2.000000 I2.474365 J3.355244
G02 X118.281434 Y265.017515 Z-2.000000 I57.035524 J5.038233
G03 X118.082360 Y270.936730 Z-2.000000 I-50.696806 J1.257928
G03 X114.695679 Y283.661483 Z-2.000000 I-38.877003 J-3.534021
G03 X108.788877 Y291.550157 Z-2.000000 I-21.179173 J-9.702571
G03 X100.157272 Y296.202765 Z-2.000000 I-14.690492 J-16.921016
G03 X87.799640 Y297.337090 Z-2.000000 I-9.256133 J-32.957929
G03 X86.847497 Y297.237165 Z-2.000000 I3.051754 J-33.665196
G03 X85.904040 Y297.109930 Z-2.000000 I3.678915 J-30.840896
G01 X85.904130 Y297.109980 Z-2.000000
G00 Z5.000000

(End cutting path id: path836)


(Start cutting path id: path836)
(Change tool to Cylindrical cutter)

G00 Z5.000000
G00 X85.904130 Y297.109980

G01 Z-3.000000 F50.0(Penetrate)
G03 X62.475973 Y282.841453 Z-3.000000 I5.269463 J-35.020328 F200.000000
G03 X53.297910 Y249.394960 Z-3.000000 I40.076147 J-28.979833
G03 X47.125184 Y250.065259 Z-3.000000 I-8.798555 J-52.267951
G03 X41.575170 Y249.955730 Z-3.000000 I-1.985946 J-40.037828
G03 X15.554621 Y238.434155 Z-3.000000 I4.000402 J-44.178031
G03 X8.525910 Y220.230030 Z-3.000000 I14.905545 J-16.214085
G03 X13.926128 Y207.740039 Z-3.000000 I21.697135 J1.968627
G03 X22.001047 Y200.425700 Z-3.000000 I37.430862 J33.208645
G02 X30.687035 Y193.499798 Z-3.000000 I-70.559815 J-97.400868
G02 X35.093280 Y184.846870 Z-3.000000 I-8.614243 J-9.834885
G02 X34.075724 Y180.395010 Z-3.000000 I-7.307568 J-0.671939
G02 X31.139470 Y178.554940 Z-3.000000 I-3.279858 J1.970999
G02 X26.821410 Y180.547154 Z-3.000000 I-0.429460 J4.744893
G02 X24.399690 Y187.118210 Z-3.000000 I10.997155 J7.784713
G03 X20.186727 Y194.809433 Z-3.000000 I-10.922529 J-0.983488
G03 X13.763230 Y196.680140 Z-3.000000 I-5.588284 J-7.225021
G03 X6.259470 Y192.575871 Z-3.000000 I0.955897 J-10.659277
G03 X2.995120 Y181.400420 Z-3.000000 I12.562240 J-9.733916
G03 X12.998072 Y166.025205 Z-3.000000 I19.544957 J1.774227
G03 X36.781420 Y160.988490 Z-3.000000 I20.060185 J36.053321
G03 X61.918427 Y172.579019 Z-3.000000 I-3.740095 J41.164602
G03 X69.592670 Y193.391270 Z-3.000000 I-18.036362 J18.471684
G03 X63.872818 Y205.025751 Z-3.000000 I-18.018853 J-1.635333
G03 X54.679916 Y211.945756 Z-3.000000 I-38.338488 J-41.364706
G02 X45.174096 Y218.650755 Z-3.000000 I42.229441 J69.960384
G02 X39.953350 Y228.492560 Z-3.000000 I9.109424 J11.137861
G02 X41.939520 Y235.741651 Z-3.000000 I10.684952 J0.969082
G02 X45.768670 Y237.926960 Z-3.000000 I4.316698 J-3.116402
G02 X49.350296 Y237.058411 Z-3.000000 I0.515458 J-5.693443
G02 X50.842490 Y234.605220 Z-3.000000 I-1.740784 J-2.739282
G02 X50.409820 Y231.526783 Z-3.000000 I-6.713421 J-0.626062
G03 X49.684480 Y226.404540 Z-3.000000 I10.498069 J-4.099066
G03 X53.047983 Y221.030097 Z-3.000000 I6.985863 J0.632266
G03 X58.879460 Y219.686280 Z-3.000000 I4.969579 J8.240710
G03 X66.196352 Y224.063325 Z-3.000000 I-0.890295 J9.792430
G03 X68.580210 Y233.528350 Z-3.000000 I-12.335838 J8.139611
G03 X67.212705 Y241.522443 Z-3.000000 I-50.956995 J-4.602924
G02 X65.534270 Y251.342330 Z-3.000000 I60.808100 J15.446835
G02 X70.893617 Y272.617055 Z-3.000000 I33.022965 J2.993540
G02 X80.476560 Y278.345320 Z-3.000000 I10.749992 J-7.104009
G02 X84.787479 Y276.689907 Z-3.000000 I0.462271 J-5.236999
G02 X87.040210 Y271.646990 Z-3.000000 I-6.250543 J-5.816811
G02 X84.187931 Y257.564915 Z-3.000000 I-24.983302 J-2.269610
G02 X77.827330 Y249.751660 Z-3.000000 I-23.171669 J12.367912
G03 X75.221357 Y247.117295 Z-3.000000 I11.548573 J-14.030232
G03 X74.290750 Y244.029110 Z-3.000000 I3.343485 J-2.691850
G03 X77.982931 Y239.779911 Z-3.000000 I4.792243 J0.435348
G02 X81.471470 Y235.765730 Z-3.000000 I-1.039407 J-4.426255
G02 X80.105599 Y216.223386 Z-3.000000 I-61.359161 J-5.530331
G03 X78.361240 Y191.216810 Z-3.000000 I76.702374 J-17.914581
G03 X85.795531 Y174.908224 Z-3.000000 I26.920914 J2.423177
G03 X105.035710 Y167.722320 Z-3.000000 I17.101844 J16.439364
G03 X127.171144 Y177.030618 Z-3.000000 I-3.583123 J39.494318
G03 X140.101700 Y191.611900 Z-3.000000 I-45.393313 J53.278397
G03 X152.101945 Y174.591391 Z-3.000000 I30.447770 J8.726467
G03 X173.984490 Y167.042250 Z-3.000000 I23.612768 J32.956039
G03 X195.687565 Y171.091048 Z-3.000000 I2.083041 J49.026828
G03 X209.732940 Y181.532679 Z-3.000000 I-15.482868 J35.493766
G03 X218.755346 Y197.597180 Z-3.000000 I-36.843705 J31.258665
G03 X222.784650 Y219.590020 Z-3.000000 I-76.761762 J25.429032
G03 X215.283985 Y242.377062 Z-3.000000 I-33.998667 J1.436870
G03 X192.873770 Y253.689480 Z-3.000000 I-23.699340 J-19.095212
G03 X152.606899 Y237.108900 Z-3.000000 I-2.191980 J-51.862124
G03 X138.719680 Y203.791330 Z-3.000000 I38.352575 J-35.538855
G03 X138.710366 Y203.369661 Z-3.000000 I10.365993 J-0.439905
G02 X138.705080 Y202.951820 Z-3.000000 I-19.182025 J0.033715
G03 X137.622915 Y201.835692 Z-3.000000 I13.411781 J-14.086346
G02 X136.154600 Y200.241190 Z-3.000000 I-56.687725 J50.728230
G02 X130.633653 Y194.692955 Z-3.000000 I-71.550826 J65.677902
G02 X124.285460 Y191.869350 Z-3.000000 I-7.308707 J7.883870
G02 X118.193975 Y193.760306 Z-3.000000 I-0.744619 J8.358266
G02 X114.124540 Y201.467540 Z-3.000000 I7.230511 J8.745677
G01 X114.136040 Y201.469540 Z-3.000000
G02 X114.378687 Y217.617211 Z-3.000000 I76.173010 J6.931028
G02 X116.355060 Y232.176850 Z-3.000000 I516.275750 J-62.667016
G02 X119.841771 Y239.951904 Z-3.000000 I16.289903 J-2.635850
G02 X125.966440 Y244.388790 Z-3.000000 I11.363061 J-9.239863
G03 X129.512401 Y247.267468 Z-3.000000 I-2.927430 J7.229313
G03 X130.395680 Y250.728850 Z-3.000000 I-4.421673 J2.971717
G03 X128.971703 Y253.159153 Z-3.000000 I-3.313216 J-0.308975
G03 X127.027300 Y253.669080 Z-3.000000 I-1.676593 J-2.430955
G02 X120.163097 Y255.584231 Z-3.000000 I-0.913643 J9.984125
G02 X118.485910 Y258.559000 Z-3.000000 I2.474365 J3.355244
G02 X118.281434 Y265.017515 Z-3.000000 I57.035524 J5.038233
G03 X118.082360 Y270.936730 Z-3.000000 I-50.696806 J1.257928
G03 X114.695679 Y283.661483 Z-3.000000 I-38.877003 J-3.534021
G03 X108.788877 Y291.550157 Z-3.000000 I-21.179173 J-9.702571
G03 X100.157272 Y296.202765 Z-3.000000 I-14.690492 J-16.921016
G03 X87.799640 Y297.337090 Z-3.000000 I-9.256133 J-32.957929
G03 X86.847497 Y297.237165 Z-3.000000 I3.051754 J-33.665196
G03 X85.904040 Y297.109930 Z-3.000000 I3.678915 J-30.840896
G01 X85.904130 Y297.109980 Z-3.000000
G00 Z5.000000

(End cutting path id: path836)


(Start cutting path id: path836)
(Change tool to Cylindrical cutter)

G00 Z5.000000
G00 X85.904130 Y297.109980

G01 Z-4.000000 F50.0(Penetrate)
G03 X62.475973 Y282.841453 Z-4.000000 I5.269463 J-35.020328 F200.000000
G03 X53.297910 Y249.394960 Z-4.000000 I40.076147 J-28.979833
G03 X47.125184 Y250.065259 Z-4.000000 I-8.798555 J-52.267951
G03 X41.575170 Y249.955730 Z-4.000000 I-1.985946 J-40.037828
G03 X15.554621 Y238.434155 Z-4.000000 I4.000402 J-44.178031
G03 X8.525910 Y220.230030 Z-4.000000 I14.905545 J-16.214085
G03 X13.926128 Y207.740039 Z-4.000000 I21.697135 J1.968627
G03 X22.001047 Y200.425700 Z-4.000000 I37.430862 J33.208645
G02 X30.687035 Y193.499798 Z-4.000000 I-70.559815 J-97.400868
G02 X35.093280 Y184.846870 Z-4.000000 I-8.614243 J-9.834885
G02 X34.075724 Y180.395010 Z-4.000000 I-7.307568 J-0.671939
G02 X31.139470 Y178.554940 Z-4.000000 I-3.279858 J1.970999
G02 X26.821410 Y180.547154 Z-4.000000 I-0.429460 J4.744893
G02 X24.399690 Y187.118210 Z-4.000000 I10.997155 J7.784713
G03 X20.186727 Y194.809433 Z-4.000000 I-10.922529 J-0.983488
G03 X13.763230 Y196.680140 Z-4.000000 I-5.588284 J-7.225021
G03 X6.259470 Y192.575871 Z-4.000000 I0.955897 J-10.659277
G03 X2.995120 Y181.400420 Z-4.000000 I12.562240 J-9.733916
G03 X12.998072 Y166.025205 Z-4.000000 I19.544957 J1.774227
G03 X36.781420 Y160.988490 Z-4.000000 I20.060185 J36.053321
G03 X61.918427 Y172.579019 Z-4.000000 I-3.740095 J41.164602
G03 X69.592670 Y193.391270 Z-4.000000 I-18.036362 J18.471684
G03 X63.872818 Y205.025751 Z-4.000000 I-18.018853 J-1.635333
G03 X54.679916 Y211.945756 Z-4.000000 I-38.338488 J-41.364706
G02 X45.174096 Y218.650755 Z-4.000000 I42.229441 J69.960384
G02 X39.953350 Y228.492560 Z-4.000000 I9.109424 J11.137861
G02 X41.939520 Y235.741651 Z-4.000000 I10.684952 J0.969082
G02 X45.768670 Y237.926960 Z-4.000000 I4.316698 J-3.116402
G02 X49.350296 Y237.058411 Z-4.000000 I0.515458 J-5.693443
G02 X50.842490 Y234.605220 Z-4.000000 I-1.740784 J-2.739282
G02 X50.409820 Y231.526783 Z-4.000000 I-6.713421 J-0.626062
G03 X49.684480 Y226.404540 Z-4.000000 I10.498069 J-4.099066
G03 X53.047983 Y221.030097 Z-4.000000 I6.985863 J0.632266
G03 X58.879460 Y219.686280 Z-4.000000 I4.969579 J8.240710
G03 X66.196352 Y224.063325 Z-4.000000 I-0.890295 J9.792430
G03 X68.580210 Y233.528350 Z-4.000000 I-12.335838 J8.139611
G03 X67.212705 Y241.522443 Z-4.000000 I-50.956995 J-4.602924
G02 X65.534270 Y251.342330 Z-4.000000 I60.808100 J15.446835
G02 X70.893617 Y272.617055 Z-4.000000 I33.022965 J2.993540
G02 X80.476560 Y278.345320 Z-4.000000 I10.749992 J-7.104009
G02 X84.787479 Y276.689907 Z-4.000000 I0.462271 J-5.236999
G02 X87.040210 Y271.646990 Z-4.000000 I-6.250543 J-5.816811
G02 X84.187931 Y257.564915 Z-4.000000 I-24.983302 J-2.269610
G02 X77.827330 Y249.751660 Z-4.000000 I-23.171669 J12.367912
G03 X75.221357 Y247.117295 Z-4.000000 I11.548573 J-14.030232
G03 X74.290750 Y244.029110 Z-4.000000 I3.343485 J-2.691850
G03 X77.982931 Y239.779911 Z-4.000000 I4.792243 J0.435348
G02 X81.471470 Y235.765730 Z-4.000000 I-1.039407 J-4.426255
G02 X80.105599 Y216.223386 Z-4.000000 I-61.359161 J-5.530331
G03 X78.361240 Y191.216810 Z-4.000000 I76.702374 J-17.914581
G03 X85.795531 Y174.908224 Z-4.000000 I26.920914 J2.423177
G03 X105.035710 Y167.722320 Z-4.000000 I17.101844 J16.439364
G03 X127.171144 Y177.030618 Z-4.000000 I-3.583123 J39.494318
G03 X140.101700 Y191.611900 Z-4.000000 I-45.393313 J53.278397
G03 X152.101945 Y174.591391 Z-4.000000 I30.447770 J8.726467
G03 X173.984490 Y167.042250 Z-4.000000 I23.612768 J32.956039
G03 X195.687565 Y171.091048 Z-4.000000 I2.083041 J49.026828
G03 X209.732940 Y181.532679 Z-4.000000 I-15.482868 J35.493766
G03 X218.755346 Y197.597180 Z-4.000000 I-36.843705 J31.258665
G03 X222.784650 Y219.590020 Z-4.000000 I-76.761762 J25.429032
G03 X215.283985 Y242.377062 Z-4.000000 I-33.998667 J1.436870
G03 X192.873770 Y253.689480 Z-4.000000 I-23.699340 J-19.095212
G03 X152.606899 Y237.108900 Z-4.000000 I-2.191980 J-51.862124
G03 X138.719680 Y203.791330 Z-4.000000 I38.352575 J-35.538855
G03 X138.710366 Y203.369661 Z-4.000000 I10.365993 J-0.439905
G02 X138.705080 Y202.951820 Z-4.000000 I-19.182025 J0.033715
G03 X137.622915 Y201.835692 Z-4.000000 I13.411781 J-14.086346
G02 X136.154600 Y200.241190 Z-4.000000 I-56.687725 J50.728230
G02 X130.633653 Y194.692955 Z-4.000000 I-71.550826 J65.677902
G02 X124.285460 Y191.869350 Z-4.000000 I-7.308707 J7.883870
G02 X118.193975 Y193.760306 Z-4.000000 I-0.744619 J8.358266
G02 X114.124540 Y201.467540 Z-4.000000 I7.230511 J8.745677
G01 X114.136040 Y201.469540 Z-4.000000
G02 X114.378687 Y217.617211 Z-4.000000 I76.173010 J6.931028
G02 X116.355060 Y232.176850 Z-4.000000 I516.275750 J-62.667016
G02 X119.841771 Y239.951904 Z-4.000000 I16.289903 J-2.635850
G02 X125.966440 Y244.388790 Z-4.000000 I11.363061 J-9.239863
G03 X129.512401 Y247.267468 Z-4.000000 I-2.927430 J7.229313
G03 X130.395680 Y250.728850 Z-4.000000 I-4.421673 J2.971717
G03 X128.971703 Y253.159153 Z-4.000000 I-3.313216 J-0.308975
G03 X127.027300 Y253.669080 Z-4.000000 I-1.676593 J-2.430955
G02 X120.163097 Y255.584231 Z-4.000000 I-0.913643 J9.984125
G02 X118.485910 Y258.559000 Z-4.000000 I2.474365 J3.355244
G02 X118.281434 Y265.017515 Z-4.000000 I57.035524 J5.038233
G03 X118.082360 Y270.936730 Z-4.000000 I-50.696806 J1.257928
G03 X114.695679 Y283.661483 Z-4.000000 I-38.877003 J-3.534021
G03 X108.788877 Y291.550157 Z-4.000000 I-21.179173 J-9.702571
G03 X100.157272 Y296.202765 Z-4.000000 I-14.690492 J-16.921016
G03 X87.799640 Y297.337090 Z-4.000000 I-9.256133 J-32.957929
G03 X86.847497 Y297.237165 Z-4.000000 I3.051754 J-33.665196
G03 X85.904040 Y297.109930 Z-4.000000 I3.678915 J-30.840896
G01 X85.904130 Y297.109980 Z-4.000000
G00 Z5.000000

(End cutting path id: path836)


(Start cutting path id: path836-3)
(Change tool to Cylindrical cutter)

G00 Z5.000000
G00 X96.000380 Y139.220450

G01 Z-1.000000 F50.0(Penetrate)
G03 X71.417785 Y127.048113 Z-1.000000 I2.197195 J-35.346345 F200.000000
G03 X59.359600 Y94.528820 Z-1.000000 I37.397862 J-32.362404
G03 X53.268775 Y95.734560 Z-1.000000 I-13.320425 J-51.301591
G03 X47.730340 Y96.109160 Z-1.000000 I-5.467879 J-39.712259
G03 X20.804632 Y86.899274 Z-1.000000 I0.134781 J-44.358525
G03 X12.216080 Y69.377010 Z-1.000000 I13.435672 J-17.451481
G03 X16.507168 Y56.463885 Z-1.000000 I21.786140 J0.070093
G03 X23.913871 Y48.473603 Z-1.000000 I40.182721 J29.819918
G02 X31.963174 Y40.817021 Z-1.000000 I-78.780515 J-90.880690
G02 X35.598500 Y31.812990 Z-1.000000 I-9.438630 J-9.046680
G02 X34.196822 Y27.466753 Z-1.000000 I-7.338182 J-0.032549
G02 X31.111360 Y25.889600 Z-1.000000 I-3.095602 J2.249381
G02 X26.983368 Y28.250579 Z-1.000000 I-0.014275 J4.764270
G02 X25.143570 Y35.007700 Z-1.000000 I11.633782 J6.796619
G03 X21.616975 Y43.036836 Z-1.000000 I-10.966668 J-0.027780
G03 X15.380960 Y45.460270 Z-1.000000 I-6.196726 J-6.710485
G03 X7.548038 Y42.025630 Z-1.000000 I0.023192 J-10.701957
G03 X3.322110 Y31.177200 Z-1.000000 I11.666091 J-10.791747
G03 X11.946985 Y14.988679 Z-1.000000 I19.625310 J0.064088
G03 X35.200820 Y7.898270 Z-1.000000 I23.126081 J34.167663
G03 X61.252365 Y17.253854 Z-1.000000 I-0.138086 J41.333854
G03 X70.711310 Y37.318060 Z-1.000000 I-16.357835 J19.973373
G03 X66.027249 Y49.406782 Z-1.000000 I-18.092767 J-0.058635
G03 X57.472441 Y57.101671 Z-1.000000 I-41.797720 J-37.865834
G02 X48.587163 Y64.609644 Z-1.000000 I48.166258 J66.013758
G02 X44.244050 Y74.869020 Z-1.000000 I10.045479 J10.301539
G02 X46.854452 Y81.917422 Z-1.000000 I10.728567 J0.034223
G02 X50.859500 Y83.760680 Z-1.000000 I4.028680 J-3.480822
G02 X54.351807 Y82.583310 Z-1.000000 I0.017461 J-5.716322
G02 X55.624510 Y80.009360 Z-1.000000 I-1.972985 J-2.577175
G02 X54.925164 Y76.980353 Z-1.000000 I-6.742790 J-0.038442
G03 X53.756170 Y71.940820 Z-1.000000 I10.100998 J-4.998424
G03 X56.638471 Y66.293681 Z-1.000000 I7.014462 J0.021050
G03 X62.330620 Y64.446730 Z-1.000000 I5.668862 J7.776119
G03 X70.001160 Y68.169410 Z-1.000000 I-0.033435 J9.832763
G03 X73.200880 Y77.390650 Z-1.000000 I-11.579487 J9.183782
G03 X72.535296 Y85.473504 Z-1.000000 I-51.166734 J-0.144501
G02 X71.719120 Y95.402310 Z-1.000000 I61.923696 J10.088250
G02 X78.912292 Y116.128979 Z-1.000000 I33.158336 J0.103955
G02 X88.958010 Y121.000240 Z-1.000000 I10.089920 J-8.013873
G02 X93.108238 Y118.975355 Z-1.000000 I0.003916 J-5.257595
G02 X94.912890 Y113.755340 Z-1.000000 I-6.733535 J-5.249860
G02 X90.844116 Y99.975451 Z-1.000000 I-25.086363 J-0.083411
G02 X83.826760 Y92.746280 Z-1.000000 I-22.005461 J14.340242
G03 X81.001107 Y90.349066 Z-1.000000 I10.281828 J-14.983376
G03 X79.804890 Y87.353740 Z-1.000000 I3.096147 J-2.973005
G03 X83.112672 Y82.798915 Z-1.000000 I4.811926 J0.015999
G02 X86.238080 Y78.495970 Z-1.000000 I-1.421216 J-4.318818
G02 X83.174162 Y59.147028 Z-1.000000 I-61.608573 J-0.161293
G03 X79.256990 Y34.387640 Z-1.000000 I74.849575 J-24.531486
G03 X85.241622 Y17.493178 Z-1.000000 I27.029822 J0.067726
G03 X103.782280 Y8.657720 Z-1.000000 I18.469539 J14.886242
G03 X126.644751 Y16.001353 Z-1.000000 I-0.127237 J39.656079
G03 X140.796950 Y29.400190 Z-1.000000 I-40.577457 J57.032342
G03 X151.268089 Y11.398566 Z-1.000000 I31.092454 J6.039555
G03 X172.409410 Y1.970960 Z-1.000000 I26.395228 J30.772644
G03 X194.382779 Y4.112803 Z-1.000000 I6.348088 J48.658730
G03 X209.284756 Y13.290564 Z-1.000000 I-12.330463 J36.708125
G03 X219.672944 Y28.507580 Z-1.000000 I-33.979130 J34.350862
G03 X225.603720 Y50.065550 Z-1.000000 I-74.253377 J32.022505
G03 X220.117611 Y73.419612 Z-1.000000 I-33.744094 J4.394569
G03 X198.778620 Y86.642160 Z-1.000000 I-25.273411 J-16.957014
G03 X157.219886 Y73.634166 Z-1.000000 I-6.703720 J-51.473731
G03 X140.481690 Y41.653730 Z-1.000000 I35.109216 J-38.746273
G03 X140.435665 Y41.234471 Z-1.000000 I10.281720 J-1.340855
G02 X140.393990 Y40.818690 Z-1.000000 I-19.092791 J1.703745
G03 X139.218661 Y39.801117 Z-1.000000 I12.132712 J-15.201228
G02 X137.616970 Y38.340660 Z-1.000000 I-52.040119 J55.464144
G02 X131.633467 Y33.294719 Z-1.000000 I-65.554235 J71.663948
G02 X125.063340 Y31.035140 Z-1.000000 I-6.593775 J8.490877
G02 X119.159844 Y33.449820 Z-1.000000 I-0.013274 J8.391428
G02 X115.777620 Y41.482390 Z-1.000000 I7.965202 J8.082208
G01 X115.789220 Y41.483380 Z-1.000000
G02 X117.438314 Y57.548454 Z-1.000000 I76.488057 J0.265612
G02 X120.676120 Y71.880440 Z-1.000000 I508.834741 J-107.421519
G02 X124.827202 Y79.322020 Z-1.000000 I15.998186 J-4.045578
G02 X131.315260 Y83.208220 Z-1.000000 I10.514506 J-10.195048
G03 X135.098622 Y85.766893 Z-1.000000 I-2.286219 J7.456955
G03 X136.280220 Y89.138120 Z-1.000000 I-4.145838 J3.345780
G03 X135.073494 Y91.683287 Z-1.000000 I-3.327444 J-0.018970
G03 X133.180920 Y92.360740 Z-1.000000 I-1.882106 J-2.275634
G02 X126.509748 Y94.866851 Z-1.000000 I-0.040038 J10.025678
G02 X125.098210 Y97.976480 Z-1.000000 I2.757400 J3.126834
G02 X125.457272 Y104.428242 Z-1.000000 I57.187531 J0.053199
G03 X125.774990 Y110.342280 Z-1.000000 I-50.373237 J5.671741
G03 X123.510229 Y123.313779 Z-1.000000 I-39.037087 J-0.132228
G03 X118.313448 Y131.687248 Z-1.000000 I-21.944230 J-7.819772
G03 X110.120189 Y137.074446 Z-1.000000 I-16.109355 J-15.576263
G03 X97.908450 Y139.281490 Z-1.000000 I-12.093366 J-32.025736
G03 X96.951220 Y139.264929 Z-1.000000 I0.105945 J-33.796985
G03 X96.000260 Y139.220390 Z-1.000000 I0.976205 J-31.017114
G01 X96.000380 Y139.220450 Z-1.000000
G00 Z5.000000

(End cutting path id: path836-3)


(Start cutting path id: path836-3)
(Change tool to Cylindrical cutter)

G00 Z5.000000
G00 X96.000380 Y139.220450

G01 Z-2.000000 F50.0(Penetrate)
G03 X71.417785 Y127.048113 Z-2.000000 I2.197195 J-35.346345 F200.000000
G03 X59.359600 Y94.528820 Z-2.000000 I37.397862 J-32.362404
G03 X53.268775 Y95.734560 Z-2.000000 I-13.320425 J-51.301591
G03 X47.730340 Y96.109160 Z-2.000000 I-5.467879 J-39.712259
G03 X20.804632 Y86.899274 Z-2.000000 I0.134781 J-44.358525
G03 X12.216080 Y69.377010 Z-2.000000 I13.435672 J-17.451481
G03 X16.507168 Y56.463885 Z-2.000000 I21.786140 J0.070093
G03 X23.913871 Y48.473603 Z-2.000000 I40.182721 J29.819918
G02 X31.963174 Y40.817021 Z-2.000000 I-78.780515 J-90.880690
G02 X35.598500 Y31.812990 Z-2.000000 I-9.438630 J-9.046680
G02 X34.196822 Y27.466753 Z-2.000000 I-7.338182 J-0.032549
G02 X31.111360 Y25.889600 Z-2.000000 I-3.095602 J2.249381
G02 X26.983368 Y28.250579 Z-2.000000 I-0.014275 J4.764270
G02 X25.143570 Y35.007700 Z-2.000000 I11.633782 J6.796619
G03 X21.616975 Y43.036836 Z-2.000000 I-10.966668 J-0.027780
G03 X15.380960 Y45.460270 Z-2.000000 I-6.196726 J-6.710485
G03 X7.548038 Y42.025630 Z-2.000000 I0.023192 J-10.701957
G03 X3.322110 Y31.177200 Z-2.000000 I11.666091 J-10.791747
G03 X11.946985 Y14.988679 Z-2.000000 I19.625310 J0.064088
G03 X35.200820 Y7.898270 Z-2.000000 I23.126081 J34.167663
G03 X61.252365 Y17.253854 Z-2.000000 I-0.138086 J41.333854
G03 X70.711310 Y37.318060 Z-2.000000 I-16.357835 J19.973373
G03 X66.027249 Y49.406782 Z-2.000000 I-18.092767 J-0.058635
G03 X57.472441 Y57.101671 Z-2.000000 I-41.797720 J-37.865834
G02 X48.587163 Y64.609644 Z-2.000000 I48.166258 J66.013758
G02 X44.244050 Y74.869020 Z-2.000000 I10.045479 J10.301539
G02 X46.854452 Y81.917422 Z-2.000000 I10.728567 J0.034223
G02 X50.859500 Y83.760680 Z-2.000000 I4.028680 J-3.480822
G02 X54.351807 Y82.583310 Z-2.000000 I0.017461 J-5.716322
G02 X55.624510 Y80.009360 Z-2.000000 I-1.972985 J-2.577175
G02 X54.925164 Y76.980353 Z-2.000000 I-6.742790 J-0.038442
G03 X53.756170 Y71.940820 Z-2.000000 I10.100998 J-4.998424
G03 X56.638471 Y66.293681 Z-2.000000 I7.014462 J0.021050
G03 X62.330620 Y64.446730 Z-2.000000 I5.668862 J7.776119
G03 X70.001160 Y68.169410 Z-2.000000 I-0.033435 J9.832763
G03 X73.200880 Y77.390650 Z-2.000000 I-11.579487 J9.183782
G03 X72.535296 Y85.473504 Z-2.000000 I-51.166734 J-0.144501
G02 X71.719120 Y95.402310 Z-2.000000 I61.923696 J10.088250
G02 X78.912292 Y116.128979 Z-2.000000 I33.158336 J0.103955
G02 X88.958010 Y121.000240 Z-2.000000 I10.089920 J-8.013873
G02 X93.108238 Y118.975355 Z-2.000000 I0.003916 J-5.257595
G02 X94.912890 Y113.755340 Z-2.000000 I-6.733535 J-5.249860
G02 X90.844116 Y99.975451 Z-2.000000 I-25.086363 J-0.083411
G02 X83.826760 Y92.746280 Z-2.000000 I-22.005461 J14.340242
G03 X81.001107 Y90.349066 Z-2.000000 I10.281828 J-14.983376
G03 X79.804890 Y87.353740 Z-2.000000 I3.096147 J-2.973005
G03 X83.112672 Y82.798915 Z-2.000000 I4.811926 J0.015999
G02 X86.238080 Y78.495970 Z-2.000000 I-1.421216 J-4.318818
G02 X83.174162 Y59.147028 Z-2.000000 I-61.608573 J-0.161293
G03 X79.256990 Y34.387640 Z-2.000000 I74.849575 J-24.531486
G03 X85.241622 Y17.493178 Z-2.000000 I27.029822 J0.067726
G03 X103.782280 Y8.657720 Z-2.000000 I18.469539 J14.886242
G03 X126.644751 Y16.001353 Z-2.000000 I-0.127237 J39.656079
G03 X140.796950 Y29.400190 Z-2.000000 I-40.577457 J57.032342
G03 X151.268089 Y11.398566 Z-2.000000 I31.092454 J6.039555
G03 X172.409410 Y1.970960 Z-2.000000 I26.395228 J30.772644
G03 X194.382779 Y4.112803 Z-2.000000 I6.348088 J48.658730
G03 X209.284756 Y13.290564 Z-2.000000 I-12.330463 J36.708125
G03 X219.672944 Y28.507580 Z-2.000000 I-33.979130 J34.350862
G03 X225.603720 Y50.065550 Z-2.000000 I-74.253377 J32.022505
G03 X220.117611 Y73.419612 Z-2.000000 I-33.744094 J4.394569
G03 X198.778620 Y86.642160 Z-2.000000 I-25.273411 J-16.957014
G03 X157.219886 Y73.634166 Z-2.000000 I-6.703720 J-51.473731
G03 X140.481690 Y41.653730 Z-2.000000 I35.109216 J-38.746273
G03 X140.435665 Y41.234471 Z-2.000000 I10.281720 J-1.340855
G02 X140.393990 Y40.818690 Z-2.000000 I-19.092791 J1.703745
G03 X139.218661 Y39.801117 Z-2.000000 I12.132712 J-15.201228
G02 X137.616970 Y38.340660 Z-2.000000 I-52.040119 J55.464144
G02 X131.633467 Y33.294719 Z-2.000000 I-65.554235 J71.663948
G02 X125.063340 Y31.035140 Z-2.000000 I-6.593775 J8.490877
G02 X119.159844 Y33.449820 Z-2.000000 I-0.013274 J8.391428
G02 X115.777620 Y41.482390 Z-2.000000 I7.965202 J8.082208
G01 X115.789220 Y41.483380 Z-2.000000
G02 X117.438314 Y57.548454 Z-2.000000 I76.488057 J0.265612
G02 X120.676120 Y71.880440 Z-2.000000 I508.834741 J-107.421519
G02 X124.827202 Y79.322020 Z-2.000000 I15.998186 J-4.045578
G02 X131.315260 Y83.208220 Z-2.000000 I10.514506 J-10.195048
G03 X135.098622 Y85.766893 Z-2.000000 I-2.286219 J7.456955
G03 X136.280220 Y89.138120 Z-2.000000 I-4.145838 J3.345780
G03 X135.073494 Y91.683287 Z-2.000000 I-3.327444 J-0.018970
G03 X133.180920 Y92.360740 Z-2.000000 I-1.882106 J-2.275634
G02 X126.509748 Y94.866851 Z-2.000000 I-0.040038 J10.025678
G02 X125.098210 Y97.976480 Z-2.000000 I2.757400 J3.126834
G02 X125.457272 Y104.428242 Z-2.000000 I57.187531 J0.053199
G03 X125.774990 Y110.342280 Z-2.000000 I-50.373237 J5.671741
G03 X123.510229 Y123.313779 Z-2.000000 I-39.037087 J-0.132228
G03 X118.313448 Y131.687248 Z-2.000000 I-21.944230 J-7.819772
G03 X110.120189 Y137.074446 Z-2.000000 I-16.109355 J-15.576263
G03 X97.908450 Y139.281490 Z-2.000000 I-12.093366 J-32.025736
G03 X96.951220 Y139.264929 Z-2.000000 I0.105945 J-33.796985
G03 X96.000260 Y139.220390 Z-2.000000 I0.976205 J-31.017114
G01 X96.000380 Y139.220450 Z-2.000000
G00 Z5.000000

(End cutting path id: path836-3)


(Start cutting path id: path836-3)
(Change tool to Cylindrical cutter)

G00 Z5.000000
G00 X96.000380 Y139.220450

G01 Z-3.000000 F50.0(Penetrate)
G03 X71.417785 Y127.048113 Z-3.000000 I2.197195 J-35.346345 F200.000000
G03 X59.359600 Y94.528820 Z-3.000000 I37.397862 J-32.362404
G03 X53.268775 Y95.734560 Z-3.000000 I-13.320425 J-51.301591
G03 X47.730340 Y96.109160 Z-3.000000 I-5.467879 J-39.712259
G03 X20.804632 Y86.899274 Z-3.000000 I0.134781 J-44.358525
G03 X12.216080 Y69.377010 Z-3.000000 I13.435672 J-17.451481
G03 X16.507168 Y56.463885 Z-3.000000 I21.786140 J0.070093
G03 X23.913871 Y48.473603 Z-3.000000 I40.182721 J29.819918
G02 X31.963174 Y40.817021 Z-3.000000 I-78.780515 J-90.880690
G02 X35.598500 Y31.812990 Z-3.000000 I-9.438630 J-9.046680
G02 X34.196822 Y27.466753 Z-3.000000 I-7.338182 J-0.032549
G02 X31.111360 Y25.889600 Z-3.000000 I-3.095602 J2.249381
G02 X26.983368 Y28.250579 Z-3.000000 I-0.014275 J4.764270
G02 X25.143570 Y35.007700 Z-3.000000 I11.633782 J6.796619
G03 X21.616975 Y43.036836 Z-3.000000 I-10.966668 J-0.027780
G03 X15.380960 Y45.460270 Z-3.000000 I-6.196726 J-6.710485
G03 X7.548038 Y42.025630 Z-3.000000 I0.023192 J-10.701957
G03 X3.322110 Y31.177200 Z-3.000000 I11.666091 J-10.791747
G03 X11.946985 Y14.988679 Z-3.000000 I19.625310 J0.064088
G03 X35.200820 Y7.898270 Z-3.000000 I23.126081 J34.167663
G03 X61.252365 Y17.253854 Z-3.000000 I-0.138086 J41.333854
G03 X70.711310 Y37.318060 Z-3.000000 I-16.357835 J19.973373
G03 X66.027249 Y49.406782 Z-3.000000 I-18.092767 J-0.058635
G03 X57.472441 Y57.101671 Z-3.000000 I-41.797720 J-37.865834
G02 X48.587163 Y64.609644 Z-3.000000 I48.166258 J66.013758
G02 X44.244050 Y74.869020 Z-3.000000 I10.045479 J10.301539
G02 X46.854452 Y81.917422 Z-3.000000 I10.728567 J0.034223
G02 X50.859500 Y83.760680 Z-3.000000 I4.028680 J-3.480822
G02 X54.351807 Y82.583310 Z-3.000000 I0.017461 J-5.716322
G02 X55.624510 Y80.009360 Z-3.000000 I-1.972985 J-2.577175
G02 X54.925164 Y76.980353 Z-3.000000 I-6.742790 J-0.038442
G03 X53.756170 Y71.940820 Z-3.000000 I10.100998 J-4.998424
G03 X56.638471 Y66.293681 Z-3.000000 I7.014462 J0.021050
G03 X62.330620 Y64.446730 Z-3.000000 I5.668862 J7.776119
G03 X70.001160 Y68.169410 Z-3.000000 I-0.033435 J9.832763
G03 X73.200880 Y77.390650 Z-3.000000 I-11.579487 J9.183782
G03 X72.535296 Y85.473504 Z-3.000000 I-51.166734 J-0.144501
G02 X71.719120 Y95.402310 Z-3.000000 I61.923696 J10.088250
G02 X78.912292 Y116.128979 Z-3.000000 I33.158336 J0.103955
G02 X88.958010 Y121.000240 Z-3.000000 I10.089920 J-8.013873
G02 X93.108238 Y118.975355 Z-3.000000 I0.003916 J-5.257595
G02 X94.912890 Y113.755340 Z-3.000000 I-6.733535 J-5.249860
G02 X90.844116 Y99.975451 Z-3.000000 I-25.086363 J-0.083411
G02 X83.826760 Y92.746280 Z-3.000000 I-22.005461 J14.340242
G03 X81.001107 Y90.349066 Z-3.000000 I10.281828 J-14.983376
G03 X79.804890 Y87.353740 Z-3.000000 I3.096147 J-2.973005
G03 X83.112672 Y82.798915 Z-3.000000 I4.811926 J0.015999
G02 X86.238080 Y78.495970 Z-3.000000 I-1.421216 J-4.318818
G02 X83.174162 Y59.147028 Z-3.000000 I-61.608573 J-0.161293
G03 X79.256990 Y34.387640 Z-3.000000 I74.849575 J-24.531486
G03 X85.241622 Y17.493178 Z-3.000000 I27.029822 J0.067726
G03 X103.782280 Y8.657720 Z-3.000000 I18.469539 J14.886242
G03 X126.644751 Y16.001353 Z-3.000000 I-0.127237 J39.656079
G03 X140.796950 Y29.400190 Z-3.000000 I-40.577457 J57.032342
G03 X151.268089 Y11.398566 Z-3.000000 I31.092454 J6.039555
G03 X172.409410 Y1.970960 Z-3.000000 I26.395228 J30.772644
G03 X194.382779 Y4.112803 Z-3.000000 I6.348088 J48.658730
G03 X209.284756 Y13.290564 Z-3.000000 I-12.330463 J36.708125
G03 X219.672944 Y28.507580 Z-3.000000 I-33.979130 J34.350862
G03 X225.603720 Y50.065550 Z-3.000000 I-74.253377 J32.022505
G03 X220.117611 Y73.419612 Z-3.000000 I-33.744094 J4.394569
G03 X198.778620 Y86.642160 Z-3.000000 I-25.273411 J-16.957014
G03 X157.219886 Y73.634166 Z-3.000000 I-6.703720 J-51.473731
G03 X140.481690 Y41.653730 Z-3.000000 I35.109216 J-38.746273
G03 X140.435665 Y41.234471 Z-3.000000 I10.281720 J-1.340855
G02 X140.393990 Y40.818690 Z-3.000000 I-19.092791 J1.703745
G03 X139.218661 Y39.801117 Z-3.000000 I12.132712 J-15.201228
G02 X137.616970 Y38.340660 Z-3.000000 I-52.040119 J55.464144
G02 X131.633467 Y33.294719 Z-3.000000 I-65.554235 J71.663948
G02 X125.063340 Y31.035140 Z-3.000000 I-6.593775 J8.490877
G02 X119.159844 Y33.449820 Z-3.000000 I-0.013274 J8.391428
G02 X115.777620 Y41.482390 Z-3.000000 I7.965202 J8.082208
G01 X115.789220 Y41.483380 Z-3.000000
G02 X117.438314 Y57.548454 Z-3.000000 I76.488057 J0.265612
G02 X120.676120 Y71.880440 Z-3.000000 I508.834741 J-107.421519
G02 X124.827202 Y79.322020 Z-3.000000 I15.998186 J-4.045578
G02 X131.315260 Y83.208220 Z-3.000000 I10.514506 J-10.195048
G03 X135.098622 Y85.766893 Z-3.000000 I-2.286219 J7.456955
G03 X136.280220 Y89.138120 Z-3.000000 I-4.145838 J3.345780
G03 X135.073494 Y91.683287 Z-3.000000 I-3.327444 J-0.018970
G03 X133.180920 Y92.360740 Z-3.000000 I-1.882106 J-2.275634
G02 X126.509748 Y94.866851 Z-3.000000 I-0.040038 J10.025678
G02 X125.098210 Y97.976480 Z-3.000000 I2.757400 J3.126834
G02 X125.457272 Y104.428242 Z-3.000000 I57.187531 J0.053199
G03 X125.774990 Y110.342280 Z-3.000000 I-50.373237 J5.671741
G03 X123.510229 Y123.313779 Z-3.000000 I-39.037087 J-0.132228
G03 X118.313448 Y131.687248 Z-3.000000 I-21.944230 J-7.819772
G03 X110.120189 Y137.074446 Z-3.000000 I-16.109355 J-15.576263
G03 X97.908450 Y139.281490 Z-3.000000 I-12.093366 J-32.025736
G03 X96.951220 Y139.264929 Z-3.000000 I0.105945 J-33.796985
G03 X96.000260 Y139.220390 Z-3.000000 I0.976205 J-31.017114
G01 X96.000380 Y139.220450 Z-3.000000
G00 Z5.000000

(End cutting path id: path836-3)


(Start cutting path id: path836-3)
(Change tool to Cylindrical cutter)

G00 Z5.000000
G00 X96.000380 Y139.220450

G01 Z-4.000000 F50.0(Penetrate)
G03 X71.417785 Y127.048113 Z-4.000000 I2.197195 J-35.346345 F200.000000
G03 X59.359600 Y94.528820 Z-4.000000 I37.397862 J-32.362404
G03 X53.268775 Y95.734560 Z-4.000000 I-13.320425 J-51.301591
G03 X47.730340 Y96.109160 Z-4.000000 I-5.467879 J-39.712259
G03 X20.804632 Y86.899274 Z-4.000000 I0.134781 J-44.358525
G03 X12.216080 Y69.377010 Z-4.000000 I13.435672 J-17.451481
G03 X16.507168 Y56.463885 Z-4.000000 I21.786140 J0.070093
G03 X23.913871 Y48.473603 Z-4.000000 I40.182721 J29.819918
G02 X31.963174 Y40.817021 Z-4.000000 I-78.780515 J-90.880690
G02 X35.598500 Y31.812990 Z-4.000000 I-9.438630 J-9.046680
G02 X34.196822 Y27.466753 Z-4.000000 I-7.338182 J-0.032549
G02 X31.111360 Y25.889600 Z-4.000000 I-3.095602 J2.249381
G02 X26.983368 Y28.250579 Z-4.000000 I-0.014275 J4.764270
G02 X25.143570 Y35.007700 Z-4.000000 I11.633782 J6.796619
G03 X21.616975 Y43.036836 Z-4.000000 I-10.966668 J-0.027780
G03 X15.380960 Y45.460270 Z-4.000000 I-6.196726 J-6.710485
G03 X7.548038 Y42.025630 Z-4.000000 I0.023192 J-10.701957
G03 X3.322110 Y31.177200 Z-4.000000 I11.666091 J-10.791747
G03 X11.946985 Y14.988679 Z-4.000000 I19.625310 J0.064088
G03 X35.200820 Y7.898270 Z-4.000000 I23.126081 J34.167663
G03 X61.252365 Y17.253854 Z-4.000000 I-0.138086 J41.333854
G03 X70.711310 Y37.318060 Z-4.000000 I-16.357835 J19.973373
G03 X66.027249 Y49.406782 Z-4.000000 I-18.092767 J-0.058635
G03 X57.472441 Y57.101671 Z-4.000000 I-41.797720 J-37.865834
G02 X48.587163 Y64.609644 Z-4.000000 I48.166258 J66.013758
G02 X44.244050 Y74.869020 Z-4.000000 I10.045479 J10.301539
G02 X46.854452 Y81.917422 Z-4.000000 I10.728567 J0.034223
G02 X50.859500 Y83.760680 Z-4.000000 I4.028680 J-3.480822
G02 X54.351807 Y82.583310 Z-4.000000 I0.017461 J-5.716322
G02 X55.624510 Y80.009360 Z-4.000000 I-1.972985 J-2.577175
G02 X54.925164 Y76.980353 Z-4.000000 I-6.742790 J-0.038442
G03 X53.756170 Y71.940820 Z-4.000000 I10.100998 J-4.998424
G03 X56.638471 Y66.293681 Z-4.000000 I7.014462 J0.021050
G03 X62.330620 Y64.446730 Z-4.000000 I5.668862 J7.776119
G03 X70.001160 Y68.169410 Z-4.000000 I-0.033435 J9.832763
G03 X73.200880 Y77.390650 Z-4.000000 I-11.579487 J9.183782
G03 X72.535296 Y85.473504 Z-4.000000 I-51.166734 J-0.144501
G02 X71.719120 Y95.402310 Z-4.000000 I61.923696 J10.088250
G02 X78.912292 Y116.128979 Z-4.000000 I33.158336 J0.103955
G02 X88.958010 Y121.000240 Z-4.000000 I10.089920 J-8.013873
G02 X93.108238 Y118.975355 Z-4.000000 I0.003916 J-5.257595
G02 X94.912890 Y113.755340 Z-4.000000 I-6.733535 J-5.249860
G02 X90.844116 Y99.975451 Z-4.000000 I-25.086363 J-0.083411
G02 X83.826760 Y92.746280 Z-4.000000 I-22.005461 J14.340242
G03 X81.001107 Y90.349066 Z-4.000000 I10.281828 J-14.983376
G03 X79.804890 Y87.353740 Z-4.000000 I3.096147 J-2.973005
G03 X83.112672 Y82.798915 Z-4.000000 I4.811926 J0.015999
G02 X86.238080 Y78.495970 Z-4.000000 I-1.421216 J-4.318818
G02 X83.174162 Y59.147028 Z-4.000000 I-61.608573 J-0.161293
G03 X79.256990 Y34.387640 Z-4.000000 I74.849575 J-24.531486
G03 X85.241622 Y17.493178 Z-4.000000 I27.029822 J0.067726
G03 X103.782280 Y8.657720 Z-4.000000 I18.469539 J14.886242
G03 X126.644751 Y16.001353 Z-4.000000 I-0.127237 J39.656079
G03 X140.796950 Y29.400190 Z-4.000000 I-40.577457 J57.032342
G03 X151.268089 Y11.398566 Z-4.000000 I31.092454 J6.039555
G03 X172.409410 Y1.970960 Z-4.000000 I26.395228 J30.772644
G03 X194.382779 Y4.112803 Z-4.000000 I6.348088 J48.658730
G03 X209.284756 Y13.290564 Z-4.000000 I-12.330463 J36.708125
G03 X219.672944 Y28.507580 Z-4.000000 I-33.979130 J34.350862
G03 X225.603720 Y50.065550 Z-4.000000 I-74.253377 J32.022505
G03 X220.117611 Y73.419612 Z-4.000000 I-33.744094 J4.394569
G03 X198.778620 Y86.642160 Z-4.000000 I-25.273411 J-16.957014
G03 X157.219886 Y73.634166 Z-4.000000 I-6.703720 J-51.473731
G03 X140.481690 Y41.653730 Z-4.000000 I35.109216 J-38.746273
G03 X140.435665 Y41.234471 Z-4.000000 I10.281720 J-1.340855
G02 X140.393990 Y40.818690 Z-4.000000 I-19.092791 J1.703745
G03 X139.218661 Y39.801117 Z-4.000000 I12.132712 J-15.201228
G02 X137.616970 Y38.340660 Z-4.000000 I-52.040119 J55.464144
G02 X131.633467 Y33.294719 Z-4.000000 I-65.554235 J71.663948
G02 X125.063340 Y31.035140 Z-4.000000 I-6.593775 J8.490877
G02 X119.159844 Y33.449820 Z-4.000000 I-0.013274 J8.391428
G02 X115.777620 Y41.482390 Z-4.000000 I7.965202 J8.082208
G01 X115.789220 Y41.483380 Z-4.000000
G02 X117.438314 Y57.548454 Z-4.000000 I76.488057 J0.265612
G02 X120.676120 Y71.880440 Z-4.000000 I508.834741 J-107.421519
G02 X124.827202 Y79.322020 Z-4.000000 I15.998186 J-4.045578
G02 X131.315260 Y83.208220 Z-4.000000 I10.514506 J-10.195048
G03 X135.098622 Y85.766893 Z-4.000000 I-2.286219 J7.456955
G03 X136.280220 Y89.138120 Z-4.000000 I-4.145838 J3.345780
G03 X135.073494 Y91.683287 Z-4.000000 I-3.327444 J-0.018970
G03 X133.180920 Y92.360740 Z-4.000000 I-1.882106 J-2.275634
G02 X126.509748 Y94.866851 Z-4.000000 I-0.040038 J10.025678
G02 X125.098210 Y97.976480 Z-4.000000 I2.757400 J3.126834
G02 X125.457272 Y104.428242 Z-4.000000 I57.187531 J0.053199
G03 X125.774990 Y110.342280 Z-4.000000 I-50.373237 J5.671741
G03 X123.510229 Y123.313779 Z-4.000000 I-39.037087 J-0.132228
G03 X118.313448 Y131.687248 Z-4.000000 I-21.944230 J-7.819772
G03 X110.120189 Y137.074446 Z-4.000000 I-16.109355 J-15.576263
G03 X97.908450 Y139.281490 Z-4.000000 I-12.093366 J-32.025736
G03 X96.951220 Y139.264929 Z-4.000000 I0.105945 J-33.796985
G03 X96.000260 Y139.220390 Z-4.000000 I0.976205 J-31.017114
G01 X96.000380 Y139.220450 Z-4.000000
G00 Z5.000000

(End cutting path id: path836-3)


(Start cutting path id: path836-3)
(Change tool to Cylindrical cutter)

G00 Z5.000000
G00 X195.306480 Y72.680950

G01 Z-1.000000 F50.0(Penetrate)
G02 X195.574277 Y72.688315 Z-1.000000 I0.220313 J-3.138491 F200.000000
G02 X195.752060 Y72.674950 Z-1.000000 I-0.022459 J-1.487891
G02 X196.885400 Y72.014981 Z-1.000000 I-0.218121 J-1.677677
G02 X197.191470 Y70.855980 Z-1.000000 I-1.267816 J-0.954721
G02 X195.979280 Y68.413857 Z-1.000000 I-4.155285 J0.540641
G03 X192.003940 Y60.410990 Z-1.000000 I9.654363 J-9.784490
G03 X193.013141 Y55.681055 Z-1.000000 I7.180840 J-0.940495
G03 X199.628310 Y49.120410 Z-1.000000 I16.777481 J10.301521
G02 X202.596390 Y44.991444 Z-1.000000 I-3.879611 J-5.920108
G02 X203.012810 Y38.380390 Z-1.000000 I-16.711830 J-4.371293
G02 X197.366430 Y25.268748 Z-1.000000 I-25.825820 J3.350001
G02 X186.119580 Y20.798170 Z-1.000000 I-9.636796 J7.861343
G02 X178.471044 Y26.520323 Z-1.000000 I1.248262 J9.641292
G02 X176.348360 Y41.321530 Z-1.000000 I25.421936 J11.198647
G02 X182.316293 Y61.680211 Z-1.000000 I67.824390 J-8.827947
G02 X188.373240 Y69.304160 Z-1.000000 I19.273479 J-9.094084
G02 X193.465328 Y72.264468 Z-1.000000 I12.237245 J-15.189884
G02 X195.306470 Y72.681060 Z-1.000000 I2.275708 J-5.780773
G01 X195.306480 Y72.680950 Z-1.000000
G00 Z5.000000

(End cutting path id: path836-3)


(Start cutting path id: path836-3)
(Change tool to Cylindrical cutter)

G00 Z5.000000
G00 X195.306480 Y72.680950

G01 Z-2.000000 F50.0(Penetrate)
G02 X195.574277 Y72.688315 Z-2.000000 I0.220313 J-3.138491 F200.000000
G02 X195.752060 Y72.674950 Z-2.000000 I-0.022459 J-1.487891
G02 X196.885400 Y72.014981 Z-2.000000 I-0.218121 J-1.677677
G02 X197.191470 Y70.855980 Z-2.000000 I-1.267816 J-0.954721
G02 X195.979280 Y68.413857 Z-2.000000 I-4.155285 J0.540641
G03 X192.003940 Y60.410990 Z-2.000000 I9.654363 J-9.784490
G03 X193.013141 Y55.681055 Z-2.000000 I7.180840 J-0.940495
G03 X199.628310 Y49.120410 Z-2.000000 I16.777481 J10.301521
G02 X202.596390 Y44.991444 Z-2.000000 I-3.879611 J-5.920108
G02 X203.012810 Y38.380390 Z-2.000000 I-16.711830 J-4.371293
G02 X197.366430 Y25.268748 Z-2.000000 I-25.825820 J3.350001
G02 X186.119580 Y20.798170 Z-2.000000 I-9.636796 J7.861343
G02 X178.471044 Y26.520323 Z-2.000000 I1.248262 J9.641292
G02 X176.348360 Y41.321530 Z-2.000000 I25.421936 J11.198647
G02 X182.316293 Y61.680211 Z-2.000000 I67.824390 J-8.827947
G02 X188.373240 Y69.304160 Z-2.000000 I19.273479 J-9.094084
G02 X193.465328 Y72.264468 Z-2.000000 I12.237245 J-15.189884
G02 X195.306470 Y72.681060 Z-2.000000 I2.275708 J-5.780773
G01 X195.306480 Y72.680950 Z-2.000000
G00 Z5.000000

(End cutting path id: path836-3)


(Start cutting path id: path836-3)
(Change tool to Cylindrical cutter)

G00 Z5.000000
G00 X195.306480 Y72.680950

G01 Z-3.000000 F50.0(Penetrate)
G02 X195.574277 Y72.688315 Z-3.000000 I0.220313 J-3.138491 F200.000000
G02 X195.752060 Y72.674950 Z-3.000000 I-0.022459 J-1.487891
G02 X196.885400 Y72.014981 Z-3.000000 I-0.218121 J-1.677677
G02 X197.191470 Y70.855980 Z-3.000000 I-1.267816 J-0.954721
G02 X195.979280 Y68.413857 Z-3.000000 I-4.155285 J0.540641
G03 X192.003940 Y60.410990 Z-3.000000 I9.654363 J-9.784490
G03 X193.013141 Y55.681055 Z-3.000000 I7.180840 J-0.940495
G03 X199.628310 Y49.120410 Z-3.000000 I16.777481 J10.301521
G02 X202.596390 Y44.991444 Z-3.000000 I-3.879611 J-5.920108
G02 X203.012810 Y38.380390 Z-3.000000 I-16.711830 J-4.371293
G02 X197.366430 Y25.268748 Z-3.000000 I-25.825820 J3.350001
G02 X186.119580 Y20.798170 Z-3.000000 I-9.636796 J7.861343
G02 X178.471044 Y26.520323 Z-3.000000 I1.248262 J9.641292
G02 X176.348360 Y41.321530 Z-3.000000 I25.421936 J11.198647
G02 X182.316293 Y61.680211 Z-3.000000 I67.824390 J-8.827947
G02 X188.373240 Y69.304160 Z-3.000000 I19.273479 J-9.094084
G02 X193.465328 Y72.264468 Z-3.000000 I12.237245 J-15.189884
G02 X195.306470 Y72.681060 Z-3.000000 I2.275708 J-5.780773
G01 X195.306480 Y72.680950 Z-3.000000
G00 Z5.000000

(End cutting path id: path836-3)


(Start cutting path id: path836-3)
(Change tool to Cylindrical cutter)

G00 Z5.000000
G00 X195.306480 Y72.680950

G01 Z-4.000000 F50.0(Penetrate)
G02 X195.574277 Y72.688315 Z-4.000000 I0.220313 J-3.138491 F200.000000
G02 X195.752060 Y72.674950 Z-4.000000 I-0.022459 J-1.487891
G02 X196.885400 Y72.014981 Z-4.000000 I-0.218121 J-1.677677
G02 X197.191470 Y70.855980 Z-4.000000 I-1.267816 J-0.954721
G02 X195.979280 Y68.413857 Z-4.000000 I-4.155285 J0.540641
G03 X192.003940 Y60.410990 Z-4.000000 I9.654363 J-9.784490
G03 X193.013141 Y55.681055 Z-4.000000 I7.180840 J-0.940495
G03 X199.628310 Y49.120410 Z-4.000000 I16.777481 J10.301521
G02 X202.596390 Y44.991444 Z-4.000000 I-3.879611 J-5.920108
G02 X203.012810 Y38.380390 Z-4.000000 I-16.711830 J-4.371293
G02 X197.366430 Y25.268748 Z-4.000000 I-25.825820 J3.350001
G02 X186.119580 Y20.798170 Z-4.000000 I-9.636796 J7.861343
G02 X178.471044 Y26.520323 Z-4.000000 I1.248262 J9.641292
G02 X176.348360 Y41.321530 Z-4.000000 I25.421936 J11.198647
G02 X182.316293 Y61.680211 Z-4.000000 I67.824390 J-8.827947
G02 X188.373240 Y69.304160 Z-4.000000 I19.273479 J-9.094084
G02 X193.465328 Y72.264468 Z-4.000000 I12.237245 J-15.189884
G02 X195.306470 Y72.681060 Z-4.000000 I2.275708 J-5.780773
G01 X195.306480 Y72.680950 Z-4.000000
G00 Z5.000000

(End cutting path id: path836-3)


(Start cutting path id: path836-3-7)
(Change tool to Cylindrical cutter)

G00 Z5.000000
G00 X364.798420 Y166.113470

G01 Z-1.000000 F50.0(Penetrate)
G02 X365.064573 Y166.144045 Z-1.000000 I0.487304 J-3.068272 F200.000000
G02 X365.242840 Y166.146270 Z-1.000000 I0.108048 J-1.514005
G02 X366.429382 Y165.587588 Z-1.000000 I-0.071084 J-1.690313
G02 X366.835300 Y164.459670 Z-1.000000 I-1.179778 J-1.061582
G02 X365.840572 Y161.921190 Z-1.000000 I-4.186569 J0.176411
G03 X362.577850 Y153.602300 Z-1.000000 I10.470403 J-8.905834
G03 X363.995451 Y148.978327 Z-1.000000 I7.235462 J-0.311067
G03 X371.157250 Y143.019200 Z-1.000000 I15.815816 J11.724607
G02 X374.473895 Y139.164630 Z-1.000000 I-3.348895 J-6.235719
G02 X375.464920 Y132.615020 Z-1.000000 I-16.267223 J-5.811184
G02 X370.982785 Y119.061162 Z-1.000000 I-26.019526 J1.086386
G02 X360.168370 Y113.627370 Z-1.000000 I-10.285278 J6.991515
G02 X352.050222 Y118.661129 Z-1.000000 I0.403212 J9.713390
G02 X348.645600 Y133.221010 Z-1.000000 I24.349176 J13.371712
G02 X352.816448 Y154.022358 Z-1.000000 I68.335639 J-2.883062
G02 X358.185880 Y162.145200 Z-1.000000 I19.992779 J-7.379704
G02 X363.000580 Y165.538048 Z-1.000000 I13.514584 J-14.065556
G02 X364.798410 Y166.113520 Z-1.000000 I2.770859 J-5.560392
G01 X364.798420 Y166.113470 Z-1.000000
G00 Z5.000000

(End cutting path id: path836-3-7)


(Start cutting path id: path836-3-7)
(Change tool to Cylindrical cutter)

G00 Z5.000000
G00 X364.798420 Y166.113470

G01 Z-2.000000 F50.0(Penetrate)
G02 X365.064573 Y166.144045 Z-2.000000 I0.487304 J-3.068272 F200.000000
G02 X365.242840 Y166.146270 Z-2.000000 I0.108048 J-1.514005
G02 X366.429382 Y165.587588 Z-2.000000 I-0.071084 J-1.690313
G02 X366.835300 Y164.459670 Z-2.000000 I-1.179778 J-1.061582
G02 X365.840572 Y161.921190 Z-2.000000 I-4.186569 J0.176411
G03 X362.577850 Y153.602300 Z-2.000000 I10.470403 J-8.905834
G03 X363.995451 Y148.978327 Z-2.000000 I7.235462 J-0.311067
G03 X371.157250 Y143.019200 Z-2.000000 I15.815816 J11.724607
G02 X374.473895 Y139.164630 Z-2.000000 I-3.348895 J-6.235719
G02 X375.464920 Y132.615020 Z-2.000000 I-16.267223 J-5.811184
G02 X370.982785 Y119.061162 Z-2.000000 I-26.019526 J1.086386
G02 X360.168370 Y113.627370 Z-2.000000 I-10.285278 J6.991515
G02 X352.050222 Y118.661129 Z-2.000000 I0.403212 J9.713390
G02 X348.645600 Y133.221010 Z-2.000000 I24.349176 J13.371712
G02 X352.816448 Y154.022358 Z-2.000000 I68.335639 J-2.883062
G02 X358.185880 Y162.145200 Z-2.000000 I19.992779 J-7.379704
G02 X363.000580 Y165.538048 Z-2.000000 I13.514584 J-14.065556
G02 X364.798410 Y166.113520 Z-2.000000 I2.770859 J-5.560392
G01 X364.798420 Y166.113470 Z-2.000000
G00 Z5.000000

(End cutting path id: path836-3-7)


(Start cutting path id: path836-3-7)
(Change tool to Cylindrical cutter)

G00 Z5.000000
G00 X364.798420 Y166.113470

G01 Z-3.000000 F50.0(Penetrate)
G02 X365.064573 Y166.144045 Z-3.000000 I0.487304 J-3.068272 F200.000000
G02 X365.242840 Y166.146270 Z-3.000000 I0.108048 J-1.514005
G02 X366.429382 Y165.587588 Z-3.000000 I-0.071084 J-1.690313
G02 X366.835300 Y164.459670 Z-3.000000 I-1.179778 J-1.061582
G02 X365.840572 Y161.921190 Z-3.000000 I-4.186569 J0.176411
G03 X362.577850 Y153.602300 Z-3.000000 I10.470403 J-8.905834
G03 X363.995451 Y148.978327 Z-3.000000 I7.235462 J-0.311067
G03 X371.157250 Y143.019200 Z-3.000000 I15.815816 J11.724607
G02 X374.473895 Y139.164630 Z-3.000000 I-3.348895 J-6.235719
G02 X375.464920 Y132.615020 Z-3.000000 I-16.267223 J-5.811184
G02 X370.982785 Y119.061162 Z-3.000000 I-26.019526 J1.086386
G02 X360.168370 Y113.627370 Z-3.000000 I-10.285278 J6.991515
G02 X352.050222 Y118.661129 Z-3.000000 I0.403212 J9.713390
G02 X348.645600 Y133.221010 Z-3.000000 I24.349176 J13.371712
G02 X352.816448 Y154.022358 Z-3.000000 I68.335639 J-2.883062
G02 X358.185880 Y162.145200 Z-3.000000 I19.992779 J-7.379704
G02 X363.000580 Y165.538048 Z-3.000000 I13.514584 J-14.065556
G02 X364.798410 Y166.113520 Z-3.000000 I2.770859 J-5.560392
G01 X364.798420 Y166.113470 Z-3.000000
G00 Z5.000000

(End cutting path id: path836-3-7)


(Start cutting path id: path836-3-7)
(Change tool to Cylindrical cutter)

G00 Z5.000000
G00 X364.798420 Y166.113470

G01 Z-4.000000 F50.0(Penetrate)
G02 X365.064573 Y166.144045 Z-4.000000 I0.487304 J-3.068272 F200.000000
G02 X365.242840 Y166.146270 Z-4.000000 I0.108048 J-1.514005
G02 X366.429382 Y165.587588 Z-4.000000 I-0.071084 J-1.690313
G02 X366.835300 Y164.459670 Z-4.000000 I-1.179778 J-1.061582
G02 X365.840572 Y161.921190 Z-4.000000 I-4.186569 J0.176411
G03 X362.577850 Y153.602300 Z-4.000000 I10.470403 J-8.905834
G03 X363.995451 Y148.978327 Z-4.000000 I7.235462 J-0.311067
G03 X371.157250 Y143.019200 Z-4.000000 I15.815816 J11.724607
G02 X374.473895 Y139.164630 Z-4.000000 I-3.348895 J-6.235719
G02 X375.464920 Y132.615020 Z-4.000000 I-16.267223 J-5.811184
G02 X370.982785 Y119.061162 Z-4.000000 I-26.019526 J1.086386
G02 X360.168370 Y113.627370 Z-4.000000 I-10.285278 J6.991515
G02 X352.050222 Y118.661129 Z-4.000000 I0.403212 J9.713390
G02 X348.645600 Y133.221010 Z-4.000000 I24.349176 J13.371712
G02 X352.816448 Y154.022358 Z-4.000000 I68.335639 J-2.883062
G02 X358.185880 Y162.145200 Z-4.000000 I19.992779 J-7.379704
G02 X363.000580 Y165.538048 Z-4.000000 I13.514584 J-14.065556
G02 X364.798410 Y166.113520 Z-4.000000 I2.770859 J-5.560392
G01 X364.798420 Y166.113470 Z-4.000000
G00 Z5.000000

(End cutting path id: path836-3-7)


(Footer)
M5
G00 X0.0000 Y0.0000
M2
(Using default footer. To add your own footer create file "footer" in the output dir.)
(end)
%