(Header)
(Generated by gcodetools from Inkscape.)
(Using default header. To add your own header create file "header" in the output dir.)
M3
S1000
(Header end.)
G21 (All units in mm)
(Start cutting path id: path842-5)
(Change tool to Cylindrical cutter)
G00 Z5.000000
G00 X88.594083 Y90.039160
G01 Z-1.000000 F200.0(Penetrate)
G03 X92.267096 Y89.422468 Z-1.000000 I3.144102 J7.479687 F400.000000
G03 X95.541823 Y90.039160 Z-1.000000 I-0.900525 J13.784917
G02 X98.202121 Y90.757036 Z-1.000000 I17.511854 J-59.607080
G02 X99.659433 Y90.642310 Z-1.000000 I0.555531 J-2.256492
G02 X101.060260 Y89.058681 Z-1.000000 I-0.931342 J-2.235212
G02 X100.923713 Y86.907460 Z-1.000000 I-3.149780 J-0.880015
G02 X99.124168 Y84.405034 Z-1.000000 I-6.368543 J2.681492
G02 X95.704213 Y81.815540 Z-1.000000 I-19.090646 J21.659965
G02 X82.621712 Y76.354108 Z-1.000000 I-21.300024 J32.622957
G02 X65.268693 Y77.964710 Z-1.000000 I-6.119118 J28.359262
G02 X51.015550 Y92.824769 Z-1.000000 I10.005659 J23.862543
G02 X51.396413 Y111.183960 Z-1.000000 I23.436573 J8.697353
G02 X60.603999 Y127.093265 Z-1.000000 I66.695630 J-27.981297
G02 X76.770454 Y148.062663 Z-1.000000 I2234.502716 J-1705.983730
G03 X92.250551 Y169.361721 Z-1.000000 I-314.839071 J245.099144
G03 X107.129123 Y196.841844 Z-1.000000 I-130.553850 J88.453731
G03 X108.379982 Y207.565335 Z-1.000000 I-17.923733 J7.525442
G03 X104.786143 Y212.105994 Z-1.000000 I-5.910983 J-0.985868
G02 X102.992546 Y213.864295 Z-1.000000 I1.305362 J3.125516
G02 X102.965123 Y216.362784 Z-1.000000 I2.904155 J1.281271
G02 X105.798173 Y219.270736 Z-1.000000 I5.101414 J-2.136000
G02 X114.494427 Y221.692483 Z-1.000000 I12.305013 J-27.361521
G02 X123.641314 Y221.773031 Z-1.000000 I4.932259 J-40.706169
G02 X133.748603 Y219.192924 Z-1.000000 I-3.660949 J-35.428531
G02 X145.026905 Y208.328462 Z-1.000000 I-8.367767 J-19.972689
G02 X145.335903 Y191.599134 Z-1.000000 I-18.797272 J-8.714712
G02 X136.434730 Y175.641961 Z-1.000000 I-75.504046 J31.656201
G02 X117.034588 Y148.949979 Z-1.000000 I-1709.557959 J1222.136790
G03 X97.843723 Y122.284378 Z-1.000000 I1054.268361 J-778.980903
G03 X87.793763 Y104.073830 Z-1.000000 I79.744108 J-55.887276
G03 X86.354653 Y92.947629 Z-1.000000 I19.491351 J-8.177265
G03 X88.605683 Y90.039160 Z-1.000000 I3.673137 J0.517516
G01 X88.605683 Y90.039160 Z-1.000000
G01 X88.594083 Y90.039160 Z-1.000000
G00 Z5.000000
(End cutting path id: path842-5)
(Start cutting path id: path842-5)
(Change tool to Cylindrical cutter)
G00 Z5.000000
G00 X88.594083 Y90.039160
G01 Z-2.000000 F200.0(Penetrate)
G03 X92.267096 Y89.422468 Z-2.000000 I3.144102 J7.479687 F400.000000
G03 X95.541823 Y90.039160 Z-2.000000 I-0.900525 J13.784917
G02 X98.202121 Y90.757036 Z-2.000000 I17.511854 J-59.607080
G02 X99.659433 Y90.642310 Z-2.000000 I0.555531 J-2.256492
G02 X101.060260 Y89.058681 Z-2.000000 I-0.931342 J-2.235212
G02 X100.923713 Y86.907460 Z-2.000000 I-3.149780 J-0.880015
G02 X99.124168 Y84.405034 Z-2.000000 I-6.368543 J2.681492
G02 X95.704213 Y81.815540 Z-2.000000 I-19.090646 J21.659965
G02 X82.621712 Y76.354108 Z-2.000000 I-21.300024 J32.622957
G02 X65.268693 Y77.964710 Z-2.000000 I-6.119118 J28.359262
G02 X51.015550 Y92.824769 Z-2.000000 I10.005659 J23.862543
G02 X51.396413 Y111.183960 Z-2.000000 I23.436573 J8.697353
G02 X60.603999 Y127.093265 Z-2.000000 I66.695630 J-27.981297
G02 X76.770454 Y148.062663 Z-2.000000 I2234.502716 J-1705.983730
G03 X92.250551 Y169.361721 Z-2.000000 I-314.839071 J245.099144
G03 X107.129123 Y196.841844 Z-2.000000 I-130.553850 J88.453731
G03 X108.379982 Y207.565335 Z-2.000000 I-17.923733 J7.525442
G03 X104.786143 Y212.105994 Z-2.000000 I-5.910983 J-0.985868
G02 X102.992546 Y213.864295 Z-2.000000 I1.305362 J3.125516
G02 X102.965123 Y216.362784 Z-2.000000 I2.904155 J1.281271
G02 X105.798173 Y219.270736 Z-2.000000 I5.101414 J-2.136000
G02 X114.494427 Y221.692483 Z-2.000000 I12.305013 J-27.361521
G02 X123.641314 Y221.773031 Z-2.000000 I4.932259 J-40.706169
G02 X133.748603 Y219.192924 Z-2.000000 I-3.660949 J-35.428531
G02 X145.026905 Y208.328462 Z-2.000000 I-8.367767 J-19.972689
G02 X145.335903 Y191.599134 Z-2.000000 I-18.797272 J-8.714712
G02 X136.434730 Y175.641961 Z-2.000000 I-75.504046 J31.656201
G02 X117.034588 Y148.949979 Z-2.000000 I-1709.557959 J1222.136790
G03 X97.843723 Y122.284378 Z-2.000000 I1054.268361 J-778.980903
G03 X87.793763 Y104.073830 Z-2.000000 I79.744108 J-55.887276
G03 X86.354653 Y92.947629 Z-2.000000 I19.491351 J-8.177265
G03 X88.605683 Y90.039160 Z-2.000000 I3.673137 J0.517516
G01 X88.605683 Y90.039160 Z-2.000000
G01 X88.594083 Y90.039160 Z-2.000000
G00 Z5.000000
(End cutting path id: path842-5)
(Start cutting path id: path842-5)
(Change tool to Cylindrical cutter)
G00 Z5.000000
G00 X88.594083 Y90.039160
G01 Z-3.000000 F200.0(Penetrate)
G03 X92.267096 Y89.422468 Z-3.000000 I3.144102 J7.479687 F400.000000
G03 X95.541823 Y90.039160 Z-3.000000 I-0.900525 J13.784917
G02 X98.202121 Y90.757036 Z-3.000000 I17.511854 J-59.607080
G02 X99.659433 Y90.642310 Z-3.000000 I0.555531 J-2.256492
G02 X101.060260 Y89.058681 Z-3.000000 I-0.931342 J-2.235212
G02 X100.923713 Y86.907460 Z-3.000000 I-3.149780 J-0.880015
G02 X99.124168 Y84.405034 Z-3.000000 I-6.368543 J2.681492
G02 X95.704213 Y81.815540 Z-3.000000 I-19.090646 J21.659965
G02 X82.621712 Y76.354108 Z-3.000000 I-21.300024 J32.622957
G02 X65.268693 Y77.964710 Z-3.000000 I-6.119118 J28.359262
G02 X51.015550 Y92.824769 Z-3.000000 I10.005659 J23.862543
G02 X51.396413 Y111.183960 Z-3.000000 I23.436573 J8.697353
G02 X60.603999 Y127.093265 Z-3.000000 I66.695630 J-27.981297
G02 X76.770454 Y148.062663 Z-3.000000 I2234.502716 J-1705.983730
G03 X92.250551 Y169.361721 Z-3.000000 I-314.839071 J245.099144
G03 X107.129123 Y196.841844 Z-3.000000 I-130.553850 J88.453731
G03 X108.379982 Y207.565335 Z-3.000000 I-17.923733 J7.525442
G03 X104.786143 Y212.105994 Z-3.000000 I-5.910983 J-0.985868
G02 X102.992546 Y213.864295 Z-3.000000 I1.305362 J3.125516
G02 X102.965123 Y216.362784 Z-3.000000 I2.904155 J1.281271
G02 X105.798173 Y219.270736 Z-3.000000 I5.101414 J-2.136000
G02 X114.494427 Y221.692483 Z-3.000000 I12.305013 J-27.361521
G02 X123.641314 Y221.773031 Z-3.000000 I4.932259 J-40.706169
G02 X133.748603 Y219.192924 Z-3.000000 I-3.660949 J-35.428531
G02 X145.026905 Y208.328462 Z-3.000000 I-8.367767 J-19.972689
G02 X145.335903 Y191.599134 Z-3.000000 I-18.797272 J-8.714712
G02 X136.434730 Y175.641961 Z-3.000000 I-75.504046 J31.656201
G02 X117.034588 Y148.949979 Z-3.000000 I-1709.557959 J1222.136790
G03 X97.843723 Y122.284378 Z-3.000000 I1054.268361 J-778.980903
G03 X87.793763 Y104.073830 Z-3.000000 I79.744108 J-55.887276
G03 X86.354653 Y92.947629 Z-3.000000 I19.491351 J-8.177265
G03 X88.605683 Y90.039160 Z-3.000000 I3.673137 J0.517516
G01 X88.605683 Y90.039160 Z-3.000000
G01 X88.594083 Y90.039160 Z-3.000000
G00 Z5.000000
(End cutting path id: path842-5)
(Start cutting path id: path842-5)
(Change tool to Cylindrical cutter)
G00 Z5.000000
G00 X88.594083 Y90.039160
G01 Z-4.000000 F200.0(Penetrate)
G03 X92.267096 Y89.422468 Z-4.000000 I3.144102 J7.479687 F400.000000
G03 X95.541823 Y90.039160 Z-4.000000 I-0.900525 J13.784917
G02 X98.202121 Y90.757036 Z-4.000000 I17.511854 J-59.607080
G02 X99.659433 Y90.642310 Z-4.000000 I0.555531 J-2.256492
G02 X101.060260 Y89.058681 Z-4.000000 I-0.931342 J-2.235212
G02 X100.923713 Y86.907460 Z-4.000000 I-3.149780 J-0.880015
G02 X99.124168 Y84.405034 Z-4.000000 I-6.368543 J2.681492
G02 X95.704213 Y81.815540 Z-4.000000 I-19.090646 J21.659965
G02 X82.621712 Y76.354108 Z-4.000000 I-21.300024 J32.622957
G02 X65.268693 Y77.964710 Z-4.000000 I-6.119118 J28.359262
G02 X51.015550 Y92.824769 Z-4.000000 I10.005659 J23.862543
G02 X51.396413 Y111.183960 Z-4.000000 I23.436573 J8.697353
G02 X60.603999 Y127.093265 Z-4.000000 I66.695630 J-27.981297
G02 X76.770454 Y148.062663 Z-4.000000 I2234.502716 J-1705.983730
G03 X92.250551 Y169.361721 Z-4.000000 I-314.839071 J245.099144
G03 X107.129123 Y196.841844 Z-4.000000 I-130.553850 J88.453731
G03 X108.379982 Y207.565335 Z-4.000000 I-17.923733 J7.525442
G03 X104.786143 Y212.105994 Z-4.000000 I-5.910983 J-0.985868
G02 X102.992546 Y213.864295 Z-4.000000 I1.305362 J3.125516
G02 X102.965123 Y216.362784 Z-4.000000 I2.904155 J1.281271
G02 X105.798173 Y219.270736 Z-4.000000 I5.101414 J-2.136000
G02 X114.494427 Y221.692483 Z-4.000000 I12.305013 J-27.361521
G02 X123.641314 Y221.773031 Z-4.000000 I4.932259 J-40.706169
G02 X133.748603 Y219.192924 Z-4.000000 I-3.660949 J-35.428531
G02 X145.026905 Y208.328462 Z-4.000000 I-8.367767 J-19.972689
G02 X145.335903 Y191.599134 Z-4.000000 I-18.797272 J-8.714712
G02 X136.434730 Y175.641961 Z-4.000000 I-75.504046 J31.656201
G02 X117.034588 Y148.949979 Z-4.000000 I-1709.557959 J1222.136790
G03 X97.843723 Y122.284378 Z-4.000000 I1054.268361 J-778.980903
G03 X87.793763 Y104.073830 Z-4.000000 I79.744108 J-55.887276
G03 X86.354653 Y92.947629 Z-4.000000 I19.491351 J-8.177265
G03 X88.605683 Y90.039160 Z-4.000000 I3.673137 J0.517516
G01 X88.605683 Y90.039160 Z-4.000000
G01 X88.594083 Y90.039160 Z-4.000000
G00 Z5.000000
(End cutting path id: path842-5)
(Start cutting path id: path842-5)
(Change tool to Cylindrical cutter)
G00 Z5.000000
G00 X88.594083 Y90.039160
G01 Z-5.000000 F200.0(Penetrate)
G03 X92.267096 Y89.422468 Z-5.000000 I3.144102 J7.479687 F400.000000
G03 X95.541823 Y90.039160 Z-5.000000 I-0.900525 J13.784917
G02 X98.202121 Y90.757036 Z-5.000000 I17.511854 J-59.607080
G02 X99.659433 Y90.642310 Z-5.000000 I0.555531 J-2.256492
G02 X101.060260 Y89.058681 Z-5.000000 I-0.931342 J-2.235212
G02 X100.923713 Y86.907460 Z-5.000000 I-3.149780 J-0.880015
G02 X99.124168 Y84.405034 Z-5.000000 I-6.368543 J2.681492
G02 X95.704213 Y81.815540 Z-5.000000 I-19.090646 J21.659965
G02 X82.621712 Y76.354108 Z-5.000000 I-21.300024 J32.622957
G02 X65.268693 Y77.964710 Z-5.000000 I-6.119118 J28.359262
G02 X51.015550 Y92.824769 Z-5.000000 I10.005659 J23.862543
G02 X51.396413 Y111.183960 Z-5.000000 I23.436573 J8.697353
G02 X60.603999 Y127.093265 Z-5.000000 I66.695630 J-27.981297
G02 X76.770454 Y148.062663 Z-5.000000 I2234.502716 J-1705.983730
G03 X92.250551 Y169.361721 Z-5.000000 I-314.839071 J245.099144
G03 X107.129123 Y196.841844 Z-5.000000 I-130.553850 J88.453731
G03 X108.379982 Y207.565335 Z-5.000000 I-17.923733 J7.525442
G03 X104.786143 Y212.105994 Z-5.000000 I-5.910983 J-0.985868
G02 X102.992546 Y213.864295 Z-5.000000 I1.305362 J3.125516
G02 X102.965123 Y216.362784 Z-5.000000 I2.904155 J1.281271
G02 X105.798173 Y219.270736 Z-5.000000 I5.101414 J-2.136000
G02 X114.494427 Y221.692483 Z-5.000000 I12.305013 J-27.361521
G02 X123.641314 Y221.773031 Z-5.000000 I4.932259 J-40.706169
G02 X133.748603 Y219.192924 Z-5.000000 I-3.660949 J-35.428531
G02 X145.026905 Y208.328462 Z-5.000000 I-8.367767 J-19.972689
G02 X145.335903 Y191.599134 Z-5.000000 I-18.797272 J-8.714712
G02 X136.434730 Y175.641961 Z-5.000000 I-75.504046 J31.656201
G02 X117.034588 Y148.949979 Z-5.000000 I-1709.557959 J1222.136790
G03 X97.843723 Y122.284378 Z-5.000000 I1054.268361 J-778.980903
G03 X87.793763 Y104.073830 Z-5.000000 I79.744108 J-55.887276
G03 X86.354653 Y92.947629 Z-5.000000 I19.491351 J-8.177265
G03 X88.605683 Y90.039160 Z-5.000000 I3.673137 J0.517516
G01 X88.605683 Y90.039160 Z-5.000000
G01 X88.594083 Y90.039160 Z-5.000000
G00 Z5.000000
(End cutting path id: path842-5)
(Start cutting path id: path842-5)
(Change tool to Cylindrical cutter)
G00 Z5.000000
G00 X88.594083 Y90.039160
G01 Z-6.000000 F200.0(Penetrate)
G03 X92.267096 Y89.422468 Z-6.000000 I3.144102 J7.479687 F400.000000
G03 X95.541823 Y90.039160 Z-6.000000 I-0.900525 J13.784917
G02 X98.202121 Y90.757036 Z-6.000000 I17.511854 J-59.607080
G02 X99.659433 Y90.642310 Z-6.000000 I0.555531 J-2.256492
G02 X101.060260 Y89.058681 Z-6.000000 I-0.931342 J-2.235212
G02 X100.923713 Y86.907460 Z-6.000000 I-3.149780 J-0.880015
G02 X99.124168 Y84.405034 Z-6.000000 I-6.368543 J2.681492
G02 X95.704213 Y81.815540 Z-6.000000 I-19.090646 J21.659965
G02 X82.621712 Y76.354108 Z-6.000000 I-21.300024 J32.622957
G02 X65.268693 Y77.964710 Z-6.000000 I-6.119118 J28.359262
G02 X51.015550 Y92.824769 Z-6.000000 I10.005659 J23.862543
G02 X51.396413 Y111.183960 Z-6.000000 I23.436573 J8.697353
G02 X60.603999 Y127.093265 Z-6.000000 I66.695630 J-27.981297
G02 X76.770454 Y148.062663 Z-6.000000 I2234.502716 J-1705.983730
G03 X92.250551 Y169.361721 Z-6.000000 I-314.839071 J245.099144
G03 X107.129123 Y196.841844 Z-6.000000 I-130.553850 J88.453731
G03 X108.379982 Y207.565335 Z-6.000000 I-17.923733 J7.525442
G03 X104.786143 Y212.105994 Z-6.000000 I-5.910983 J-0.985868
G02 X102.992546 Y213.864295 Z-6.000000 I1.305362 J3.125516
G02 X102.965123 Y216.362784 Z-6.000000 I2.904155 J1.281271
G02 X105.798173 Y219.270736 Z-6.000000 I5.101414 J-2.136000
G02 X114.494427 Y221.692483 Z-6.000000 I12.305013 J-27.361521
G02 X123.641314 Y221.773031 Z-6.000000 I4.932259 J-40.706169
G02 X133.748603 Y219.192924 Z-6.000000 I-3.660949 J-35.428531
G02 X145.026905 Y208.328462 Z-6.000000 I-8.367767 J-19.972689
G02 X145.335903 Y191.599134 Z-6.000000 I-18.797272 J-8.714712
G02 X136.434730 Y175.641961 Z-6.000000 I-75.504046 J31.656201
G02 X117.034588 Y148.949979 Z-6.000000 I-1709.557959 J1222.136790
G03 X97.843723 Y122.284378 Z-6.000000 I1054.268361 J-778.980903
G03 X87.793763 Y104.073830 Z-6.000000 I79.744108 J-55.887276
G03 X86.354653 Y92.947629 Z-6.000000 I19.491351 J-8.177265
G03 X88.605683 Y90.039160 Z-6.000000 I3.673137 J0.517516
G01 X88.605683 Y90.039160 Z-6.000000
G01 X88.594083 Y90.039160 Z-6.000000
G00 Z5.000000
(End cutting path id: path842-5)
(Start cutting path id: path842-5)
(Change tool to Cylindrical cutter)
G00 Z5.000000
G00 X88.594083 Y90.039160
G01 Z-7.000000 F200.0(Penetrate)
G03 X92.267096 Y89.422468 Z-7.000000 I3.144102 J7.479687 F400.000000
G03 X95.541823 Y90.039160 Z-7.000000 I-0.900525 J13.784917
G02 X98.202121 Y90.757036 Z-7.000000 I17.511854 J-59.607080
G02 X99.659433 Y90.642310 Z-7.000000 I0.555531 J-2.256492
G02 X101.060260 Y89.058681 Z-7.000000 I-0.931342 J-2.235212
G02 X100.923713 Y86.907460 Z-7.000000 I-3.149780 J-0.880015
G02 X99.124168 Y84.405034 Z-7.000000 I-6.368543 J2.681492
G02 X95.704213 Y81.815540 Z-7.000000 I-19.090646 J21.659965
G02 X82.621712 Y76.354108 Z-7.000000 I-21.300024 J32.622957
G02 X65.268693 Y77.964710 Z-7.000000 I-6.119118 J28.359262
G02 X51.015550 Y92.824769 Z-7.000000 I10.005659 J23.862543
G02 X51.396413 Y111.183960 Z-7.000000 I23.436573 J8.697353
G02 X60.603999 Y127.093265 Z-7.000000 I66.695630 J-27.981297
G02 X76.770454 Y148.062663 Z-7.000000 I2234.502716 J-1705.983730
G03 X92.250551 Y169.361721 Z-7.000000 I-314.839071 J245.099144
G03 X107.129123 Y196.841844 Z-7.000000 I-130.553850 J88.453731
G03 X108.379982 Y207.565335 Z-7.000000 I-17.923733 J7.525442
G03 X104.786143 Y212.105994 Z-7.000000 I-5.910983 J-0.985868
G02 X102.992546 Y213.864295 Z-7.000000 I1.305362 J3.125516
G02 X102.965123 Y216.362784 Z-7.000000 I2.904155 J1.281271
G02 X105.798173 Y219.270736 Z-7.000000 I5.101414 J-2.136000
G02 X114.494427 Y221.692483 Z-7.000000 I12.305013 J-27.361521
G02 X123.641314 Y221.773031 Z-7.000000 I4.932259 J-40.706169
G02 X133.748603 Y219.192924 Z-7.000000 I-3.660949 J-35.428531
G02 X145.026905 Y208.328462 Z-7.000000 I-8.367767 J-19.972689
G02 X145.335903 Y191.599134 Z-7.000000 I-18.797272 J-8.714712
G02 X136.434730 Y175.641961 Z-7.000000 I-75.504046 J31.656201
G02 X117.034588 Y148.949979 Z-7.000000 I-1709.557959 J1222.136790
G03 X97.843723 Y122.284378 Z-7.000000 I1054.268361 J-778.980903
G03 X87.793763 Y104.073830 Z-7.000000 I79.744108 J-55.887276
G03 X86.354653 Y92.947629 Z-7.000000 I19.491351 J-8.177265
G03 X88.605683 Y90.039160 Z-7.000000 I3.673137 J0.517516
G01 X88.605683 Y90.039160 Z-7.000000
G01 X88.594083 Y90.039160 Z-7.000000
G00 Z5.000000
(End cutting path id: path842-5)
(Start cutting path id: path842-5)
(Change tool to Cylindrical cutter)
G00 Z5.000000
G00 X88.594083 Y90.039160
G01 Z-8.000000 F200.0(Penetrate)
G03 X92.267096 Y89.422468 Z-8.000000 I3.144102 J7.479687 F400.000000
G03 X95.541823 Y90.039160 Z-8.000000 I-0.900525 J13.784917
G02 X98.202121 Y90.757036 Z-8.000000 I17.511854 J-59.607080
G02 X99.659433 Y90.642310 Z-8.000000 I0.555531 J-2.256492
G02 X101.060260 Y89.058681 Z-8.000000 I-0.931342 J-2.235212
G02 X100.923713 Y86.907460 Z-8.000000 I-3.149780 J-0.880015
G02 X99.124168 Y84.405034 Z-8.000000 I-6.368543 J2.681492
G02 X95.704213 Y81.815540 Z-8.000000 I-19.090646 J21.659965
G02 X82.621712 Y76.354108 Z-8.000000 I-21.300024 J32.622957
G02 X65.268693 Y77.964710 Z-8.000000 I-6.119118 J28.359262
G02 X51.015550 Y92.824769 Z-8.000000 I10.005659 J23.862543
G02 X51.396413 Y111.183960 Z-8.000000 I23.436573 J8.697353
G02 X60.603999 Y127.093265 Z-8.000000 I66.695630 J-27.981297
G02 X76.770454 Y148.062663 Z-8.000000 I2234.502716 J-1705.983730
G03 X92.250551 Y169.361721 Z-8.000000 I-314.839071 J245.099144
G03 X107.129123 Y196.841844 Z-8.000000 I-130.553850 J88.453731
G03 X108.379982 Y207.565335 Z-8.000000 I-17.923733 J7.525442
G03 X104.786143 Y212.105994 Z-8.000000 I-5.910983 J-0.985868
G02 X102.992546 Y213.864295 Z-8.000000 I1.305362 J3.125516
G02 X102.965123 Y216.362784 Z-8.000000 I2.904155 J1.281271
G02 X105.798173 Y219.270736 Z-8.000000 I5.101414 J-2.136000
G02 X114.494427 Y221.692483 Z-8.000000 I12.305013 J-27.361521
G02 X123.641314 Y221.773031 Z-8.000000 I4.932259 J-40.706169
G02 X133.748603 Y219.192924 Z-8.000000 I-3.660949 J-35.428531
G02 X145.026905 Y208.328462 Z-8.000000 I-8.367767 J-19.972689
G02 X145.335903 Y191.599134 Z-8.000000 I-18.797272 J-8.714712
G02 X136.434730 Y175.641961 Z-8.000000 I-75.504046 J31.656201
G02 X117.034588 Y148.949979 Z-8.000000 I-1709.557959 J1222.136790
G03 X97.843723 Y122.284378 Z-8.000000 I1054.268361 J-778.980903
G03 X87.793763 Y104.073830 Z-8.000000 I79.744108 J-55.887276
G03 X86.354653 Y92.947629 Z-8.000000 I19.491351 J-8.177265
G03 X88.605683 Y90.039160 Z-8.000000 I3.673137 J0.517516
G01 X88.605683 Y90.039160 Z-8.000000
G01 X88.594083 Y90.039160 Z-8.000000
G00 Z5.000000
(End cutting path id: path842-5)
(Start cutting path id: path842-5)
(Change tool to Cylindrical cutter)
G00 Z5.000000
G00 X88.594083 Y90.039160
G01 Z-9.000000 F200.0(Penetrate)
G03 X92.267096 Y89.422468 Z-9.000000 I3.144102 J7.479687 F400.000000
G03 X95.541823 Y90.039160 Z-9.000000 I-0.900525 J13.784917
G02 X98.202121 Y90.757036 Z-9.000000 I17.511854 J-59.607080
G02 X99.659433 Y90.642310 Z-9.000000 I0.555531 J-2.256492
G02 X101.060260 Y89.058681 Z-9.000000 I-0.931342 J-2.235212
G02 X100.923713 Y86.907460 Z-9.000000 I-3.149780 J-0.880015
G02 X99.124168 Y84.405034 Z-9.000000 I-6.368543 J2.681492
G02 X95.704213 Y81.815540 Z-9.000000 I-19.090646 J21.659965
G02 X82.621712 Y76.354108 Z-9.000000 I-21.300024 J32.622957
G02 X65.268693 Y77.964710 Z-9.000000 I-6.119118 J28.359262
G02 X51.015550 Y92.824769 Z-9.000000 I10.005659 J23.862543
G02 X51.396413 Y111.183960 Z-9.000000 I23.436573 J8.697353
G02 X60.603999 Y127.093265 Z-9.000000 I66.695630 J-27.981297
G02 X76.770454 Y148.062663 Z-9.000000 I2234.502716 J-1705.983730
G03 X92.250551 Y169.361721 Z-9.000000 I-314.839071 J245.099144
G03 X107.129123 Y196.841844 Z-9.000000 I-130.553850 J88.453731
G03 X108.379982 Y207.565335 Z-9.000000 I-17.923733 J7.525442
G03 X104.786143 Y212.105994 Z-9.000000 I-5.910983 J-0.985868
G02 X102.992546 Y213.864295 Z-9.000000 I1.305362 J3.125516
G02 X102.965123 Y216.362784 Z-9.000000 I2.904155 J1.281271
G02 X105.798173 Y219.270736 Z-9.000000 I5.101414 J-2.136000
G02 X114.494427 Y221.692483 Z-9.000000 I12.305013 J-27.361521
G02 X123.641314 Y221.773031 Z-9.000000 I4.932259 J-40.706169
G02 X133.748603 Y219.192924 Z-9.000000 I-3.660949 J-35.428531
G02 X145.026905 Y208.328462 Z-9.000000 I-8.367767 J-19.972689
G02 X145.335903 Y191.599134 Z-9.000000 I-18.797272 J-8.714712
G02 X136.434730 Y175.641961 Z-9.000000 I-75.504046 J31.656201
G02 X117.034588 Y148.949979 Z-9.000000 I-1709.557959 J1222.136790
G03 X97.843723 Y122.284378 Z-9.000000 I1054.268361 J-778.980903
G03 X87.793763 Y104.073830 Z-9.000000 I79.744108 J-55.887276
G03 X86.354653 Y92.947629 Z-9.000000 I19.491351 J-8.177265
G03 X88.605683 Y90.039160 Z-9.000000 I3.673137 J0.517516
G01 X88.605683 Y90.039160 Z-9.000000
G01 X88.594083 Y90.039160 Z-9.000000
G00 Z5.000000
(End cutting path id: path842-5)
(Start cutting path id: path842-5)
(Change tool to Cylindrical cutter)
G00 Z5.000000
G00 X88.594083 Y90.039160
G01 Z-10.000000 F200.0(Penetrate)
G03 X92.267096 Y89.422468 Z-10.000000 I3.144102 J7.479687 F400.000000
G03 X95.541823 Y90.039160 Z-10.000000 I-0.900525 J13.784917
G02 X98.202121 Y90.757036 Z-10.000000 I17.511854 J-59.607080
G02 X99.659433 Y90.642310 Z-10.000000 I0.555531 J-2.256492
G02 X101.060260 Y89.058681 Z-10.000000 I-0.931342 J-2.235212
G02 X100.923713 Y86.907460 Z-10.000000 I-3.149780 J-0.880015
G02 X99.124168 Y84.405034 Z-10.000000 I-6.368543 J2.681492
G02 X95.704213 Y81.815540 Z-10.000000 I-19.090646 J21.659965
G02 X82.621712 Y76.354108 Z-10.000000 I-21.300024 J32.622957
G02 X65.268693 Y77.964710 Z-10.000000 I-6.119118 J28.359262
G02 X51.015550 Y92.824769 Z-10.000000 I10.005659 J23.862543
G02 X51.396413 Y111.183960 Z-10.000000 I23.436573 J8.697353
G02 X60.603999 Y127.093265 Z-10.000000 I66.695630 J-27.981297
G02 X76.770454 Y148.062663 Z-10.000000 I2234.502716 J-1705.983730
G03 X92.250551 Y169.361721 Z-10.000000 I-314.839071 J245.099144
G03 X107.129123 Y196.841844 Z-10.000000 I-130.553850 J88.453731
G03 X108.379982 Y207.565335 Z-10.000000 I-17.923733 J7.525442
G03 X104.786143 Y212.105994 Z-10.000000 I-5.910983 J-0.985868
G02 X102.992546 Y213.864295 Z-10.000000 I1.305362 J3.125516
G02 X102.965123 Y216.362784 Z-10.000000 I2.904155 J1.281271
G02 X105.798173 Y219.270736 Z-10.000000 I5.101414 J-2.136000
G02 X114.494427 Y221.692483 Z-10.000000 I12.305013 J-27.361521
G02 X123.641314 Y221.773031 Z-10.000000 I4.932259 J-40.706169
G02 X133.748603 Y219.192924 Z-10.000000 I-3.660949 J-35.428531
G02 X145.026905 Y208.328462 Z-10.000000 I-8.367767 J-19.972689
G02 X145.335903 Y191.599134 Z-10.000000 I-18.797272 J-8.714712
G02 X136.434730 Y175.641961 Z-10.000000 I-75.504046 J31.656201
G02 X117.034588 Y148.949979 Z-10.000000 I-1709.557959 J1222.136790
G03 X97.843723 Y122.284378 Z-10.000000 I1054.268361 J-778.980903
G03 X87.793763 Y104.073830 Z-10.000000 I79.744108 J-55.887276
G03 X86.354653 Y92.947629 Z-10.000000 I19.491351 J-8.177265
G03 X88.605683 Y90.039160 Z-10.000000 I3.673137 J0.517516
G01 X88.605683 Y90.039160 Z-10.000000
G01 X88.594083 Y90.039160 Z-10.000000
G00 Z5.000000
(End cutting path id: path842-5)
(Start cutting path id: path842-5)
(Change tool to Cylindrical cutter)
G00 Z5.000000
G00 X88.594083 Y90.039160
G01 Z-11.000000 F200.0(Penetrate)
G03 X92.267096 Y89.422468 Z-11.000000 I3.144102 J7.479687 F400.000000
G03 X95.541823 Y90.039160 Z-11.000000 I-0.900525 J13.784917
G02 X98.202121 Y90.757036 Z-11.000000 I17.511854 J-59.607080
G02 X99.659433 Y90.642310 Z-11.000000 I0.555531 J-2.256492
G02 X101.060260 Y89.058681 Z-11.000000 I-0.931342 J-2.235212
G02 X100.923713 Y86.907460 Z-11.000000 I-3.149780 J-0.880015
G02 X99.124168 Y84.405034 Z-11.000000 I-6.368543 J2.681492
G02 X95.704213 Y81.815540 Z-11.000000 I-19.090646 J21.659965
G02 X82.621712 Y76.354108 Z-11.000000 I-21.300024 J32.622957
G02 X65.268693 Y77.964710 Z-11.000000 I-6.119118 J28.359262
G02 X51.015550 Y92.824769 Z-11.000000 I10.005659 J23.862543
G02 X51.396413 Y111.183960 Z-11.000000 I23.436573 J8.697353
G02 X60.603999 Y127.093265 Z-11.000000 I66.695630 J-27.981297
G02 X76.770454 Y148.062663 Z-11.000000 I2234.502716 J-1705.983730
G03 X92.250551 Y169.361721 Z-11.000000 I-314.839071 J245.099144
G03 X107.129123 Y196.841844 Z-11.000000 I-130.553850 J88.453731
G03 X108.379982 Y207.565335 Z-11.000000 I-17.923733 J7.525442
G03 X104.786143 Y212.105994 Z-11.000000 I-5.910983 J-0.985868
G02 X102.992546 Y213.864295 Z-11.000000 I1.305362 J3.125516
G02 X102.965123 Y216.362784 Z-11.000000 I2.904155 J1.281271
G02 X105.798173 Y219.270736 Z-11.000000 I5.101414 J-2.136000
G02 X114.494427 Y221.692483 Z-11.000000 I12.305013 J-27.361521
G02 X123.641314 Y221.773031 Z-11.000000 I4.932259 J-40.706169
G02 X133.748603 Y219.192924 Z-11.000000 I-3.660949 J-35.428531
G02 X145.026905 Y208.328462 Z-11.000000 I-8.367767 J-19.972689
G02 X145.335903 Y191.599134 Z-11.000000 I-18.797272 J-8.714712
G02 X136.434730 Y175.641961 Z-11.000000 I-75.504046 J31.656201
G02 X117.034588 Y148.949979 Z-11.000000 I-1709.557959 J1222.136790
G03 X97.843723 Y122.284378 Z-11.000000 I1054.268361 J-778.980903
G03 X87.793763 Y104.073830 Z-11.000000 I79.744108 J-55.887276
G03 X86.354653 Y92.947629 Z-11.000000 I19.491351 J-8.177265
G03 X88.605683 Y90.039160 Z-11.000000 I3.673137 J0.517516
G01 X88.605683 Y90.039160 Z-11.000000
G01 X88.594083 Y90.039160 Z-11.000000
G00 Z5.000000
(End cutting path id: path842-5)
(Start cutting path id: path842-5)
(Change tool to Cylindrical cutter)
G00 Z5.000000
G00 X88.594083 Y90.039160
G01 Z-11.500000 F200.0(Penetrate)
G03 X92.267096 Y89.422468 Z-11.500000 I3.144102 J7.479687 F400.000000
G03 X95.541823 Y90.039160 Z-11.500000 I-0.900525 J13.784917
G02 X98.202121 Y90.757036 Z-11.500000 I17.511854 J-59.607080
G02 X99.659433 Y90.642310 Z-11.500000 I0.555531 J-2.256492
G02 X101.060260 Y89.058681 Z-11.500000 I-0.931342 J-2.235212
G02 X100.923713 Y86.907460 Z-11.500000 I-3.149780 J-0.880015
G02 X99.124168 Y84.405034 Z-11.500000 I-6.368543 J2.681492
G02 X95.704213 Y81.815540 Z-11.500000 I-19.090646 J21.659965
G02 X82.621712 Y76.354108 Z-11.500000 I-21.300024 J32.622957
G02 X65.268693 Y77.964710 Z-11.500000 I-6.119118 J28.359262
G02 X51.015550 Y92.824769 Z-11.500000 I10.005659 J23.862543
G02 X51.396413 Y111.183960 Z-11.500000 I23.436573 J8.697353
G02 X60.603999 Y127.093265 Z-11.500000 I66.695630 J-27.981297
G02 X76.770454 Y148.062663 Z-11.500000 I2234.502716 J-1705.983730
G03 X92.250551 Y169.361721 Z-11.500000 I-314.839071 J245.099144
G03 X107.129123 Y196.841844 Z-11.500000 I-130.553850 J88.453731
G03 X108.379982 Y207.565335 Z-11.500000 I-17.923733 J7.525442
G03 X104.786143 Y212.105994 Z-11.500000 I-5.910983 J-0.985868
G02 X102.992546 Y213.864295 Z-11.500000 I1.305362 J3.125516
G02 X102.965123 Y216.362784 Z-11.500000 I2.904155 J1.281271
G02 X105.798173 Y219.270736 Z-11.500000 I5.101414 J-2.136000
G02 X114.494427 Y221.692483 Z-11.500000 I12.305013 J-27.361521
G02 X123.641314 Y221.773031 Z-11.500000 I4.932259 J-40.706169
G02 X133.748603 Y219.192924 Z-11.500000 I-3.660949 J-35.428531
G02 X145.026905 Y208.328462 Z-11.500000 I-8.367767 J-19.972689
G02 X145.335903 Y191.599134 Z-11.500000 I-18.797272 J-8.714712
G02 X136.434730 Y175.641961 Z-11.500000 I-75.504046 J31.656201
G02 X117.034588 Y148.949979 Z-11.500000 I-1709.557959 J1222.136790
G03 X97.843723 Y122.284378 Z-11.500000 I1054.268361 J-778.980903
G03 X87.793763 Y104.073830 Z-11.500000 I79.744108 J-55.887276
G03 X86.354653 Y92.947629 Z-11.500000 I19.491351 J-8.177265
G03 X88.605683 Y90.039160 Z-11.500000 I3.673137 J0.517516
G01 X88.605683 Y90.039160 Z-11.500000
G01 X88.594083 Y90.039160 Z-11.500000
G00 Z5.000000
(End cutting path id: path842-5)
(Start cutting path id: path842-6)
(Change tool to Cylindrical cutter)
G00 Z5.000000
G00 X137.491354 Y37.021720
G01 Z-1.000000 F200.0(Penetrate)
G03 X141.164367 Y36.405028 Z-1.000000 I3.144102 J7.479687 F400.000000
G03 X144.439094 Y37.021720 Z-1.000000 I-0.900525 J13.784917
G02 X147.099392 Y37.739596 Z-1.000000 I17.511854 J-59.607080
G02 X148.556704 Y37.624870 Z-1.000000 I0.555531 J-2.256492
G02 X149.957531 Y36.041241 Z-1.000000 I-0.931342 J-2.235212
G02 X149.820984 Y33.890020 Z-1.000000 I-3.149780 J-0.880015
G02 X148.021439 Y31.387594 Z-1.000000 I-6.368543 J2.681492
G02 X144.601484 Y28.798100 Z-1.000000 I-19.090646 J21.659965
G02 X131.518983 Y23.336668 Z-1.000000 I-21.300024 J32.622957
G02 X114.165964 Y24.947270 Z-1.000000 I-6.119118 J28.359262
G02 X99.912822 Y39.807329 Z-1.000000 I10.005659 J23.862543
G02 X100.293684 Y58.166520 Z-1.000000 I23.436573 J8.697353
G02 X109.501271 Y74.075825 Z-1.000000 I66.695632 J-27.981297
G02 X125.667725 Y95.045223 Z-1.000000 I2234.503785 J-1705.984538
G03 X141.147821 Y116.344280 Z-1.000000 I-314.839018 J245.099099
G03 X156.026390 Y143.824400 Z-1.000000 I-130.553813 J88.453703
G03 X157.277249 Y154.547891 Z-1.000000 I-17.923733 J7.525442
G03 X153.683410 Y159.088550 Z-1.000000 I-5.910983 J-0.985868
G02 X151.889817 Y160.846850 Z-1.000000 I1.305363 J3.125512
G02 X151.862394 Y163.345340 Z-1.000000 I2.904159 J1.281271
G02 X154.695442 Y166.253292 Z-1.000000 I5.101410 J-2.135994
G02 X163.391694 Y168.675039 Z-1.000000 I12.305011 J-27.361509
G02 X172.538580 Y168.755587 Z-1.000000 I4.932259 J-40.706164
G02 X182.645870 Y166.175480 Z-1.000000 I-3.660949 J-35.428532
G02 X193.924172 Y155.311018 Z-1.000000 I-8.367767 J-19.972689
G02 X194.233170 Y138.581690 Z-1.000000 I-18.797272 J-8.714712
G02 X185.331998 Y122.624520 Z-1.000000 I-75.504057 J31.656212
G02 X165.931857 Y95.932539 Z-1.000000 I-1709.560203 J1222.138384
G03 X146.740993 Y69.266938 Z-1.000000 I1054.267946 J-778.980556
G03 X136.691034 Y51.056390 Z-1.000000 I79.744122 J-55.887283
G03 X135.251924 Y39.930189 Z-1.000000 I19.491351 J-8.177265
G03 X137.502954 Y37.021720 Z-1.000000 I3.673137 J0.517516
G01 X137.502954 Y37.021720 Z-1.000000
G01 X137.491354 Y37.021720 Z-1.000000
G00 Z5.000000
(End cutting path id: path842-6)
(Start cutting path id: path842-6)
(Change tool to Cylindrical cutter)
G00 Z5.000000
G00 X137.491354 Y37.021720
G01 Z-2.000000 F200.0(Penetrate)
G03 X141.164367 Y36.405028 Z-2.000000 I3.144102 J7.479687 F400.000000
G03 X144.439094 Y37.021720 Z-2.000000 I-0.900525 J13.784917
G02 X147.099392 Y37.739596 Z-2.000000 I17.511854 J-59.607080
G02 X148.556704 Y37.624870 Z-2.000000 I0.555531 J-2.256492
G02 X149.957531 Y36.041241 Z-2.000000 I-0.931342 J-2.235212
G02 X149.820984 Y33.890020 Z-2.000000 I-3.149780 J-0.880015
G02 X148.021439 Y31.387594 Z-2.000000 I-6.368543 J2.681492
G02 X144.601484 Y28.798100 Z-2.000000 I-19.090646 J21.659965
G02 X131.518983 Y23.336668 Z-2.000000 I-21.300024 J32.622957
G02 X114.165964 Y24.947270 Z-2.000000 I-6.119118 J28.359262
G02 X99.912822 Y39.807329 Z-2.000000 I10.005659 J23.862543
G02 X100.293684 Y58.166520 Z-2.000000 I23.436573 J8.697353
G02 X109.501271 Y74.075825 Z-2.000000 I66.695632 J-27.981297
G02 X125.667725 Y95.045223 Z-2.000000 I2234.503785 J-1705.984538
G03 X141.147821 Y116.344280 Z-2.000000 I-314.839018 J245.099099
G03 X156.026390 Y143.824400 Z-2.000000 I-130.553813 J88.453703
G03 X157.277249 Y154.547891 Z-2.000000 I-17.923733 J7.525442
G03 X153.683410 Y159.088550 Z-2.000000 I-5.910983 J-0.985868
G02 X151.889817 Y160.846850 Z-2.000000 I1.305363 J3.125512
G02 X151.862394 Y163.345340 Z-2.000000 I2.904159 J1.281271
G02 X154.695442 Y166.253292 Z-2.000000 I5.101410 J-2.135994
G02 X163.391694 Y168.675039 Z-2.000000 I12.305011 J-27.361509
G02 X172.538580 Y168.755587 Z-2.000000 I4.932259 J-40.706164
G02 X182.645870 Y166.175480 Z-2.000000 I-3.660949 J-35.428532
G02 X193.924172 Y155.311018 Z-2.000000 I-8.367767 J-19.972689
G02 X194.233170 Y138.581690 Z-2.000000 I-18.797272 J-8.714712
G02 X185.331998 Y122.624520 Z-2.000000 I-75.504057 J31.656212
G02 X165.931857 Y95.932539 Z-2.000000 I-1709.560203 J1222.138384
G03 X146.740993 Y69.266938 Z-2.000000 I1054.267946 J-778.980556
G03 X136.691034 Y51.056390 Z-2.000000 I79.744122 J-55.887283
G03 X135.251924 Y39.930189 Z-2.000000 I19.491351 J-8.177265
G03 X137.502954 Y37.021720 Z-2.000000 I3.673137 J0.517516
G01 X137.502954 Y37.021720 Z-2.000000
G01 X137.491354 Y37.021720 Z-2.000000
G00 Z5.000000
(End cutting path id: path842-6)
(Start cutting path id: path842-6)
(Change tool to Cylindrical cutter)
G00 Z5.000000
G00 X137.491354 Y37.021720
G01 Z-3.000000 F200.0(Penetrate)
G03 X141.164367 Y36.405028 Z-3.000000 I3.144102 J7.479687 F400.000000
G03 X144.439094 Y37.021720 Z-3.000000 I-0.900525 J13.784917
G02 X147.099392 Y37.739596 Z-3.000000 I17.511854 J-59.607080
G02 X148.556704 Y37.624870 Z-3.000000 I0.555531 J-2.256492
G02 X149.957531 Y36.041241 Z-3.000000 I-0.931342 J-2.235212
G02 X149.820984 Y33.890020 Z-3.000000 I-3.149780 J-0.880015
G02 X148.021439 Y31.387594 Z-3.000000 I-6.368543 J2.681492
G02 X144.601484 Y28.798100 Z-3.000000 I-19.090646 J21.659965
G02 X131.518983 Y23.336668 Z-3.000000 I-21.300024 J32.622957
G02 X114.165964 Y24.947270 Z-3.000000 I-6.119118 J28.359262
G02 X99.912822 Y39.807329 Z-3.000000 I10.005659 J23.862543
G02 X100.293684 Y58.166520 Z-3.000000 I23.436573 J8.697353
G02 X109.501271 Y74.075825 Z-3.000000 I66.695632 J-27.981297
G02 X125.667725 Y95.045223 Z-3.000000 I2234.503785 J-1705.984538
G03 X141.147821 Y116.344280 Z-3.000000 I-314.839018 J245.099099
G03 X156.026390 Y143.824400 Z-3.000000 I-130.553813 J88.453703
G03 X157.277249 Y154.547891 Z-3.000000 I-17.923733 J7.525442
G03 X153.683410 Y159.088550 Z-3.000000 I-5.910983 J-0.985868
G02 X151.889817 Y160.846850 Z-3.000000 I1.305363 J3.125512
G02 X151.862394 Y163.345340 Z-3.000000 I2.904159 J1.281271
G02 X154.695442 Y166.253292 Z-3.000000 I5.101410 J-2.135994
G02 X163.391694 Y168.675039 Z-3.000000 I12.305011 J-27.361509
G02 X172.538580 Y168.755587 Z-3.000000 I4.932259 J-40.706164
G02 X182.645870 Y166.175480 Z-3.000000 I-3.660949 J-35.428532
G02 X193.924172 Y155.311018 Z-3.000000 I-8.367767 J-19.972689
G02 X194.233170 Y138.581690 Z-3.000000 I-18.797272 J-8.714712
G02 X185.331998 Y122.624520 Z-3.000000 I-75.504057 J31.656212
G02 X165.931857 Y95.932539 Z-3.000000 I-1709.560203 J1222.138384
G03 X146.740993 Y69.266938 Z-3.000000 I1054.267946 J-778.980556
G03 X136.691034 Y51.056390 Z-3.000000 I79.744122 J-55.887283
G03 X135.251924 Y39.930189 Z-3.000000 I19.491351 J-8.177265
G03 X137.502954 Y37.021720 Z-3.000000 I3.673137 J0.517516
G01 X137.502954 Y37.021720 Z-3.000000
G01 X137.491354 Y37.021720 Z-3.000000
G00 Z5.000000
(End cutting path id: path842-6)
(Start cutting path id: path842-6)
(Change tool to Cylindrical cutter)
G00 Z5.000000
G00 X137.491354 Y37.021720
G01 Z-4.000000 F200.0(Penetrate)
G03 X141.164367 Y36.405028 Z-4.000000 I3.144102 J7.479687 F400.000000
G03 X144.439094 Y37.021720 Z-4.000000 I-0.900525 J13.784917
G02 X147.099392 Y37.739596 Z-4.000000 I17.511854 J-59.607080
G02 X148.556704 Y37.624870 Z-4.000000 I0.555531 J-2.256492
G02 X149.957531 Y36.041241 Z-4.000000 I-0.931342 J-2.235212
G02 X149.820984 Y33.890020 Z-4.000000 I-3.149780 J-0.880015
G02 X148.021439 Y31.387594 Z-4.000000 I-6.368543 J2.681492
G02 X144.601484 Y28.798100 Z-4.000000 I-19.090646 J21.659965
G02 X131.518983 Y23.336668 Z-4.000000 I-21.300024 J32.622957
G02 X114.165964 Y24.947270 Z-4.000000 I-6.119118 J28.359262
G02 X99.912822 Y39.807329 Z-4.000000 I10.005659 J23.862543
G02 X100.293684 Y58.166520 Z-4.000000 I23.436573 J8.697353
G02 X109.501271 Y74.075825 Z-4.000000 I66.695632 J-27.981297
G02 X125.667725 Y95.045223 Z-4.000000 I2234.503785 J-1705.984538
G03 X141.147821 Y116.344280 Z-4.000000 I-314.839018 J245.099099
G03 X156.026390 Y143.824400 Z-4.000000 I-130.553813 J88.453703
G03 X157.277249 Y154.547891 Z-4.000000 I-17.923733 J7.525442
G03 X153.683410 Y159.088550 Z-4.000000 I-5.910983 J-0.985868
G02 X151.889817 Y160.846850 Z-4.000000 I1.305363 J3.125512
G02 X151.862394 Y163.345340 Z-4.000000 I2.904159 J1.281271
G02 X154.695442 Y166.253292 Z-4.000000 I5.101410 J-2.135994
G02 X163.391694 Y168.675039 Z-4.000000 I12.305011 J-27.361509
G02 X172.538580 Y168.755587 Z-4.000000 I4.932259 J-40.706164
G02 X182.645870 Y166.175480 Z-4.000000 I-3.660949 J-35.428532
G02 X193.924172 Y155.311018 Z-4.000000 I-8.367767 J-19.972689
G02 X194.233170 Y138.581690 Z-4.000000 I-18.797272 J-8.714712
G02 X185.331998 Y122.624520 Z-4.000000 I-75.504057 J31.656212
G02 X165.931857 Y95.932539 Z-4.000000 I-1709.560203 J1222.138384
G03 X146.740993 Y69.266938 Z-4.000000 I1054.267946 J-778.980556
G03 X136.691034 Y51.056390 Z-4.000000 I79.744122 J-55.887283
G03 X135.251924 Y39.930189 Z-4.000000 I19.491351 J-8.177265
G03 X137.502954 Y37.021720 Z-4.000000 I3.673137 J0.517516
G01 X137.502954 Y37.021720 Z-4.000000
G01 X137.491354 Y37.021720 Z-4.000000
G00 Z5.000000
(End cutting path id: path842-6)
(Start cutting path id: path842-6)
(Change tool to Cylindrical cutter)
G00 Z5.000000
G00 X137.491354 Y37.021720
G01 Z-5.000000 F200.0(Penetrate)
G03 X141.164367 Y36.405028 Z-5.000000 I3.144102 J7.479687 F400.000000
G03 X144.439094 Y37.021720 Z-5.000000 I-0.900525 J13.784917
G02 X147.099392 Y37.739596 Z-5.000000 I17.511854 J-59.607080
G02 X148.556704 Y37.624870 Z-5.000000 I0.555531 J-2.256492
G02 X149.957531 Y36.041241 Z-5.000000 I-0.931342 J-2.235212
G02 X149.820984 Y33.890020 Z-5.000000 I-3.149780 J-0.880015
G02 X148.021439 Y31.387594 Z-5.000000 I-6.368543 J2.681492
G02 X144.601484 Y28.798100 Z-5.000000 I-19.090646 J21.659965
G02 X131.518983 Y23.336668 Z-5.000000 I-21.300024 J32.622957
G02 X114.165964 Y24.947270 Z-5.000000 I-6.119118 J28.359262
G02 X99.912822 Y39.807329 Z-5.000000 I10.005659 J23.862543
G02 X100.293684 Y58.166520 Z-5.000000 I23.436573 J8.697353
G02 X109.501271 Y74.075825 Z-5.000000 I66.695632 J-27.981297
G02 X125.667725 Y95.045223 Z-5.000000 I2234.503785 J-1705.984538
G03 X141.147821 Y116.344280 Z-5.000000 I-314.839018 J245.099099
G03 X156.026390 Y143.824400 Z-5.000000 I-130.553813 J88.453703
G03 X157.277249 Y154.547891 Z-5.000000 I-17.923733 J7.525442
G03 X153.683410 Y159.088550 Z-5.000000 I-5.910983 J-0.985868
G02 X151.889817 Y160.846850 Z-5.000000 I1.305363 J3.125512
G02 X151.862394 Y163.345340 Z-5.000000 I2.904159 J1.281271
G02 X154.695442 Y166.253292 Z-5.000000 I5.101410 J-2.135994
G02 X163.391694 Y168.675039 Z-5.000000 I12.305011 J-27.361509
G02 X172.538580 Y168.755587 Z-5.000000 I4.932259 J-40.706164
G02 X182.645870 Y166.175480 Z-5.000000 I-3.660949 J-35.428532
G02 X193.924172 Y155.311018 Z-5.000000 I-8.367767 J-19.972689
G02 X194.233170 Y138.581690 Z-5.000000 I-18.797272 J-8.714712
G02 X185.331998 Y122.624520 Z-5.000000 I-75.504057 J31.656212
G02 X165.931857 Y95.932539 Z-5.000000 I-1709.560203 J1222.138384
G03 X146.740993 Y69.266938 Z-5.000000 I1054.267946 J-778.980556
G03 X136.691034 Y51.056390 Z-5.000000 I79.744122 J-55.887283
G03 X135.251924 Y39.930189 Z-5.000000 I19.491351 J-8.177265
G03 X137.502954 Y37.021720 Z-5.000000 I3.673137 J0.517516
G01 X137.502954 Y37.021720 Z-5.000000
G01 X137.491354 Y37.021720 Z-5.000000
G00 Z5.000000
(End cutting path id: path842-6)
(Start cutting path id: path842-6)
(Change tool to Cylindrical cutter)
G00 Z5.000000
G00 X137.491354 Y37.021720
G01 Z-6.000000 F200.0(Penetrate)
G03 X141.164367 Y36.405028 Z-6.000000 I3.144102 J7.479687 F400.000000
G03 X144.439094 Y37.021720 Z-6.000000 I-0.900525 J13.784917
G02 X147.099392 Y37.739596 Z-6.000000 I17.511854 J-59.607080
G02 X148.556704 Y37.624870 Z-6.000000 I0.555531 J-2.256492
G02 X149.957531 Y36.041241 Z-6.000000 I-0.931342 J-2.235212
G02 X149.820984 Y33.890020 Z-6.000000 I-3.149780 J-0.880015
G02 X148.021439 Y31.387594 Z-6.000000 I-6.368543 J2.681492
G02 X144.601484 Y28.798100 Z-6.000000 I-19.090646 J21.659965
G02 X131.518983 Y23.336668 Z-6.000000 I-21.300024 J32.622957
G02 X114.165964 Y24.947270 Z-6.000000 I-6.119118 J28.359262
G02 X99.912822 Y39.807329 Z-6.000000 I10.005659 J23.862543
G02 X100.293684 Y58.166520 Z-6.000000 I23.436573 J8.697353
G02 X109.501271 Y74.075825 Z-6.000000 I66.695632 J-27.981297
G02 X125.667725 Y95.045223 Z-6.000000 I2234.503785 J-1705.984538
G03 X141.147821 Y116.344280 Z-6.000000 I-314.839018 J245.099099
G03 X156.026390 Y143.824400 Z-6.000000 I-130.553813 J88.453703
G03 X157.277249 Y154.547891 Z-6.000000 I-17.923733 J7.525442
G03 X153.683410 Y159.088550 Z-6.000000 I-5.910983 J-0.985868
G02 X151.889817 Y160.846850 Z-6.000000 I1.305363 J3.125512
G02 X151.862394 Y163.345340 Z-6.000000 I2.904159 J1.281271
G02 X154.695442 Y166.253292 Z-6.000000 I5.101410 J-2.135994
G02 X163.391694 Y168.675039 Z-6.000000 I12.305011 J-27.361509
G02 X172.538580 Y168.755587 Z-6.000000 I4.932259 J-40.706164
G02 X182.645870 Y166.175480 Z-6.000000 I-3.660949 J-35.428532
G02 X193.924172 Y155.311018 Z-6.000000 I-8.367767 J-19.972689
G02 X194.233170 Y138.581690 Z-6.000000 I-18.797272 J-8.714712
G02 X185.331998 Y122.624520 Z-6.000000 I-75.504057 J31.656212
G02 X165.931857 Y95.932539 Z-6.000000 I-1709.560203 J1222.138384
G03 X146.740993 Y69.266938 Z-6.000000 I1054.267946 J-778.980556
G03 X136.691034 Y51.056390 Z-6.000000 I79.744122 J-55.887283
G03 X135.251924 Y39.930189 Z-6.000000 I19.491351 J-8.177265
G03 X137.502954 Y37.021720 Z-6.000000 I3.673137 J0.517516
G01 X137.502954 Y37.021720 Z-6.000000
G01 X137.491354 Y37.021720 Z-6.000000
G00 Z5.000000
(End cutting path id: path842-6)
(Start cutting path id: path842-6)
(Change tool to Cylindrical cutter)
G00 Z5.000000
G00 X137.491354 Y37.021720
G01 Z-7.000000 F200.0(Penetrate)
G03 X141.164367 Y36.405028 Z-7.000000 I3.144102 J7.479687 F400.000000
G03 X144.439094 Y37.021720 Z-7.000000 I-0.900525 J13.784917
G02 X147.099392 Y37.739596 Z-7.000000 I17.511854 J-59.607080
G02 X148.556704 Y37.624870 Z-7.000000 I0.555531 J-2.256492
G02 X149.957531 Y36.041241 Z-7.000000 I-0.931342 J-2.235212
G02 X149.820984 Y33.890020 Z-7.000000 I-3.149780 J-0.880015
G02 X148.021439 Y31.387594 Z-7.000000 I-6.368543 J2.681492
G02 X144.601484 Y28.798100 Z-7.000000 I-19.090646 J21.659965
G02 X131.518983 Y23.336668 Z-7.000000 I-21.300024 J32.622957
G02 X114.165964 Y24.947270 Z-7.000000 I-6.119118 J28.359262
G02 X99.912822 Y39.807329 Z-7.000000 I10.005659 J23.862543
G02 X100.293684 Y58.166520 Z-7.000000 I23.436573 J8.697353
G02 X109.501271 Y74.075825 Z-7.000000 I66.695632 J-27.981297
G02 X125.667725 Y95.045223 Z-7.000000 I2234.503785 J-1705.984538
G03 X141.147821 Y116.344280 Z-7.000000 I-314.839018 J245.099099
G03 X156.026390 Y143.824400 Z-7.000000 I-130.553813 J88.453703
G03 X157.277249 Y154.547891 Z-7.000000 I-17.923733 J7.525442
G03 X153.683410 Y159.088550 Z-7.000000 I-5.910983 J-0.985868
G02 X151.889817 Y160.846850 Z-7.000000 I1.305363 J3.125512
G02 X151.862394 Y163.345340 Z-7.000000 I2.904159 J1.281271
G02 X154.695442 Y166.253292 Z-7.000000 I5.101410 J-2.135994
G02 X163.391694 Y168.675039 Z-7.000000 I12.305011 J-27.361509
G02 X172.538580 Y168.755587 Z-7.000000 I4.932259 J-40.706164
G02 X182.645870 Y166.175480 Z-7.000000 I-3.660949 J-35.428532
G02 X193.924172 Y155.311018 Z-7.000000 I-8.367767 J-19.972689
G02 X194.233170 Y138.581690 Z-7.000000 I-18.797272 J-8.714712
G02 X185.331998 Y122.624520 Z-7.000000 I-75.504057 J31.656212
G02 X165.931857 Y95.932539 Z-7.000000 I-1709.560203 J1222.138384
G03 X146.740993 Y69.266938 Z-7.000000 I1054.267946 J-778.980556
G03 X136.691034 Y51.056390 Z-7.000000 I79.744122 J-55.887283
G03 X135.251924 Y39.930189 Z-7.000000 I19.491351 J-8.177265
G03 X137.502954 Y37.021720 Z-7.000000 I3.673137 J0.517516
G01 X137.502954 Y37.021720 Z-7.000000
G01 X137.491354 Y37.021720 Z-7.000000
G00 Z5.000000
(End cutting path id: path842-6)
(Start cutting path id: path842-6)
(Change tool to Cylindrical cutter)
G00 Z5.000000
G00 X137.491354 Y37.021720
G01 Z-8.000000 F200.0(Penetrate)
G03 X141.164367 Y36.405028 Z-8.000000 I3.144102 J7.479687 F400.000000
G03 X144.439094 Y37.021720 Z-8.000000 I-0.900525 J13.784917
G02 X147.099392 Y37.739596 Z-8.000000 I17.511854 J-59.607080
G02 X148.556704 Y37.624870 Z-8.000000 I0.555531 J-2.256492
G02 X149.957531 Y36.041241 Z-8.000000 I-0.931342 J-2.235212
G02 X149.820984 Y33.890020 Z-8.000000 I-3.149780 J-0.880015
G02 X148.021439 Y31.387594 Z-8.000000 I-6.368543 J2.681492
G02 X144.601484 Y28.798100 Z-8.000000 I-19.090646 J21.659965
G02 X131.518983 Y23.336668 Z-8.000000 I-21.300024 J32.622957
G02 X114.165964 Y24.947270 Z-8.000000 I-6.119118 J28.359262
G02 X99.912822 Y39.807329 Z-8.000000 I10.005659 J23.862543
G02 X100.293684 Y58.166520 Z-8.000000 I23.436573 J8.697353
G02 X109.501271 Y74.075825 Z-8.000000 I66.695632 J-27.981297
G02 X125.667725 Y95.045223 Z-8.000000 I2234.503785 J-1705.984538
G03 X141.147821 Y116.344280 Z-8.000000 I-314.839018 J245.099099
G03 X156.026390 Y143.824400 Z-8.000000 I-130.553813 J88.453703
G03 X157.277249 Y154.547891 Z-8.000000 I-17.923733 J7.525442
G03 X153.683410 Y159.088550 Z-8.000000 I-5.910983 J-0.985868
G02 X151.889817 Y160.846850 Z-8.000000 I1.305363 J3.125512
G02 X151.862394 Y163.345340 Z-8.000000 I2.904159 J1.281271
G02 X154.695442 Y166.253292 Z-8.000000 I5.101410 J-2.135994
G02 X163.391694 Y168.675039 Z-8.000000 I12.305011 J-27.361509
G02 X172.538580 Y168.755587 Z-8.000000 I4.932259 J-40.706164
G02 X182.645870 Y166.175480 Z-8.000000 I-3.660949 J-35.428532
G02 X193.924172 Y155.311018 Z-8.000000 I-8.367767 J-19.972689
G02 X194.233170 Y138.581690 Z-8.000000 I-18.797272 J-8.714712
G02 X185.331998 Y122.624520 Z-8.000000 I-75.504057 J31.656212
G02 X165.931857 Y95.932539 Z-8.000000 I-1709.560203 J1222.138384
G03 X146.740993 Y69.266938 Z-8.000000 I1054.267946 J-778.980556
G03 X136.691034 Y51.056390 Z-8.000000 I79.744122 J-55.887283
G03 X135.251924 Y39.930189 Z-8.000000 I19.491351 J-8.177265
G03 X137.502954 Y37.021720 Z-8.000000 I3.673137 J0.517516
G01 X137.502954 Y37.021720 Z-8.000000
G01 X137.491354 Y37.021720 Z-8.000000
G00 Z5.000000
(End cutting path id: path842-6)
(Start cutting path id: path842-6)
(Change tool to Cylindrical cutter)
G00 Z5.000000
G00 X137.491354 Y37.021720
G01 Z-9.000000 F200.0(Penetrate)
G03 X141.164367 Y36.405028 Z-9.000000 I3.144102 J7.479687 F400.000000
G03 X144.439094 Y37.021720 Z-9.000000 I-0.900525 J13.784917
G02 X147.099392 Y37.739596 Z-9.000000 I17.511854 J-59.607080
G02 X148.556704 Y37.624870 Z-9.000000 I0.555531 J-2.256492
G02 X149.957531 Y36.041241 Z-9.000000 I-0.931342 J-2.235212
G02 X149.820984 Y33.890020 Z-9.000000 I-3.149780 J-0.880015
G02 X148.021439 Y31.387594 Z-9.000000 I-6.368543 J2.681492
G02 X144.601484 Y28.798100 Z-9.000000 I-19.090646 J21.659965
G02 X131.518983 Y23.336668 Z-9.000000 I-21.300024 J32.622957
G02 X114.165964 Y24.947270 Z-9.000000 I-6.119118 J28.359262
G02 X99.912822 Y39.807329 Z-9.000000 I10.005659 J23.862543
G02 X100.293684 Y58.166520 Z-9.000000 I23.436573 J8.697353
G02 X109.501271 Y74.075825 Z-9.000000 I66.695632 J-27.981297
G02 X125.667725 Y95.045223 Z-9.000000 I2234.503785 J-1705.984538
G03 X141.147821 Y116.344280 Z-9.000000 I-314.839018 J245.099099
G03 X156.026390 Y143.824400 Z-9.000000 I-130.553813 J88.453703
G03 X157.277249 Y154.547891 Z-9.000000 I-17.923733 J7.525442
G03 X153.683410 Y159.088550 Z-9.000000 I-5.910983 J-0.985868
G02 X151.889817 Y160.846850 Z-9.000000 I1.305363 J3.125512
G02 X151.862394 Y163.345340 Z-9.000000 I2.904159 J1.281271
G02 X154.695442 Y166.253292 Z-9.000000 I5.101410 J-2.135994
G02 X163.391694 Y168.675039 Z-9.000000 I12.305011 J-27.361509
G02 X172.538580 Y168.755587 Z-9.000000 I4.932259 J-40.706164
G02 X182.645870 Y166.175480 Z-9.000000 I-3.660949 J-35.428532
G02 X193.924172 Y155.311018 Z-9.000000 I-8.367767 J-19.972689
G02 X194.233170 Y138.581690 Z-9.000000 I-18.797272 J-8.714712
G02 X185.331998 Y122.624520 Z-9.000000 I-75.504057 J31.656212
G02 X165.931857 Y95.932539 Z-9.000000 I-1709.560203 J1222.138384
G03 X146.740993 Y69.266938 Z-9.000000 I1054.267946 J-778.980556
G03 X136.691034 Y51.056390 Z-9.000000 I79.744122 J-55.887283
G03 X135.251924 Y39.930189 Z-9.000000 I19.491351 J-8.177265
G03 X137.502954 Y37.021720 Z-9.000000 I3.673137 J0.517516
G01 X137.502954 Y37.021720 Z-9.000000
G01 X137.491354 Y37.021720 Z-9.000000
G00 Z5.000000
(End cutting path id: path842-6)
(Start cutting path id: path842-6)
(Change tool to Cylindrical cutter)
G00 Z5.000000
G00 X137.491354 Y37.021720
G01 Z-10.000000 F200.0(Penetrate)
G03 X141.164367 Y36.405028 Z-10.000000 I3.144102 J7.479687 F400.000000
G03 X144.439094 Y37.021720 Z-10.000000 I-0.900525 J13.784917
G02 X147.099392 Y37.739596 Z-10.000000 I17.511854 J-59.607080
G02 X148.556704 Y37.624870 Z-10.000000 I0.555531 J-2.256492
G02 X149.957531 Y36.041241 Z-10.000000 I-0.931342 J-2.235212
G02 X149.820984 Y33.890020 Z-10.000000 I-3.149780 J-0.880015
G02 X148.021439 Y31.387594 Z-10.000000 I-6.368543 J2.681492
G02 X144.601484 Y28.798100 Z-10.000000 I-19.090646 J21.659965
G02 X131.518983 Y23.336668 Z-10.000000 I-21.300024 J32.622957
G02 X114.165964 Y24.947270 Z-10.000000 I-6.119118 J28.359262
G02 X99.912822 Y39.807329 Z-10.000000 I10.005659 J23.862543
G02 X100.293684 Y58.166520 Z-10.000000 I23.436573 J8.697353
G02 X109.501271 Y74.075825 Z-10.000000 I66.695632 J-27.981297
G02 X125.667725 Y95.045223 Z-10.000000 I2234.503785 J-1705.984538
G03 X141.147821 Y116.344280 Z-10.000000 I-314.839018 J245.099099
G03 X156.026390 Y143.824400 Z-10.000000 I-130.553813 J88.453703
G03 X157.277249 Y154.547891 Z-10.000000 I-17.923733 J7.525442
G03 X153.683410 Y159.088550 Z-10.000000 I-5.910983 J-0.985868
G02 X151.889817 Y160.846850 Z-10.000000 I1.305363 J3.125512
G02 X151.862394 Y163.345340 Z-10.000000 I2.904159 J1.281271
G02 X154.695442 Y166.253292 Z-10.000000 I5.101410 J-2.135994
G02 X163.391694 Y168.675039 Z-10.000000 I12.305011 J-27.361509
G02 X172.538580 Y168.755587 Z-10.000000 I4.932259 J-40.706164
G02 X182.645870 Y166.175480 Z-10.000000 I-3.660949 J-35.428532
G02 X193.924172 Y155.311018 Z-10.000000 I-8.367767 J-19.972689
G02 X194.233170 Y138.581690 Z-10.000000 I-18.797272 J-8.714712
G02 X185.331998 Y122.624520 Z-10.000000 I-75.504057 J31.656212
G02 X165.931857 Y95.932539 Z-10.000000 I-1709.560203 J1222.138384
G03 X146.740993 Y69.266938 Z-10.000000 I1054.267946 J-778.980556
G03 X136.691034 Y51.056390 Z-10.000000 I79.744122 J-55.887283
G03 X135.251924 Y39.930189 Z-10.000000 I19.491351 J-8.177265
G03 X137.502954 Y37.021720 Z-10.000000 I3.673137 J0.517516
G01 X137.502954 Y37.021720 Z-10.000000
G01 X137.491354 Y37.021720 Z-10.000000
G00 Z5.000000
(End cutting path id: path842-6)
(Start cutting path id: path842-6)
(Change tool to Cylindrical cutter)
G00 Z5.000000
G00 X137.491354 Y37.021720
G01 Z-11.000000 F200.0(Penetrate)
G03 X141.164367 Y36.405028 Z-11.000000 I3.144102 J7.479687 F400.000000
G03 X144.439094 Y37.021720 Z-11.000000 I-0.900525 J13.784917
G02 X147.099392 Y37.739596 Z-11.000000 I17.511854 J-59.607080
G02 X148.556704 Y37.624870 Z-11.000000 I0.555531 J-2.256492
G02 X149.957531 Y36.041241 Z-11.000000 I-0.931342 J-2.235212
G02 X149.820984 Y33.890020 Z-11.000000 I-3.149780 J-0.880015
G02 X148.021439 Y31.387594 Z-11.000000 I-6.368543 J2.681492
G02 X144.601484 Y28.798100 Z-11.000000 I-19.090646 J21.659965
G02 X131.518983 Y23.336668 Z-11.000000 I-21.300024 J32.622957
G02 X114.165964 Y24.947270 Z-11.000000 I-6.119118 J28.359262
G02 X99.912822 Y39.807329 Z-11.000000 I10.005659 J23.862543
G02 X100.293684 Y58.166520 Z-11.000000 I23.436573 J8.697353
G02 X109.501271 Y74.075825 Z-11.000000 I66.695632 J-27.981297
G02 X125.667725 Y95.045223 Z-11.000000 I2234.503785 J-1705.984538
G03 X141.147821 Y116.344280 Z-11.000000 I-314.839018 J245.099099
G03 X156.026390 Y143.824400 Z-11.000000 I-130.553813 J88.453703
G03 X157.277249 Y154.547891 Z-11.000000 I-17.923733 J7.525442
G03 X153.683410 Y159.088550 Z-11.000000 I-5.910983 J-0.985868
G02 X151.889817 Y160.846850 Z-11.000000 I1.305363 J3.125512
G02 X151.862394 Y163.345340 Z-11.000000 I2.904159 J1.281271
G02 X154.695442 Y166.253292 Z-11.000000 I5.101410 J-2.135994
G02 X163.391694 Y168.675039 Z-11.000000 I12.305011 J-27.361509
G02 X172.538580 Y168.755587 Z-11.000000 I4.932259 J-40.706164
G02 X182.645870 Y166.175480 Z-11.000000 I-3.660949 J-35.428532
G02 X193.924172 Y155.311018 Z-11.000000 I-8.367767 J-19.972689
G02 X194.233170 Y138.581690 Z-11.000000 I-18.797272 J-8.714712
G02 X185.331998 Y122.624520 Z-11.000000 I-75.504057 J31.656212
G02 X165.931857 Y95.932539 Z-11.000000 I-1709.560203 J1222.138384
G03 X146.740993 Y69.266938 Z-11.000000 I1054.267946 J-778.980556
G03 X136.691034 Y51.056390 Z-11.000000 I79.744122 J-55.887283
G03 X135.251924 Y39.930189 Z-11.000000 I19.491351 J-8.177265
G03 X137.502954 Y37.021720 Z-11.000000 I3.673137 J0.517516
G01 X137.502954 Y37.021720 Z-11.000000
G01 X137.491354 Y37.021720 Z-11.000000
G00 Z5.000000
(End cutting path id: path842-6)
(Start cutting path id: path842-6)
(Change tool to Cylindrical cutter)
G00 Z5.000000
G00 X137.491354 Y37.021720
G01 Z-11.500000 F200.0(Penetrate)
G03 X141.164367 Y36.405028 Z-11.500000 I3.144102 J7.479687 F400.000000
G03 X144.439094 Y37.021720 Z-11.500000 I-0.900525 J13.784917
G02 X147.099392 Y37.739596 Z-11.500000 I17.511854 J-59.607080
G02 X148.556704 Y37.624870 Z-11.500000 I0.555531 J-2.256492
G02 X149.957531 Y36.041241 Z-11.500000 I-0.931342 J-2.235212
G02 X149.820984 Y33.890020 Z-11.500000 I-3.149780 J-0.880015
G02 X148.021439 Y31.387594 Z-11.500000 I-6.368543 J2.681492
G02 X144.601484 Y28.798100 Z-11.500000 I-19.090646 J21.659965
G02 X131.518983 Y23.336668 Z-11.500000 I-21.300024 J32.622957
G02 X114.165964 Y24.947270 Z-11.500000 I-6.119118 J28.359262
G02 X99.912822 Y39.807329 Z-11.500000 I10.005659 J23.862543
G02 X100.293684 Y58.166520 Z-11.500000 I23.436573 J8.697353
G02 X109.501271 Y74.075825 Z-11.500000 I66.695632 J-27.981297
G02 X125.667725 Y95.045223 Z-11.500000 I2234.503785 J-1705.984538
G03 X141.147821 Y116.344280 Z-11.500000 I-314.839018 J245.099099
G03 X156.026390 Y143.824400 Z-11.500000 I-130.553813 J88.453703
G03 X157.277249 Y154.547891 Z-11.500000 I-17.923733 J7.525442
G03 X153.683410 Y159.088550 Z-11.500000 I-5.910983 J-0.985868
G02 X151.889817 Y160.846850 Z-11.500000 I1.305363 J3.125512
G02 X151.862394 Y163.345340 Z-11.500000 I2.904159 J1.281271
G02 X154.695442 Y166.253292 Z-11.500000 I5.101410 J-2.135994
G02 X163.391694 Y168.675039 Z-11.500000 I12.305011 J-27.361509
G02 X172.538580 Y168.755587 Z-11.500000 I4.932259 J-40.706164
G02 X182.645870 Y166.175480 Z-11.500000 I-3.660949 J-35.428532
G02 X193.924172 Y155.311018 Z-11.500000 I-8.367767 J-19.972689
G02 X194.233170 Y138.581690 Z-11.500000 I-18.797272 J-8.714712
G02 X185.331998 Y122.624520 Z-11.500000 I-75.504057 J31.656212
G02 X165.931857 Y95.932539 Z-11.500000 I-1709.560203 J1222.138384
G03 X146.740993 Y69.266938 Z-11.500000 I1054.267946 J-778.980556
G03 X136.691034 Y51.056390 Z-11.500000 I79.744122 J-55.887283
G03 X135.251924 Y39.930189 Z-11.500000 I19.491351 J-8.177265
G03 X137.502954 Y37.021720 Z-11.500000 I3.673137 J0.517516
G01 X137.502954 Y37.021720 Z-11.500000
G01 X137.491354 Y37.021720 Z-11.500000
G00 Z5.000000
(End cutting path id: path842-6)
(Start cutting path id: path842-7)
(Change tool to Cylindrical cutter)
G00 Z5.000000
G00 X51.722107 Y156.700180
G01 Z-1.000000 F200.0(Penetrate)
G03 X55.395120 Y156.083488 Z-1.000000 I3.144102 J7.479687 F400.000000
G03 X58.669847 Y156.700180 Z-1.000000 I-0.900525 J13.784917
G02 X61.330145 Y157.418056 Z-1.000000 I17.511854 J-59.607080
G02 X62.787457 Y157.303330 Z-1.000000 I0.555531 J-2.256492
G02 X64.188284 Y155.719701 Z-1.000000 I-0.931342 J-2.235212
G02 X64.051737 Y153.568480 Z-1.000000 I-3.149781 J-0.880015
G02 X62.252192 Y151.066054 Z-1.000000 I-6.368544 J2.681492
G02 X58.832237 Y148.476560 Z-1.000000 I-19.090637 J21.659951
G02 X45.749736 Y143.015128 Z-1.000000 I-21.300024 J32.622957
G02 X28.396717 Y144.625730 Z-1.000000 I-6.119118 J28.359263
G02 X14.143574 Y159.485790 Z-1.000000 I10.005660 J23.862545
G02 X14.524437 Y177.844975 Z-1.000000 I23.436561 J8.697349
G02 X23.732024 Y193.754280 Z-1.000000 I66.695629 J-27.981296
G02 X39.898478 Y214.723678 Z-1.000000 I2234.499814 J-1705.981534
G03 X55.378575 Y236.022735 Z-1.000000 I-314.839117 J245.099188
G03 X70.257147 Y263.502855 Z-1.000000 I-130.553836 J88.453727
G03 X71.508006 Y274.226346 Z-1.000000 I-17.923735 J7.525442
G03 X67.914167 Y278.767005 Z-1.000000 I-5.910983 J-0.985868
G02 X66.120571 Y280.525305 Z-1.000000 I1.305362 J3.125516
G02 X66.093147 Y283.023793 Z-1.000000 I2.904152 J1.281271
G02 X68.926197 Y285.931745 Z-1.000000 I5.101414 J-2.136000
G02 X77.622451 Y288.353492 Z-1.000000 I12.305014 J-27.361524
G02 X86.769338 Y288.434040 Z-1.000000 I4.932259 J-40.706172
G02 X96.876627 Y285.853933 Z-1.000000 I-3.660948 J-35.428533
G02 X108.154928 Y274.989473 Z-1.000000 I-8.367767 J-19.972689
G02 X108.463927 Y258.260145 Z-1.000000 I-18.797271 J-8.714712
G02 X99.562754 Y242.302975 Z-1.000000 I-75.504045 J31.656207
G02 X80.162612 Y215.610994 Z-1.000000 I-1709.558334 J1222.137144
G03 X60.971746 Y188.945395 Z-1.000000 I1054.268727 J-778.981221
G03 X50.921787 Y170.734850 Z-1.000000 I79.744106 J-55.887280
G03 X49.482677 Y159.608649 Z-1.000000 I19.491351 J-8.177265
G03 X51.733707 Y156.700180 Z-1.000000 I3.673137 J0.517516
G01 X51.733707 Y156.700180 Z-1.000000
G01 X51.722107 Y156.700180 Z-1.000000
G00 Z5.000000
(End cutting path id: path842-7)
(Start cutting path id: path842-7)
(Change tool to Cylindrical cutter)
G00 Z5.000000
G00 X51.722107 Y156.700180
G01 Z-2.000000 F200.0(Penetrate)
G03 X55.395120 Y156.083488 Z-2.000000 I3.144102 J7.479687 F400.000000
G03 X58.669847 Y156.700180 Z-2.000000 I-0.900525 J13.784917
G02 X61.330145 Y157.418056 Z-2.000000 I17.511854 J-59.607080
G02 X62.787457 Y157.303330 Z-2.000000 I0.555531 J-2.256492
G02 X64.188284 Y155.719701 Z-2.000000 I-0.931342 J-2.235212
G02 X64.051737 Y153.568480 Z-2.000000 I-3.149781 J-0.880015
G02 X62.252192 Y151.066054 Z-2.000000 I-6.368544 J2.681492
G02 X58.832237 Y148.476560 Z-2.000000 I-19.090637 J21.659951
G02 X45.749736 Y143.015128 Z-2.000000 I-21.300024 J32.622957
G02 X28.396717 Y144.625730 Z-2.000000 I-6.119118 J28.359263
G02 X14.143574 Y159.485790 Z-2.000000 I10.005660 J23.862545
G02 X14.524437 Y177.844975 Z-2.000000 I23.436561 J8.697349
G02 X23.732024 Y193.754280 Z-2.000000 I66.695629 J-27.981296
G02 X39.898478 Y214.723678 Z-2.000000 I2234.499814 J-1705.981534
G03 X55.378575 Y236.022735 Z-2.000000 I-314.839117 J245.099188
G03 X70.257147 Y263.502855 Z-2.000000 I-130.553836 J88.453727
G03 X71.508006 Y274.226346 Z-2.000000 I-17.923735 J7.525442
G03 X67.914167 Y278.767005 Z-2.000000 I-5.910983 J-0.985868
G02 X66.120571 Y280.525305 Z-2.000000 I1.305362 J3.125516
G02 X66.093147 Y283.023793 Z-2.000000 I2.904152 J1.281271
G02 X68.926197 Y285.931745 Z-2.000000 I5.101414 J-2.136000
G02 X77.622451 Y288.353492 Z-2.000000 I12.305014 J-27.361524
G02 X86.769338 Y288.434040 Z-2.000000 I4.932259 J-40.706172
G02 X96.876627 Y285.853933 Z-2.000000 I-3.660948 J-35.428533
G02 X108.154928 Y274.989473 Z-2.000000 I-8.367767 J-19.972689
G02 X108.463927 Y258.260145 Z-2.000000 I-18.797271 J-8.714712
G02 X99.562754 Y242.302975 Z-2.000000 I-75.504045 J31.656207
G02 X80.162612 Y215.610994 Z-2.000000 I-1709.558334 J1222.137144
G03 X60.971746 Y188.945395 Z-2.000000 I1054.268727 J-778.981221
G03 X50.921787 Y170.734850 Z-2.000000 I79.744106 J-55.887280
G03 X49.482677 Y159.608649 Z-2.000000 I19.491351 J-8.177265
G03 X51.733707 Y156.700180 Z-2.000000 I3.673137 J0.517516
G01 X51.733707 Y156.700180 Z-2.000000
G01 X51.722107 Y156.700180 Z-2.000000
G00 Z5.000000
(End cutting path id: path842-7)
(Start cutting path id: path842-7)
(Change tool to Cylindrical cutter)
G00 Z5.000000
G00 X51.722107 Y156.700180
G01 Z-3.000000 F200.0(Penetrate)
G03 X55.395120 Y156.083488 Z-3.000000 I3.144102 J7.479687 F400.000000
G03 X58.669847 Y156.700180 Z-3.000000 I-0.900525 J13.784917
G02 X61.330145 Y157.418056 Z-3.000000 I17.511854 J-59.607080
G02 X62.787457 Y157.303330 Z-3.000000 I0.555531 J-2.256492
G02 X64.188284 Y155.719701 Z-3.000000 I-0.931342 J-2.235212
G02 X64.051737 Y153.568480 Z-3.000000 I-3.149781 J-0.880015
G02 X62.252192 Y151.066054 Z-3.000000 I-6.368544 J2.681492
G02 X58.832237 Y148.476560 Z-3.000000 I-19.090637 J21.659951
G02 X45.749736 Y143.015128 Z-3.000000 I-21.300024 J32.622957
G02 X28.396717 Y144.625730 Z-3.000000 I-6.119118 J28.359263
G02 X14.143574 Y159.485790 Z-3.000000 I10.005660 J23.862545
G02 X14.524437 Y177.844975 Z-3.000000 I23.436561 J8.697349
G02 X23.732024 Y193.754280 Z-3.000000 I66.695629 J-27.981296
G02 X39.898478 Y214.723678 Z-3.000000 I2234.499814 J-1705.981534
G03 X55.378575 Y236.022735 Z-3.000000 I-314.839117 J245.099188
G03 X70.257147 Y263.502855 Z-3.000000 I-130.553836 J88.453727
G03 X71.508006 Y274.226346 Z-3.000000 I-17.923735 J7.525442
G03 X67.914167 Y278.767005 Z-3.000000 I-5.910983 J-0.985868
G02 X66.120571 Y280.525305 Z-3.000000 I1.305362 J3.125516
G02 X66.093147 Y283.023793 Z-3.000000 I2.904152 J1.281271
G02 X68.926197 Y285.931745 Z-3.000000 I5.101414 J-2.136000
G02 X77.622451 Y288.353492 Z-3.000000 I12.305014 J-27.361524
G02 X86.769338 Y288.434040 Z-3.000000 I4.932259 J-40.706172
G02 X96.876627 Y285.853933 Z-3.000000 I-3.660948 J-35.428533
G02 X108.154928 Y274.989473 Z-3.000000 I-8.367767 J-19.972689
G02 X108.463927 Y258.260145 Z-3.000000 I-18.797271 J-8.714712
G02 X99.562754 Y242.302975 Z-3.000000 I-75.504045 J31.656207
G02 X80.162612 Y215.610994 Z-3.000000 I-1709.558334 J1222.137144
G03 X60.971746 Y188.945395 Z-3.000000 I1054.268727 J-778.981221
G03 X50.921787 Y170.734850 Z-3.000000 I79.744106 J-55.887280
G03 X49.482677 Y159.608649 Z-3.000000 I19.491351 J-8.177265
G03 X51.733707 Y156.700180 Z-3.000000 I3.673137 J0.517516
G01 X51.733707 Y156.700180 Z-3.000000
G01 X51.722107 Y156.700180 Z-3.000000
G00 Z5.000000
(End cutting path id: path842-7)
(Start cutting path id: path842-7)
(Change tool to Cylindrical cutter)
G00 Z5.000000
G00 X51.722107 Y156.700180
G01 Z-4.000000 F200.0(Penetrate)
G03 X55.395120 Y156.083488 Z-4.000000 I3.144102 J7.479687 F400.000000
G03 X58.669847 Y156.700180 Z-4.000000 I-0.900525 J13.784917
G02 X61.330145 Y157.418056 Z-4.000000 I17.511854 J-59.607080
G02 X62.787457 Y157.303330 Z-4.000000 I0.555531 J-2.256492
G02 X64.188284 Y155.719701 Z-4.000000 I-0.931342 J-2.235212
G02 X64.051737 Y153.568480 Z-4.000000 I-3.149781 J-0.880015
G02 X62.252192 Y151.066054 Z-4.000000 I-6.368544 J2.681492
G02 X58.832237 Y148.476560 Z-4.000000 I-19.090637 J21.659951
G02 X45.749736 Y143.015128 Z-4.000000 I-21.300024 J32.622957
G02 X28.396717 Y144.625730 Z-4.000000 I-6.119118 J28.359263
G02 X14.143574 Y159.485790 Z-4.000000 I10.005660 J23.862545
G02 X14.524437 Y177.844975 Z-4.000000 I23.436561 J8.697349
G02 X23.732024 Y193.754280 Z-4.000000 I66.695629 J-27.981296
G02 X39.898478 Y214.723678 Z-4.000000 I2234.499814 J-1705.981534
G03 X55.378575 Y236.022735 Z-4.000000 I-314.839117 J245.099188
G03 X70.257147 Y263.502855 Z-4.000000 I-130.553836 J88.453727
G03 X71.508006 Y274.226346 Z-4.000000 I-17.923735 J7.525442
G03 X67.914167 Y278.767005 Z-4.000000 I-5.910983 J-0.985868
G02 X66.120571 Y280.525305 Z-4.000000 I1.305362 J3.125516
G02 X66.093147 Y283.023793 Z-4.000000 I2.904152 J1.281271
G02 X68.926197 Y285.931745 Z-4.000000 I5.101414 J-2.136000
G02 X77.622451 Y288.353492 Z-4.000000 I12.305014 J-27.361524
G02 X86.769338 Y288.434040 Z-4.000000 I4.932259 J-40.706172
G02 X96.876627 Y285.853933 Z-4.000000 I-3.660948 J-35.428533
G02 X108.154928 Y274.989473 Z-4.000000 I-8.367767 J-19.972689
G02 X108.463927 Y258.260145 Z-4.000000 I-18.797271 J-8.714712
G02 X99.562754 Y242.302975 Z-4.000000 I-75.504045 J31.656207
G02 X80.162612 Y215.610994 Z-4.000000 I-1709.558334 J1222.137144
G03 X60.971746 Y188.945395 Z-4.000000 I1054.268727 J-778.981221
G03 X50.921787 Y170.734850 Z-4.000000 I79.744106 J-55.887280
G03 X49.482677 Y159.608649 Z-4.000000 I19.491351 J-8.177265
G03 X51.733707 Y156.700180 Z-4.000000 I3.673137 J0.517516
G01 X51.733707 Y156.700180 Z-4.000000
G01 X51.722107 Y156.700180 Z-4.000000
G00 Z5.000000
(End cutting path id: path842-7)
(Start cutting path id: path842-7)
(Change tool to Cylindrical cutter)
G00 Z5.000000
G00 X51.722107 Y156.700180
G01 Z-5.000000 F200.0(Penetrate)
G03 X55.395120 Y156.083488 Z-5.000000 I3.144102 J7.479687 F400.000000
G03 X58.669847 Y156.700180 Z-5.000000 I-0.900525 J13.784917
G02 X61.330145 Y157.418056 Z-5.000000 I17.511854 J-59.607080
G02 X62.787457 Y157.303330 Z-5.000000 I0.555531 J-2.256492
G02 X64.188284 Y155.719701 Z-5.000000 I-0.931342 J-2.235212
G02 X64.051737 Y153.568480 Z-5.000000 I-3.149781 J-0.880015
G02 X62.252192 Y151.066054 Z-5.000000 I-6.368544 J2.681492
G02 X58.832237 Y148.476560 Z-5.000000 I-19.090637 J21.659951
G02 X45.749736 Y143.015128 Z-5.000000 I-21.300024 J32.622957
G02 X28.396717 Y144.625730 Z-5.000000 I-6.119118 J28.359263
G02 X14.143574 Y159.485790 Z-5.000000 I10.005660 J23.862545
G02 X14.524437 Y177.844975 Z-5.000000 I23.436561 J8.697349
G02 X23.732024 Y193.754280 Z-5.000000 I66.695629 J-27.981296
G02 X39.898478 Y214.723678 Z-5.000000 I2234.499814 J-1705.981534
G03 X55.378575 Y236.022735 Z-5.000000 I-314.839117 J245.099188
G03 X70.257147 Y263.502855 Z-5.000000 I-130.553836 J88.453727
G03 X71.508006 Y274.226346 Z-5.000000 I-17.923735 J7.525442
G03 X67.914167 Y278.767005 Z-5.000000 I-5.910983 J-0.985868
G02 X66.120571 Y280.525305 Z-5.000000 I1.305362 J3.125516
G02 X66.093147 Y283.023793 Z-5.000000 I2.904152 J1.281271
G02 X68.926197 Y285.931745 Z-5.000000 I5.101414 J-2.136000
G02 X77.622451 Y288.353492 Z-5.000000 I12.305014 J-27.361524
G02 X86.769338 Y288.434040 Z-5.000000 I4.932259 J-40.706172
G02 X96.876627 Y285.853933 Z-5.000000 I-3.660948 J-35.428533
G02 X108.154928 Y274.989473 Z-5.000000 I-8.367767 J-19.972689
G02 X108.463927 Y258.260145 Z-5.000000 I-18.797271 J-8.714712
G02 X99.562754 Y242.302975 Z-5.000000 I-75.504045 J31.656207
G02 X80.162612 Y215.610994 Z-5.000000 I-1709.558334 J1222.137144
G03 X60.971746 Y188.945395 Z-5.000000 I1054.268727 J-778.981221
G03 X50.921787 Y170.734850 Z-5.000000 I79.744106 J-55.887280
G03 X49.482677 Y159.608649 Z-5.000000 I19.491351 J-8.177265
G03 X51.733707 Y156.700180 Z-5.000000 I3.673137 J0.517516
G01 X51.733707 Y156.700180 Z-5.000000
G01 X51.722107 Y156.700180 Z-5.000000
G00 Z5.000000
(End cutting path id: path842-7)
(Start cutting path id: path842-7)
(Change tool to Cylindrical cutter)
G00 Z5.000000
G00 X51.722107 Y156.700180
G01 Z-6.000000 F200.0(Penetrate)
G03 X55.395120 Y156.083488 Z-6.000000 I3.144102 J7.479687 F400.000000
G03 X58.669847 Y156.700180 Z-6.000000 I-0.900525 J13.784917
G02 X61.330145 Y157.418056 Z-6.000000 I17.511854 J-59.607080
G02 X62.787457 Y157.303330 Z-6.000000 I0.555531 J-2.256492
G02 X64.188284 Y155.719701 Z-6.000000 I-0.931342 J-2.235212
G02 X64.051737 Y153.568480 Z-6.000000 I-3.149781 J-0.880015
G02 X62.252192 Y151.066054 Z-6.000000 I-6.368544 J2.681492
G02 X58.832237 Y148.476560 Z-6.000000 I-19.090637 J21.659951
G02 X45.749736 Y143.015128 Z-6.000000 I-21.300024 J32.622957
G02 X28.396717 Y144.625730 Z-6.000000 I-6.119118 J28.359263
G02 X14.143574 Y159.485790 Z-6.000000 I10.005660 J23.862545
G02 X14.524437 Y177.844975 Z-6.000000 I23.436561 J8.697349
G02 X23.732024 Y193.754280 Z-6.000000 I66.695629 J-27.981296
G02 X39.898478 Y214.723678 Z-6.000000 I2234.499814 J-1705.981534
G03 X55.378575 Y236.022735 Z-6.000000 I-314.839117 J245.099188
G03 X70.257147 Y263.502855 Z-6.000000 I-130.553836 J88.453727
G03 X71.508006 Y274.226346 Z-6.000000 I-17.923735 J7.525442
G03 X67.914167 Y278.767005 Z-6.000000 I-5.910983 J-0.985868
G02 X66.120571 Y280.525305 Z-6.000000 I1.305362 J3.125516
G02 X66.093147 Y283.023793 Z-6.000000 I2.904152 J1.281271
G02 X68.926197 Y285.931745 Z-6.000000 I5.101414 J-2.136000
G02 X77.622451 Y288.353492 Z-6.000000 I12.305014 J-27.361524
G02 X86.769338 Y288.434040 Z-6.000000 I4.932259 J-40.706172
G02 X96.876627 Y285.853933 Z-6.000000 I-3.660948 J-35.428533
G02 X108.154928 Y274.989473 Z-6.000000 I-8.367767 J-19.972689
G02 X108.463927 Y258.260145 Z-6.000000 I-18.797271 J-8.714712
G02 X99.562754 Y242.302975 Z-6.000000 I-75.504045 J31.656207
G02 X80.162612 Y215.610994 Z-6.000000 I-1709.558334 J1222.137144
G03 X60.971746 Y188.945395 Z-6.000000 I1054.268727 J-778.981221
G03 X50.921787 Y170.734850 Z-6.000000 I79.744106 J-55.887280
G03 X49.482677 Y159.608649 Z-6.000000 I19.491351 J-8.177265
G03 X51.733707 Y156.700180 Z-6.000000 I3.673137 J0.517516
G01 X51.733707 Y156.700180 Z-6.000000
G01 X51.722107 Y156.700180 Z-6.000000
G00 Z5.000000
(End cutting path id: path842-7)
(Start cutting path id: path842-7)
(Change tool to Cylindrical cutter)
G00 Z5.000000
G00 X51.722107 Y156.700180
G01 Z-7.000000 F200.0(Penetrate)
G03 X55.395120 Y156.083488 Z-7.000000 I3.144102 J7.479687 F400.000000
G03 X58.669847 Y156.700180 Z-7.000000 I-0.900525 J13.784917
G02 X61.330145 Y157.418056 Z-7.000000 I17.511854 J-59.607080
G02 X62.787457 Y157.303330 Z-7.000000 I0.555531 J-2.256492
G02 X64.188284 Y155.719701 Z-7.000000 I-0.931342 J-2.235212
G02 X64.051737 Y153.568480 Z-7.000000 I-3.149781 J-0.880015
G02 X62.252192 Y151.066054 Z-7.000000 I-6.368544 J2.681492
G02 X58.832237 Y148.476560 Z-7.000000 I-19.090637 J21.659951
G02 X45.749736 Y143.015128 Z-7.000000 I-21.300024 J32.622957
G02 X28.396717 Y144.625730 Z-7.000000 I-6.119118 J28.359263
G02 X14.143574 Y159.485790 Z-7.000000 I10.005660 J23.862545
G02 X14.524437 Y177.844975 Z-7.000000 I23.436561 J8.697349
G02 X23.732024 Y193.754280 Z-7.000000 I66.695629 J-27.981296
G02 X39.898478 Y214.723678 Z-7.000000 I2234.499814 J-1705.981534
G03 X55.378575 Y236.022735 Z-7.000000 I-314.839117 J245.099188
G03 X70.257147 Y263.502855 Z-7.000000 I-130.553836 J88.453727
G03 X71.508006 Y274.226346 Z-7.000000 I-17.923735 J7.525442
G03 X67.914167 Y278.767005 Z-7.000000 I-5.910983 J-0.985868
G02 X66.120571 Y280.525305 Z-7.000000 I1.305362 J3.125516
G02 X66.093147 Y283.023793 Z-7.000000 I2.904152 J1.281271
G02 X68.926197 Y285.931745 Z-7.000000 I5.101414 J-2.136000
G02 X77.622451 Y288.353492 Z-7.000000 I12.305014 J-27.361524
G02 X86.769338 Y288.434040 Z-7.000000 I4.932259 J-40.706172
G02 X96.876627 Y285.853933 Z-7.000000 I-3.660948 J-35.428533
G02 X108.154928 Y274.989473 Z-7.000000 I-8.367767 J-19.972689
G02 X108.463927 Y258.260145 Z-7.000000 I-18.797271 J-8.714712
G02 X99.562754 Y242.302975 Z-7.000000 I-75.504045 J31.656207
G02 X80.162612 Y215.610994 Z-7.000000 I-1709.558334 J1222.137144
G03 X60.971746 Y188.945395 Z-7.000000 I1054.268727 J-778.981221
G03 X50.921787 Y170.734850 Z-7.000000 I79.744106 J-55.887280
G03 X49.482677 Y159.608649 Z-7.000000 I19.491351 J-8.177265
G03 X51.733707 Y156.700180 Z-7.000000 I3.673137 J0.517516
G01 X51.733707 Y156.700180 Z-7.000000
G01 X51.722107 Y156.700180 Z-7.000000
G00 Z5.000000
(End cutting path id: path842-7)
(Start cutting path id: path842-7)
(Change tool to Cylindrical cutter)
G00 Z5.000000
G00 X51.722107 Y156.700180
G01 Z-8.000000 F200.0(Penetrate)
G03 X55.395120 Y156.083488 Z-8.000000 I3.144102 J7.479687 F400.000000
G03 X58.669847 Y156.700180 Z-8.000000 I-0.900525 J13.784917
G02 X61.330145 Y157.418056 Z-8.000000 I17.511854 J-59.607080
G02 X62.787457 Y157.303330 Z-8.000000 I0.555531 J-2.256492
G02 X64.188284 Y155.719701 Z-8.000000 I-0.931342 J-2.235212
G02 X64.051737 Y153.568480 Z-8.000000 I-3.149781 J-0.880015
G02 X62.252192 Y151.066054 Z-8.000000 I-6.368544 J2.681492
G02 X58.832237 Y148.476560 Z-8.000000 I-19.090637 J21.659951
G02 X45.749736 Y143.015128 Z-8.000000 I-21.300024 J32.622957
G02 X28.396717 Y144.625730 Z-8.000000 I-6.119118 J28.359263
G02 X14.143574 Y159.485790 Z-8.000000 I10.005660 J23.862545
G02 X14.524437 Y177.844975 Z-8.000000 I23.436561 J8.697349
G02 X23.732024 Y193.754280 Z-8.000000 I66.695629 J-27.981296
G02 X39.898478 Y214.723678 Z-8.000000 I2234.499814 J-1705.981534
G03 X55.378575 Y236.022735 Z-8.000000 I-314.839117 J245.099188
G03 X70.257147 Y263.502855 Z-8.000000 I-130.553836 J88.453727
G03 X71.508006 Y274.226346 Z-8.000000 I-17.923735 J7.525442
G03 X67.914167 Y278.767005 Z-8.000000 I-5.910983 J-0.985868
G02 X66.120571 Y280.525305 Z-8.000000 I1.305362 J3.125516
G02 X66.093147 Y283.023793 Z-8.000000 I2.904152 J1.281271
G02 X68.926197 Y285.931745 Z-8.000000 I5.101414 J-2.136000
G02 X77.622451 Y288.353492 Z-8.000000 I12.305014 J-27.361524
G02 X86.769338 Y288.434040 Z-8.000000 I4.932259 J-40.706172
G02 X96.876627 Y285.853933 Z-8.000000 I-3.660948 J-35.428533
G02 X108.154928 Y274.989473 Z-8.000000 I-8.367767 J-19.972689
G02 X108.463927 Y258.260145 Z-8.000000 I-18.797271 J-8.714712
G02 X99.562754 Y242.302975 Z-8.000000 I-75.504045 J31.656207
G02 X80.162612 Y215.610994 Z-8.000000 I-1709.558334 J1222.137144
G03 X60.971746 Y188.945395 Z-8.000000 I1054.268727 J-778.981221
G03 X50.921787 Y170.734850 Z-8.000000 I79.744106 J-55.887280
G03 X49.482677 Y159.608649 Z-8.000000 I19.491351 J-8.177265
G03 X51.733707 Y156.700180 Z-8.000000 I3.673137 J0.517516
G01 X51.733707 Y156.700180 Z-8.000000
G01 X51.722107 Y156.700180 Z-8.000000
G00 Z5.000000
(End cutting path id: path842-7)
(Start cutting path id: path842-7)
(Change tool to Cylindrical cutter)
G00 Z5.000000
G00 X51.722107 Y156.700180
G01 Z-9.000000 F200.0(Penetrate)
G03 X55.395120 Y156.083488 Z-9.000000 I3.144102 J7.479687 F400.000000
G03 X58.669847 Y156.700180 Z-9.000000 I-0.900525 J13.784917
G02 X61.330145 Y157.418056 Z-9.000000 I17.511854 J-59.607080
G02 X62.787457 Y157.303330 Z-9.000000 I0.555531 J-2.256492
G02 X64.188284 Y155.719701 Z-9.000000 I-0.931342 J-2.235212
G02 X64.051737 Y153.568480 Z-9.000000 I-3.149781 J-0.880015
G02 X62.252192 Y151.066054 Z-9.000000 I-6.368544 J2.681492
G02 X58.832237 Y148.476560 Z-9.000000 I-19.090637 J21.659951
G02 X45.749736 Y143.015128 Z-9.000000 I-21.300024 J32.622957
G02 X28.396717 Y144.625730 Z-9.000000 I-6.119118 J28.359263
G02 X14.143574 Y159.485790 Z-9.000000 I10.005660 J23.862545
G02 X14.524437 Y177.844975 Z-9.000000 I23.436561 J8.697349
G02 X23.732024 Y193.754280 Z-9.000000 I66.695629 J-27.981296
G02 X39.898478 Y214.723678 Z-9.000000 I2234.499814 J-1705.981534
G03 X55.378575 Y236.022735 Z-9.000000 I-314.839117 J245.099188
G03 X70.257147 Y263.502855 Z-9.000000 I-130.553836 J88.453727
G03 X71.508006 Y274.226346 Z-9.000000 I-17.923735 J7.525442
G03 X67.914167 Y278.767005 Z-9.000000 I-5.910983 J-0.985868
G02 X66.120571 Y280.525305 Z-9.000000 I1.305362 J3.125516
G02 X66.093147 Y283.023793 Z-9.000000 I2.904152 J1.281271
G02 X68.926197 Y285.931745 Z-9.000000 I5.101414 J-2.136000
G02 X77.622451 Y288.353492 Z-9.000000 I12.305014 J-27.361524
G02 X86.769338 Y288.434040 Z-9.000000 I4.932259 J-40.706172
G02 X96.876627 Y285.853933 Z-9.000000 I-3.660948 J-35.428533
G02 X108.154928 Y274.989473 Z-9.000000 I-8.367767 J-19.972689
G02 X108.463927 Y258.260145 Z-9.000000 I-18.797271 J-8.714712
G02 X99.562754 Y242.302975 Z-9.000000 I-75.504045 J31.656207
G02 X80.162612 Y215.610994 Z-9.000000 I-1709.558334 J1222.137144
G03 X60.971746 Y188.945395 Z-9.000000 I1054.268727 J-778.981221
G03 X50.921787 Y170.734850 Z-9.000000 I79.744106 J-55.887280
G03 X49.482677 Y159.608649 Z-9.000000 I19.491351 J-8.177265
G03 X51.733707 Y156.700180 Z-9.000000 I3.673137 J0.517516
G01 X51.733707 Y156.700180 Z-9.000000
G01 X51.722107 Y156.700180 Z-9.000000
G00 Z5.000000
(End cutting path id: path842-7)
(Start cutting path id: path842-7)
(Change tool to Cylindrical cutter)
G00 Z5.000000
G00 X51.722107 Y156.700180
G01 Z-10.000000 F200.0(Penetrate)
G03 X55.395120 Y156.083488 Z-10.000000 I3.144102 J7.479687 F400.000000
G03 X58.669847 Y156.700180 Z-10.000000 I-0.900525 J13.784917
G02 X61.330145 Y157.418056 Z-10.000000 I17.511854 J-59.607080
G02 X62.787457 Y157.303330 Z-10.000000 I0.555531 J-2.256492
G02 X64.188284 Y155.719701 Z-10.000000 I-0.931342 J-2.235212
G02 X64.051737 Y153.568480 Z-10.000000 I-3.149781 J-0.880015
G02 X62.252192 Y151.066054 Z-10.000000 I-6.368544 J2.681492
G02 X58.832237 Y148.476560 Z-10.000000 I-19.090637 J21.659951
G02 X45.749736 Y143.015128 Z-10.000000 I-21.300024 J32.622957
G02 X28.396717 Y144.625730 Z-10.000000 I-6.119118 J28.359263
G02 X14.143574 Y159.485790 Z-10.000000 I10.005660 J23.862545
G02 X14.524437 Y177.844975 Z-10.000000 I23.436561 J8.697349
G02 X23.732024 Y193.754280 Z-10.000000 I66.695629 J-27.981296
G02 X39.898478 Y214.723678 Z-10.000000 I2234.499814 J-1705.981534
G03 X55.378575 Y236.022735 Z-10.000000 I-314.839117 J245.099188
G03 X70.257147 Y263.502855 Z-10.000000 I-130.553836 J88.453727
G03 X71.508006 Y274.226346 Z-10.000000 I-17.923735 J7.525442
G03 X67.914167 Y278.767005 Z-10.000000 I-5.910983 J-0.985868
G02 X66.120571 Y280.525305 Z-10.000000 I1.305362 J3.125516
G02 X66.093147 Y283.023793 Z-10.000000 I2.904152 J1.281271
G02 X68.926197 Y285.931745 Z-10.000000 I5.101414 J-2.136000
G02 X77.622451 Y288.353492 Z-10.000000 I12.305014 J-27.361524
G02 X86.769338 Y288.434040 Z-10.000000 I4.932259 J-40.706172
G02 X96.876627 Y285.853933 Z-10.000000 I-3.660948 J-35.428533
G02 X108.154928 Y274.989473 Z-10.000000 I-8.367767 J-19.972689
G02 X108.463927 Y258.260145 Z-10.000000 I-18.797271 J-8.714712
G02 X99.562754 Y242.302975 Z-10.000000 I-75.504045 J31.656207
G02 X80.162612 Y215.610994 Z-10.000000 I-1709.558334 J1222.137144
G03 X60.971746 Y188.945395 Z-10.000000 I1054.268727 J-778.981221
G03 X50.921787 Y170.734850 Z-10.000000 I79.744106 J-55.887280
G03 X49.482677 Y159.608649 Z-10.000000 I19.491351 J-8.177265
G03 X51.733707 Y156.700180 Z-10.000000 I3.673137 J0.517516
G01 X51.733707 Y156.700180 Z-10.000000
G01 X51.722107 Y156.700180 Z-10.000000
G00 Z5.000000
(End cutting path id: path842-7)
(Start cutting path id: path842-7)
(Change tool to Cylindrical cutter)
G00 Z5.000000
G00 X51.722107 Y156.700180
G01 Z-11.000000 F200.0(Penetrate)
G03 X55.395120 Y156.083488 Z-11.000000 I3.144102 J7.479687 F400.000000
G03 X58.669847 Y156.700180 Z-11.000000 I-0.900525 J13.784917
G02 X61.330145 Y157.418056 Z-11.000000 I17.511854 J-59.607080
G02 X62.787457 Y157.303330 Z-11.000000 I0.555531 J-2.256492
G02 X64.188284 Y155.719701 Z-11.000000 I-0.931342 J-2.235212
G02 X64.051737 Y153.568480 Z-11.000000 I-3.149781 J-0.880015
G02 X62.252192 Y151.066054 Z-11.000000 I-6.368544 J2.681492
G02 X58.832237 Y148.476560 Z-11.000000 I-19.090637 J21.659951
G02 X45.749736 Y143.015128 Z-11.000000 I-21.300024 J32.622957
G02 X28.396717 Y144.625730 Z-11.000000 I-6.119118 J28.359263
G02 X14.143574 Y159.485790 Z-11.000000 I10.005660 J23.862545
G02 X14.524437 Y177.844975 Z-11.000000 I23.436561 J8.697349
G02 X23.732024 Y193.754280 Z-11.000000 I66.695629 J-27.981296
G02 X39.898478 Y214.723678 Z-11.000000 I2234.499814 J-1705.981534
G03 X55.378575 Y236.022735 Z-11.000000 I-314.839117 J245.099188
G03 X70.257147 Y263.502855 Z-11.000000 I-130.553836 J88.453727
G03 X71.508006 Y274.226346 Z-11.000000 I-17.923735 J7.525442
G03 X67.914167 Y278.767005 Z-11.000000 I-5.910983 J-0.985868
G02 X66.120571 Y280.525305 Z-11.000000 I1.305362 J3.125516
G02 X66.093147 Y283.023793 Z-11.000000 I2.904152 J1.281271
G02 X68.926197 Y285.931745 Z-11.000000 I5.101414 J-2.136000
G02 X77.622451 Y288.353492 Z-11.000000 I12.305014 J-27.361524
G02 X86.769338 Y288.434040 Z-11.000000 I4.932259 J-40.706172
G02 X96.876627 Y285.853933 Z-11.000000 I-3.660948 J-35.428533
G02 X108.154928 Y274.989473 Z-11.000000 I-8.367767 J-19.972689
G02 X108.463927 Y258.260145 Z-11.000000 I-18.797271 J-8.714712
G02 X99.562754 Y242.302975 Z-11.000000 I-75.504045 J31.656207
G02 X80.162612 Y215.610994 Z-11.000000 I-1709.558334 J1222.137144
G03 X60.971746 Y188.945395 Z-11.000000 I1054.268727 J-778.981221
G03 X50.921787 Y170.734850 Z-11.000000 I79.744106 J-55.887280
G03 X49.482677 Y159.608649 Z-11.000000 I19.491351 J-8.177265
G03 X51.733707 Y156.700180 Z-11.000000 I3.673137 J0.517516
G01 X51.733707 Y156.700180 Z-11.000000
G01 X51.722107 Y156.700180 Z-11.000000
G00 Z5.000000
(End cutting path id: path842-7)
(Start cutting path id: path842-7)
(Change tool to Cylindrical cutter)
G00 Z5.000000
G00 X51.722107 Y156.700180
G01 Z-11.500000 F200.0(Penetrate)
G03 X55.395120 Y156.083488 Z-11.500000 I3.144102 J7.479687 F400.000000
G03 X58.669847 Y156.700180 Z-11.500000 I-0.900525 J13.784917
G02 X61.330145 Y157.418056 Z-11.500000 I17.511854 J-59.607080
G02 X62.787457 Y157.303330 Z-11.500000 I0.555531 J-2.256492
G02 X64.188284 Y155.719701 Z-11.500000 I-0.931342 J-2.235212
G02 X64.051737 Y153.568480 Z-11.500000 I-3.149781 J-0.880015
G02 X62.252192 Y151.066054 Z-11.500000 I-6.368544 J2.681492
G02 X58.832237 Y148.476560 Z-11.500000 I-19.090637 J21.659951
G02 X45.749736 Y143.015128 Z-11.500000 I-21.300024 J32.622957
G02 X28.396717 Y144.625730 Z-11.500000 I-6.119118 J28.359263
G02 X14.143574 Y159.485790 Z-11.500000 I10.005660 J23.862545
G02 X14.524437 Y177.844975 Z-11.500000 I23.436561 J8.697349
G02 X23.732024 Y193.754280 Z-11.500000 I66.695629 J-27.981296
G02 X39.898478 Y214.723678 Z-11.500000 I2234.499814 J-1705.981534
G03 X55.378575 Y236.022735 Z-11.500000 I-314.839117 J245.099188
G03 X70.257147 Y263.502855 Z-11.500000 I-130.553836 J88.453727
G03 X71.508006 Y274.226346 Z-11.500000 I-17.923735 J7.525442
G03 X67.914167 Y278.767005 Z-11.500000 I-5.910983 J-0.985868
G02 X66.120571 Y280.525305 Z-11.500000 I1.305362 J3.125516
G02 X66.093147 Y283.023793 Z-11.500000 I2.904152 J1.281271
G02 X68.926197 Y285.931745 Z-11.500000 I5.101414 J-2.136000
G02 X77.622451 Y288.353492 Z-11.500000 I12.305014 J-27.361524
G02 X86.769338 Y288.434040 Z-11.500000 I4.932259 J-40.706172
G02 X96.876627 Y285.853933 Z-11.500000 I-3.660948 J-35.428533
G02 X108.154928 Y274.989473 Z-11.500000 I-8.367767 J-19.972689
G02 X108.463927 Y258.260145 Z-11.500000 I-18.797271 J-8.714712
G02 X99.562754 Y242.302975 Z-11.500000 I-75.504045 J31.656207
G02 X80.162612 Y215.610994 Z-11.500000 I-1709.558334 J1222.137144
G03 X60.971746 Y188.945395 Z-11.500000 I1054.268727 J-778.981221
G03 X50.921787 Y170.734850 Z-11.500000 I79.744106 J-55.887280
G03 X49.482677 Y159.608649 Z-11.500000 I19.491351 J-8.177265
G03 X51.733707 Y156.700180 Z-11.500000 I3.673137 J0.517516
G01 X51.733707 Y156.700180 Z-11.500000
G01 X51.722107 Y156.700180 Z-11.500000
G00 Z5.000000
(End cutting path id: path842-7)
(Footer)
M5
G00 X0.0000 Y0.0000
M2
(Using default footer. To add your own footer create file "footer" in the output dir.)
(end)
%
