(Exported by FreeCAD)
(Post Processor: grbl_post)
(Output Time:2023-09-25 11:01:10.483387)
(Begin preamble)
G17 G90
G21
(Begin operation: Fixture)
(Path: Fixture)
G54
(Finish operation: Fixture)
(Begin operation: MC40A_Flat_End_Corncob001)
(Path: MC40A_Flat_End_Corncob001)
(MC40A_Flat_End_Corncob001)
(Begin toolchange)
( M6 T2 )
M3 S10000
(Finish operation: MC40A_Flat_End_Corncob001)
(Begin operation: Profile)
(Path: Profile)
(Profile)
(Compensated Tool Path. Diameter: 0.8)
G0 Z5.000
G0 X24.934 Y22.598
G0 Z3.000
G1 X24.934 Y22.598 Z-0.800 F100.000
G3 X23.588 Y20.392 Z-0.800 I2.414 J-2.986 K0.000 F100.000
G3 X23.665 Y16.454 Z-0.800 I9.160 J-1.790 K0.000 F100.000
G3 X24.371 Y13.939 Z-0.800 I15.965 J3.123 K0.000 F100.000
G3 X25.597 Y12.022 Z-0.800 I4.324 J1.416 K0.000 F100.000
G3 X27.511 Y11.677 Z-0.800 I1.259 J1.499 K0.000 F100.000
G3 X29.093 Y13.306 Z-0.800 I-0.770 J2.330 K0.000 F100.000
G3 X28.750 Y17.317 Z-0.800 I-4.600 J1.627 K0.000 F100.000
G3 X27.765 Y18.057 Z-0.800 I-1.240 J-0.624 K0.000 F100.000
G2 X26.279 Y18.396 Z-0.800 I0.675 J6.389 K0.000 F100.000
G2 X24.811 Y20.019 Z-0.800 I0.714 J2.121 K0.000 F100.000
G2 X24.934 Y22.598 Z-0.800 I4.587 J1.075 K0.000 F100.000
G1 X24.934 Y22.598 Z-1.600 F100.000
G3 X23.588 Y20.392 Z-1.600 I2.414 J-2.986 K0.000 F100.000
G3 X23.665 Y16.454 Z-1.600 I9.160 J-1.790 K0.000 F100.000
G3 X24.371 Y13.939 Z-1.600 I15.965 J3.123 K0.000 F100.000
G3 X25.597 Y12.022 Z-1.600 I4.324 J1.416 K0.000 F100.000
G3 X27.511 Y11.677 Z-1.600 I1.259 J1.499 K0.000 F100.000
G3 X29.093 Y13.306 Z-1.600 I-0.770 J2.330 K0.000 F100.000
G3 X28.750 Y17.317 Z-1.600 I-4.600 J1.627 K0.000 F100.000
G3 X27.765 Y18.057 Z-1.600 I-1.240 J-0.624 K0.000 F100.000
G2 X26.279 Y18.396 Z-1.600 I0.675 J6.389 K0.000 F100.000
G2 X24.811 Y20.019 Z-1.600 I0.714 J2.121 K0.000 F100.000
G2 X24.934 Y22.598 Z-1.600 I4.587 J1.075 K0.000 F100.000
G1 X24.934 Y22.598 Z-2.400 F100.000
G3 X23.588 Y20.392 Z-2.400 I2.414 J-2.986 K0.000 F100.000
G3 X23.665 Y16.454 Z-2.400 I9.160 J-1.790 K0.000 F100.000
G3 X24.371 Y13.939 Z-2.400 I15.965 J3.123 K0.000 F100.000
G3 X25.597 Y12.022 Z-2.400 I4.324 J1.416 K0.000 F100.000
G3 X27.511 Y11.677 Z-2.400 I1.259 J1.499 K0.000 F100.000
G3 X29.093 Y13.306 Z-2.400 I-0.770 J2.330 K0.000 F100.000
G3 X28.750 Y17.317 Z-2.400 I-4.600 J1.627 K0.000 F100.000
G3 X27.765 Y18.057 Z-2.400 I-1.240 J-0.624 K0.000 F100.000
G2 X26.279 Y18.396 Z-2.400 I0.675 J6.389 K0.000 F100.000
G2 X24.811 Y20.019 Z-2.400 I0.714 J2.121 K0.000 F100.000
G2 X24.934 Y22.598 Z-2.400 I4.587 J1.075 K0.000 F100.000
G1 X24.934 Y22.598 Z-3.200 F100.000
G3 X23.588 Y20.392 Z-3.200 I2.414 J-2.986 K0.000 F100.000
G3 X23.665 Y16.454 Z-3.200 I9.160 J-1.790 K0.000 F100.000
G3 X24.371 Y13.939 Z-3.200 I15.965 J3.123 K0.000 F100.000
G3 X25.597 Y12.022 Z-3.200 I4.324 J1.416 K0.000 F100.000
G3 X27.511 Y11.677 Z-3.200 I1.259 J1.499 K0.000 F100.000
G3 X29.093 Y13.306 Z-3.200 I-0.770 J2.330 K0.000 F100.000
G3 X28.750 Y17.317 Z-3.200 I-4.600 J1.627 K0.000 F100.000
G3 X27.765 Y18.057 Z-3.200 I-1.240 J-0.624 K0.000 F100.000
G2 X26.279 Y18.396 Z-3.200 I0.675 J6.389 K0.000 F100.000
G2 X24.811 Y20.019 Z-3.200 I0.714 J2.121 K0.000 F100.000
G2 X24.934 Y22.598 Z-3.200 I4.587 J1.075 K0.000 F100.000
G1 X24.934 Y22.598 Z-4.000 F100.000
G3 X23.588 Y20.392 Z-4.000 I2.414 J-2.986 K0.000 F100.000
G3 X23.665 Y16.454 Z-4.000 I9.160 J-1.790 K0.000 F100.000
G3 X24.371 Y13.939 Z-4.000 I15.965 J3.123 K0.000 F100.000
G3 X25.597 Y12.022 Z-4.000 I4.324 J1.416 K0.000 F100.000
G3 X27.511 Y11.677 Z-4.000 I1.259 J1.499 K0.000 F100.000
G3 X29.093 Y13.306 Z-4.000 I-0.770 J2.330 K0.000 F100.000
G3 X28.750 Y17.317 Z-4.000 I-4.600 J1.627 K0.000 F100.000
G3 X27.765 Y18.057 Z-4.000 I-1.240 J-0.624 K0.000 F100.000
G2 X26.279 Y18.396 Z-4.000 I0.675 J6.389 K0.000 F100.000
G2 X24.811 Y20.019 Z-4.000 I0.714 J2.121 K0.000 F100.000
G2 X24.934 Y22.598 Z-4.000 I4.587 J1.075 K0.000 F100.000
G1 X24.934 Y22.598 Z-4.800 F100.000
G3 X23.588 Y20.392 Z-4.800 I2.414 J-2.986 K0.000 F100.000
G3 X23.665 Y16.454 Z-4.800 I9.160 J-1.790 K0.000 F100.000
G3 X24.371 Y13.939 Z-4.800 I15.965 J3.123 K0.000 F100.000
G3 X25.597 Y12.022 Z-4.800 I4.324 J1.416 K0.000 F100.000
G3 X27.511 Y11.677 Z-4.800 I1.259 J1.499 K0.000 F100.000
G3 X29.093 Y13.306 Z-4.800 I-0.770 J2.330 K0.000 F100.000
G3 X28.750 Y17.317 Z-4.800 I-4.600 J1.627 K0.000 F100.000
G3 X27.765 Y18.057 Z-4.800 I-1.240 J-0.624 K0.000 F100.000
G2 X26.279 Y18.396 Z-4.800 I0.675 J6.389 K0.000 F100.000
G2 X24.811 Y20.019 Z-4.800 I0.714 J2.121 K0.000 F100.000
G2 X24.934 Y22.598 Z-4.800 I4.587 J1.075 K0.000 F100.000
G1 X24.934 Y22.598 Z-5.600 F100.000
G3 X23.588 Y20.392 Z-5.600 I2.414 J-2.986 K0.000 F100.000
G3 X23.665 Y16.454 Z-5.600 I9.160 J-1.790 K0.000 F100.000
G3 X24.371 Y13.939 Z-5.600 I15.965 J3.123 K0.000 F100.000
G3 X25.597 Y12.022 Z-5.600 I4.324 J1.416 K0.000 F100.000
G3 X27.511 Y11.677 Z-5.600 I1.259 J1.499 K0.000 F100.000
G3 X29.093 Y13.306 Z-5.600 I-0.770 J2.330 K0.000 F100.000
G3 X28.750 Y17.317 Z-5.600 I-4.600 J1.627 K0.000 F100.000
G3 X27.765 Y18.057 Z-5.600 I-1.240 J-0.624 K0.000 F100.000
G2 X26.279 Y18.396 Z-5.600 I0.675 J6.389 K0.000 F100.000
G2 X24.811 Y20.019 Z-5.600 I0.714 J2.121 K0.000 F100.000
G2 X24.934 Y22.598 Z-5.600 I4.587 J1.075 K0.000 F100.000
G1 X24.934 Y22.598 Z-6.000 F100.000
G3 X23.588 Y20.392 Z-6.000 I2.414 J-2.986 K0.000 F100.000
G3 X23.665 Y16.454 Z-6.000 I9.160 J-1.790 K0.000 F100.000
G3 X24.371 Y13.939 Z-6.000 I15.965 J3.123 K0.000 F100.000
G3 X25.597 Y12.022 Z-6.000 I4.324 J1.416 K0.000 F100.000
G3 X27.511 Y11.677 Z-6.000 I1.259 J1.499 K0.000 F100.000
G3 X29.093 Y13.306 Z-6.000 I-0.770 J2.330 K0.000 F100.000
G3 X28.750 Y17.317 Z-6.000 I-4.600 J1.627 K0.000 F100.000
G3 X27.765 Y18.057 Z-6.000 I-1.240 J-0.624 K0.000 F100.000
G2 X26.279 Y18.396 Z-6.000 I0.675 J6.389 K0.000 F100.000
G2 X24.811 Y20.019 Z-6.000 I0.714 J2.121 K0.000 F100.000
G2 X24.934 Y22.598 Z-6.000 I4.587 J1.075 K0.000 F100.000
G0 Z5.000
G0 Z5.000
G0 X24.934 Y22.598
G0 X43.888 Y21.811
G0 X43.888 Y21.811 Z3.000
G1 X43.888 Y21.811 Z-0.800 F100.000
G3 X43.883 Y21.655 Z-0.800 I13.425 J-0.558 K0.000 F100.000
G3 X44.102 Y17.647 Z-0.800 I17.500 J-1.052 K0.000 F100.000
G3 X44.785 Y16.150 Z-0.800 I2.650 J0.304 K0.000 F100.000
G3 X45.441 Y16.008 Z-0.800 I0.420 J0.357 K0.000 F100.000
G3 X45.921 Y16.575 Z-0.800 I-0.766 J1.137 K0.000 F100.000
G3 X46.479 Y18.406 Z-0.800 I-6.537 J2.994 K0.000 F100.000
G3 X46.453 Y26.534 Z-0.800 I-25.645 J3.982 K0.000 F100.000
G3 X46.167 Y27.129 Z-0.800 I-0.816 J-0.026 K0.000 F100.000
G3 X45.428 Y27.036 Z-0.800 I-0.307 J-0.546 K0.000 F100.000
G3 X44.782 Y26.102 Z-0.800 I1.889 J-1.998 K0.000 F100.000
G3 X43.888 Y21.811 Z-0.800 I12.531 J-4.849 K0.000 F100.000
G1 X43.888 Y21.811 Z-1.600 F100.000
G3 X43.883 Y21.655 Z-1.600 I13.425 J-0.558 K0.000 F100.000
G3 X44.102 Y17.647 Z-1.600 I17.500 J-1.052 K0.000 F100.000
G3 X44.785 Y16.150 Z-1.600 I2.650 J0.304 K0.000 F100.000
G3 X45.441 Y16.008 Z-1.600 I0.420 J0.357 K0.000 F100.000
G3 X45.921 Y16.575 Z-1.600 I-0.766 J1.137 K0.000 F100.000
G3 X46.479 Y18.406 Z-1.600 I-6.537 J2.994 K0.000 F100.000
G3 X46.453 Y26.534 Z-1.600 I-25.645 J3.982 K0.000 F100.000
G3 X46.167 Y27.129 Z-1.600 I-0.816 J-0.026 K0.000 F100.000
G3 X45.428 Y27.036 Z-1.600 I-0.307 J-0.546 K0.000 F100.000
G3 X44.782 Y26.102 Z-1.600 I1.889 J-1.998 K0.000 F100.000
G3 X43.888 Y21.811 Z-1.600 I12.531 J-4.849 K0.000 F100.000
G1 X43.888 Y21.811 Z-2.400 F100.000
G3 X43.883 Y21.655 Z-2.400 I13.425 J-0.558 K0.000 F100.000
G3 X44.102 Y17.647 Z-2.400 I17.500 J-1.052 K0.000 F100.000
G3 X44.785 Y16.150 Z-2.400 I2.650 J0.304 K0.000 F100.000
G3 X45.441 Y16.008 Z-2.400 I0.420 J0.357 K0.000 F100.000
G3 X45.921 Y16.575 Z-2.400 I-0.766 J1.137 K0.000 F100.000
G3 X46.479 Y18.406 Z-2.400 I-6.537 J2.994 K0.000 F100.000
G3 X46.453 Y26.534 Z-2.400 I-25.645 J3.982 K0.000 F100.000
G3 X46.167 Y27.129 Z-2.400 I-0.816 J-0.026 K0.000 F100.000
G3 X45.428 Y27.036 Z-2.400 I-0.307 J-0.546 K0.000 F100.000
G3 X44.782 Y26.102 Z-2.400 I1.889 J-1.998 K0.000 F100.000
G3 X43.888 Y21.811 Z-2.400 I12.531 J-4.849 K0.000 F100.000
G1 X43.888 Y21.811 Z-3.200 F100.000
G3 X43.883 Y21.655 Z-3.200 I13.425 J-0.558 K0.000 F100.000
G3 X44.102 Y17.647 Z-3.200 I17.500 J-1.052 K0.000 F100.000
G3 X44.785 Y16.150 Z-3.200 I2.650 J0.304 K0.000 F100.000
G3 X45.441 Y16.008 Z-3.200 I0.420 J0.357 K0.000 F100.000
G3 X45.921 Y16.575 Z-3.200 I-0.766 J1.137 K0.000 F100.000
G3 X46.479 Y18.406 Z-3.200 I-6.537 J2.994 K0.000 F100.000
G3 X46.453 Y26.534 Z-3.200 I-25.645 J3.982 K0.000 F100.000
G3 X46.167 Y27.129 Z-3.200 I-0.816 J-0.026 K0.000 F100.000
G3 X45.428 Y27.036 Z-3.200 I-0.307 J-0.546 K0.000 F100.000
G3 X44.782 Y26.102 Z-3.200 I1.889 J-1.998 K0.000 F100.000
G3 X43.888 Y21.811 Z-3.200 I12.531 J-4.849 K0.000 F100.000
G1 X43.888 Y21.811 Z-4.000 F100.000
G3 X43.883 Y21.655 Z-4.000 I13.425 J-0.558 K0.000 F100.000
G3 X44.102 Y17.647 Z-4.000 I17.500 J-1.052 K0.000 F100.000
G3 X44.785 Y16.150 Z-4.000 I2.650 J0.304 K0.000 F100.000
G3 X45.441 Y16.008 Z-4.000 I0.420 J0.357 K0.000 F100.000
G3 X45.921 Y16.575 Z-4.000 I-0.766 J1.137 K0.000 F100.000
G3 X46.479 Y18.406 Z-4.000 I-6.537 J2.994 K0.000 F100.000
G3 X46.453 Y26.534 Z-4.000 I-25.645 J3.982 K0.000 F100.000
G3 X46.167 Y27.129 Z-4.000 I-0.816 J-0.026 K0.000 F100.000
G3 X45.428 Y27.036 Z-4.000 I-0.307 J-0.546 K0.000 F100.000
G3 X44.782 Y26.102 Z-4.000 I1.889 J-1.998 K0.000 F100.000
G3 X43.888 Y21.811 Z-4.000 I12.531 J-4.849 K0.000 F100.000
G1 X43.888 Y21.811 Z-4.800 F100.000
G3 X43.883 Y21.655 Z-4.800 I13.425 J-0.558 K0.000 F100.000
G3 X44.102 Y17.647 Z-4.800 I17.500 J-1.052 K0.000 F100.000
G3 X44.785 Y16.150 Z-4.800 I2.650 J0.304 K0.000 F100.000
G3 X45.441 Y16.008 Z-4.800 I0.420 J0.357 K0.000 F100.000
G3 X45.921 Y16.575 Z-4.800 I-0.766 J1.137 K0.000 F100.000
G3 X46.479 Y18.406 Z-4.800 I-6.537 J2.994 K0.000 F100.000
G3 X46.453 Y26.534 Z-4.800 I-25.645 J3.982 K0.000 F100.000
G3 X46.167 Y27.129 Z-4.800 I-0.816 J-0.026 K0.000 F100.000
G3 X45.428 Y27.036 Z-4.800 I-0.307 J-0.546 K0.000 F100.000
G3 X44.782 Y26.102 Z-4.800 I1.889 J-1.998 K0.000 F100.000
G3 X43.888 Y21.811 Z-4.800 I12.531 J-4.849 K0.000 F100.000
G1 X43.888 Y21.811 Z-5.600 F100.000
G3 X43.883 Y21.655 Z-5.600 I13.425 J-0.558 K0.000 F100.000
G3 X44.102 Y17.647 Z-5.600 I17.500 J-1.052 K0.000 F100.000
G3 X44.785 Y16.150 Z-5.600 I2.650 J0.304 K0.000 F100.000
G3 X45.441 Y16.008 Z-5.600 I0.420 J0.357 K0.000 F100.000
G3 X45.921 Y16.575 Z-5.600 I-0.766 J1.137 K0.000 F100.000
G3 X46.479 Y18.406 Z-5.600 I-6.537 J2.994 K0.000 F100.000
G3 X46.453 Y26.534 Z-5.600 I-25.645 J3.982 K0.000 F100.000
G3 X46.167 Y27.129 Z-5.600 I-0.816 J-0.026 K0.000 F100.000
G3 X45.428 Y27.036 Z-5.600 I-0.307 J-0.546 K0.000 F100.000
G3 X44.782 Y26.102 Z-5.600 I1.889 J-1.998 K0.000 F100.000
G3 X43.888 Y21.811 Z-5.600 I12.531 J-4.849 K0.000 F100.000
G1 X43.888 Y21.811 Z-6.000 F100.000
G3 X43.883 Y21.655 Z-6.000 I13.425 J-0.558 K0.000 F100.000
G3 X44.102 Y17.647 Z-6.000 I17.500 J-1.052 K0.000 F100.000
G3 X44.785 Y16.150 Z-6.000 I2.650 J0.304 K0.000 F100.000
G3 X45.441 Y16.008 Z-6.000 I0.420 J0.357 K0.000 F100.000
G3 X45.921 Y16.575 Z-6.000 I-0.766 J1.137 K0.000 F100.000
G3 X46.479 Y18.406 Z-6.000 I-6.537 J2.994 K0.000 F100.000
G3 X46.453 Y26.534 Z-6.000 I-25.645 J3.982 K0.000 F100.000
G3 X46.167 Y27.129 Z-6.000 I-0.816 J-0.026 K0.000 F100.000
G3 X45.428 Y27.036 Z-6.000 I-0.307 J-0.546 K0.000 F100.000
G3 X44.782 Y26.102 Z-6.000 I1.889 J-1.998 K0.000 F100.000
G3 X43.888 Y21.811 Z-6.000 I12.531 J-4.849 K0.000 F100.000
G0 Z5.000
G0 Z5.000
G0 X43.888 Y21.811
G0 X67.779 Y21.840
G0 X67.779 Y21.840 Z3.000
G1 X67.779 Y21.840 Z-0.800 F100.000
G3 X67.799 Y21.018 Z-0.800 I17.521 J0.021 K0.000 F100.000
G3 X68.298 Y19.448 Z-0.800 I2.671 J-0.015 K0.000 F100.000
G3 X69.076 Y19.305 Z-0.800 I0.457 J0.298 K0.000 F100.000
G3 X69.718 Y20.142 Z-0.800 I-1.598 J1.890 K0.000 F100.000
G3 X70.767 Y23.616 Z-0.800 I-11.776 J5.450 K0.000 F100.000
G3 X71.206 Y29.553 Z-0.800 I-25.006 J4.832 K0.000 F100.000
G3 X70.992 Y30.179 Z-0.800 I-0.815 J0.071 K0.000 F100.000
G3 X70.252 Y30.176 Z-0.800 I-0.368 J-0.498 K0.000 F100.000
G3 X69.498 Y29.328 Z-0.800 I1.632 J-2.211 K0.000 F100.000
G3 X68.067 Y25.023 Z-0.800 I11.849 J-6.329 K0.000 F100.000
G3 X67.779 Y21.840 Z-0.800 I17.234 J-3.162 K0.000 F100.000
G1 X67.779 Y21.840 Z-1.600 F100.000
G3 X67.799 Y21.018 Z-1.600 I17.521 J0.021 K0.000 F100.000
G3 X68.298 Y19.448 Z-1.600 I2.671 J-0.015 K0.000 F100.000
G3 X69.076 Y19.305 Z-1.600 I0.457 J0.298 K0.000 F100.000
G3 X69.718 Y20.142 Z-1.600 I-1.598 J1.890 K0.000 F100.000
G3 X70.767 Y23.616 Z-1.600 I-11.776 J5.450 K0.000 F100.000
G3 X71.206 Y29.553 Z-1.600 I-25.006 J4.832 K0.000 F100.000
G3 X70.992 Y30.179 Z-1.600 I-0.815 J0.071 K0.000 F100.000
G3 X70.252 Y30.176 Z-1.600 I-0.368 J-0.498 K0.000 F100.000
G3 X69.498 Y29.328 Z-1.600 I1.632 J-2.211 K0.000 F100.000
G3 X68.067 Y25.023 Z-1.600 I11.849 J-6.329 K0.000 F100.000
G3 X67.779 Y21.840 Z-1.600 I17.234 J-3.162 K0.000 F100.000
G1 X67.779 Y21.840 Z-2.400 F100.000
G3 X67.799 Y21.018 Z-2.400 I17.521 J0.021 K0.000 F100.000
G3 X68.298 Y19.448 Z-2.400 I2.671 J-0.015 K0.000 F100.000
G3 X69.076 Y19.305 Z-2.400 I0.457 J0.298 K0.000 F100.000
G3 X69.718 Y20.142 Z-2.400 I-1.598 J1.890 K0.000 F100.000
G3 X70.767 Y23.616 Z-2.400 I-11.776 J5.450 K0.000 F100.000
G3 X71.206 Y29.553 Z-2.400 I-25.006 J4.832 K0.000 F100.000
G3 X70.992 Y30.179 Z-2.400 I-0.815 J0.071 K0.000 F100.000
G3 X70.252 Y30.176 Z-2.400 I-0.368 J-0.498 K0.000 F100.000
G3 X69.498 Y29.328 Z-2.400 I1.632 J-2.211 K0.000 F100.000
G3 X68.067 Y25.023 Z-2.400 I11.849 J-6.329 K0.000 F100.000
G3 X67.779 Y21.840 Z-2.400 I17.234 J-3.162 K0.000 F100.000
G1 X67.779 Y21.840 Z-3.200 F100.000
G3 X67.799 Y21.018 Z-3.200 I17.521 J0.021 K0.000 F100.000
G3 X68.298 Y19.448 Z-3.200 I2.671 J-0.015 K0.000 F100.000
G3 X69.076 Y19.305 Z-3.200 I0.457 J0.298 K0.000 F100.000
G3 X69.718 Y20.142 Z-3.200 I-1.598 J1.890 K0.000 F100.000
G3 X70.767 Y23.616 Z-3.200 I-11.776 J5.450 K0.000 F100.000
G3 X71.206 Y29.553 Z-3.200 I-25.006 J4.832 K0.000 F100.000
G3 X70.992 Y30.179 Z-3.200 I-0.815 J0.071 K0.000 F100.000
G3 X70.252 Y30.176 Z-3.200 I-0.368 J-0.498 K0.000 F100.000
G3 X69.498 Y29.328 Z-3.200 I1.632 J-2.211 K0.000 F100.000
G3 X68.067 Y25.023 Z-3.200 I11.849 J-6.329 K0.000 F100.000
G3 X67.779 Y21.840 Z-3.200 I17.234 J-3.162 K0.000 F100.000
G1 X67.779 Y21.840 Z-4.000 F100.000
G3 X67.799 Y21.018 Z-4.000 I17.521 J0.021 K0.000 F100.000
G3 X68.298 Y19.448 Z-4.000 I2.671 J-0.015 K0.000 F100.000
G3 X69.076 Y19.305 Z-4.000 I0.457 J0.298 K0.000 F100.000
G3 X69.718 Y20.142 Z-4.000 I-1.598 J1.890 K0.000 F100.000
G3 X70.767 Y23.616 Z-4.000 I-11.776 J5.450 K0.000 F100.000
G3 X71.206 Y29.553 Z-4.000 I-25.006 J4.832 K0.000 F100.000
G3 X70.992 Y30.179 Z-4.000 I-0.815 J0.071 K0.000 F100.000
G3 X70.252 Y30.176 Z-4.000 I-0.368 J-0.498 K0.000 F100.000
G3 X69.498 Y29.328 Z-4.000 I1.632 J-2.211 K0.000 F100.000
G3 X68.067 Y25.023 Z-4.000 I11.849 J-6.329 K0.000 F100.000
G3 X67.779 Y21.840 Z-4.000 I17.234 J-3.162 K0.000 F100.000
G1 X67.779 Y21.840 Z-4.800 F100.000
G3 X67.799 Y21.018 Z-4.800 I17.521 J0.021 K0.000 F100.000
G3 X68.298 Y19.448 Z-4.800 I2.671 J-0.015 K0.000 F100.000
G3 X69.076 Y19.305 Z-4.800 I0.457 J0.298 K0.000 F100.000
G3 X69.718 Y20.142 Z-4.800 I-1.598 J1.890 K0.000 F100.000
G3 X70.767 Y23.616 Z-4.800 I-11.776 J5.450 K0.000 F100.000
G3 X71.206 Y29.553 Z-4.800 I-25.006 J4.832 K0.000 F100.000
G3 X70.992 Y30.179 Z-4.800 I-0.815 J0.071 K0.000 F100.000
G3 X70.252 Y30.176 Z-4.800 I-0.368 J-0.498 K0.000 F100.000
G3 X69.498 Y29.328 Z-4.800 I1.632 J-2.211 K0.000 F100.000
G3 X68.067 Y25.023 Z-4.800 I11.849 J-6.329 K0.000 F100.000
G3 X67.779 Y21.840 Z-4.800 I17.234 J-3.162 K0.000 F100.000
G1 X67.779 Y21.840 Z-5.600 F100.000
G3 X67.799 Y21.018 Z-5.600 I17.521 J0.021 K0.000 F100.000
G3 X68.298 Y19.448 Z-5.600 I2.671 J-0.015 K0.000 F100.000
G3 X69.076 Y19.305 Z-5.600 I0.457 J0.298 K0.000 F100.000
G3 X69.718 Y20.142 Z-5.600 I-1.598 J1.890 K0.000 F100.000
G3 X70.767 Y23.616 Z-5.600 I-11.776 J5.450 K0.000 F100.000
G3 X71.206 Y29.553 Z-5.600 I-25.006 J4.832 K0.000 F100.000
G3 X70.992 Y30.179 Z-5.600 I-0.815 J0.071 K0.000 F100.000
G3 X70.252 Y30.176 Z-5.600 I-0.368 J-0.498 K0.000 F100.000
G3 X69.498 Y29.328 Z-5.600 I1.632 J-2.211 K0.000 F100.000
G3 X68.067 Y25.023 Z-5.600 I11.849 J-6.329 K0.000 F100.000
G3 X67.779 Y21.840 Z-5.600 I17.234 J-3.162 K0.000 F100.000
G1 X67.779 Y21.840 Z-6.000 F100.000
G3 X67.799 Y21.018 Z-6.000 I17.521 J0.021 K0.000 F100.000
G3 X68.298 Y19.448 Z-6.000 I2.671 J-0.015 K0.000 F100.000
G3 X69.076 Y19.305 Z-6.000 I0.457 J0.298 K0.000 F100.000
G3 X69.718 Y20.142 Z-6.000 I-1.598 J1.890 K0.000 F100.000
G3 X70.767 Y23.616 Z-6.000 I-11.776 J5.450 K0.000 F100.000
G3 X71.206 Y29.553 Z-6.000 I-25.006 J4.832 K0.000 F100.000
G3 X70.992 Y30.179 Z-6.000 I-0.815 J0.071 K0.000 F100.000
G3 X70.252 Y30.176 Z-6.000 I-0.368 J-0.498 K0.000 F100.000
G3 X69.498 Y29.328 Z-6.000 I1.632 J-2.211 K0.000 F100.000
G3 X68.067 Y25.023 Z-6.000 I11.849 J-6.329 K0.000 F100.000
G3 X67.779 Y21.840 Z-6.000 I17.234 J-3.162 K0.000 F100.000
G0 Z5.000
G0 Z5.000
G0 X67.779 Y21.840
G0 X84.477 Y51.742
G0 X84.477 Y51.742 Z3.000
G1 X84.477 Y51.742 Z-0.800 F100.000
G3 X89.936 Y51.700 Z-0.800 I2.911 J23.948 K0.000 F100.000
G3 X94.695 Y53.444 Z-0.800 I-1.046 J10.222 K0.000 F100.000
G3 X97.774 Y58.905 Z-0.800 I-4.331 J6.041 K0.000 F100.000
G3 X97.406 Y62.083 Z-0.800 I-7.048 J0.794 K0.000 F100.000
G3 X95.003 Y64.046 Z-0.800 I-2.927 J-1.131 K0.000 F100.000
G3 X90.134 Y62.657 Z-0.800 I-0.905 J-6.057 K0.000 F100.000
G3 X87.293 Y59.123 Z-0.800 I7.998 J-9.338 K0.000 F100.000
G3 X84.477 Y51.742 Z-0.800 I28.516 J-15.110 K0.000 F100.000
G1 X84.477 Y51.742 Z-1.600 F100.000
G3 X89.936 Y51.700 Z-1.600 I2.911 J23.948 K0.000 F100.000
G3 X94.695 Y53.444 Z-1.600 I-1.046 J10.222 K0.000 F100.000
G3 X97.774 Y58.905 Z-1.600 I-4.331 J6.041 K0.000 F100.000
G3 X97.406 Y62.083 Z-1.600 I-7.048 J0.794 K0.000 F100.000
G3 X95.003 Y64.046 Z-1.600 I-2.927 J-1.131 K0.000 F100.000
G3 X90.134 Y62.657 Z-1.600 I-0.905 J-6.057 K0.000 F100.000
G3 X87.293 Y59.123 Z-1.600 I7.998 J-9.338 K0.000 F100.000
G3 X84.477 Y51.742 Z-1.600 I28.516 J-15.110 K0.000 F100.000
G1 X84.477 Y51.742 Z-2.400 F100.000
G3 X89.936 Y51.700 Z-2.400 I2.911 J23.948 K0.000 F100.000
G3 X94.695 Y53.444 Z-2.400 I-1.046 J10.222 K0.000 F100.000
G3 X97.774 Y58.905 Z-2.400 I-4.331 J6.041 K0.000 F100.000
G3 X97.406 Y62.083 Z-2.400 I-7.048 J0.794 K0.000 F100.000
G3 X95.003 Y64.046 Z-2.400 I-2.927 J-1.131 K0.000 F100.000
G3 X90.134 Y62.657 Z-2.400 I-0.905 J-6.057 K0.000 F100.000
G3 X87.293 Y59.123 Z-2.400 I7.998 J-9.338 K0.000 F100.000
G3 X84.477 Y51.742 Z-2.400 I28.516 J-15.110 K0.000 F100.000
G1 X84.477 Y51.742 Z-3.200 F100.000
G3 X89.936 Y51.700 Z-3.200 I2.911 J23.948 K0.000 F100.000
G3 X94.695 Y53.444 Z-3.200 I-1.046 J10.222 K0.000 F100.000
G3 X97.774 Y58.905 Z-3.200 I-4.331 J6.041 K0.000 F100.000
G3 X97.406 Y62.083 Z-3.200 I-7.048 J0.794 K0.000 F100.000
G3 X95.003 Y64.046 Z-3.200 I-2.927 J-1.131 K0.000 F100.000
G3 X90.134 Y62.657 Z-3.200 I-0.905 J-6.057 K0.000 F100.000
G3 X87.293 Y59.123 Z-3.200 I7.998 J-9.338 K0.000 F100.000
G3 X84.477 Y51.742 Z-3.200 I28.516 J-15.110 K0.000 F100.000
G1 X84.477 Y51.742 Z-4.000 F100.000
G3 X89.936 Y51.700 Z-4.000 I2.911 J23.948 K0.000 F100.000
G3 X94.695 Y53.444 Z-4.000 I-1.046 J10.222 K0.000 F100.000
G3 X97.774 Y58.905 Z-4.000 I-4.331 J6.041 K0.000 F100.000
G3 X97.406 Y62.083 Z-4.000 I-7.048 J0.794 K0.000 F100.000
G3 X95.003 Y64.046 Z-4.000 I-2.927 J-1.131 K0.000 F100.000
G3 X90.134 Y62.657 Z-4.000 I-0.905 J-6.057 K0.000 F100.000
G3 X87.293 Y59.123 Z-4.000 I7.998 J-9.338 K0.000 F100.000
G3 X84.477 Y51.742 Z-4.000 I28.516 J-15.110 K0.000 F100.000
G1 X84.477 Y51.742 Z-4.800 F100.000
G3 X89.936 Y51.700 Z-4.800 I2.911 J23.948 K0.000 F100.000
G3 X94.695 Y53.444 Z-4.800 I-1.046 J10.222 K0.000 F100.000
G3 X97.774 Y58.905 Z-4.800 I-4.331 J6.041 K0.000 F100.000
G3 X97.406 Y62.083 Z-4.800 I-7.048 J0.794 K0.000 F100.000
G3 X95.003 Y64.046 Z-4.800 I-2.927 J-1.131 K0.000 F100.000
G3 X90.134 Y62.657 Z-4.800 I-0.905 J-6.057 K0.000 F100.000
G3 X87.293 Y59.123 Z-4.800 I7.998 J-9.338 K0.000 F100.000
G3 X84.477 Y51.742 Z-4.800 I28.516 J-15.110 K0.000 F100.000
G1 X84.477 Y51.742 Z-5.600 F100.000
G3 X89.936 Y51.700 Z-5.600 I2.911 J23.948 K0.000 F100.000
G3 X94.695 Y53.444 Z-5.600 I-1.046 J10.222 K0.000 F100.000
G3 X97.774 Y58.905 Z-5.600 I-4.331 J6.041 K0.000 F100.000
G3 X97.406 Y62.083 Z-5.600 I-7.048 J0.794 K0.000 F100.000
G3 X95.003 Y64.046 Z-5.600 I-2.927 J-1.131 K0.000 F100.000
G3 X90.134 Y62.657 Z-5.600 I-0.905 J-6.057 K0.000 F100.000
G3 X87.293 Y59.123 Z-5.600 I7.998 J-9.338 K0.000 F100.000
G3 X84.477 Y51.742 Z-5.600 I28.516 J-15.110 K0.000 F100.000
G1 X84.477 Y51.742 Z-6.000 F100.000
G3 X89.936 Y51.700 Z-6.000 I2.911 J23.948 K0.000 F100.000
G3 X94.695 Y53.444 Z-6.000 I-1.046 J10.222 K0.000 F100.000
G3 X97.774 Y58.905 Z-6.000 I-4.331 J6.041 K0.000 F100.000
G3 X97.406 Y62.083 Z-6.000 I-7.048 J0.794 K0.000 F100.000
G3 X95.003 Y64.046 Z-6.000 I-2.927 J-1.131 K0.000 F100.000
G3 X90.134 Y62.657 Z-6.000 I-0.905 J-6.057 K0.000 F100.000
G3 X87.293 Y59.123 Z-6.000 I7.998 J-9.338 K0.000 F100.000
G3 X84.477 Y51.742 Z-6.000 I28.516 J-15.110 K0.000 F100.000
G0 Z5.000
G0 Z5.000
G0 X84.477 Y51.742
G0 X124.267 Y24.198
G0 X124.267 Y24.198 Z3.000
G1 X124.267 Y24.198 Z-0.800 F100.000
G3 X122.944 Y21.376 Z-0.800 I7.697 J-5.328 K0.000 F100.000
G3 X122.351 Y18.843 Z-0.800 I15.592 J-4.987 K0.000 F100.000
G3 X122.499 Y16.573 Z-0.800 I4.468 J-0.849 K0.000 F100.000
G3 X124.723 Y15.311 Z-0.800 I1.930 J0.811 K0.000 F100.000
G1 X125.079 Y15.384 Z-0.800 F100.000
G3 X126.890 Y16.801 Z-0.800 I-1.200 J3.400 K0.000 F100.000
G3 X127.817 Y19.687 Z-0.800 I-3.844 J2.826 K0.000 F100.000
G3 X127.305 Y20.816 Z-0.800 I-1.391 J0.050 K0.000 F100.000
G2 X126.174 Y21.822 Z-0.800 I3.640 J5.233 K0.000 F100.000
G2 X125.672 Y23.952 Z-0.800 I1.643 J1.511 K0.000 F100.000
G2 X127.022 Y26.154 Z-0.800 I4.581 J-1.293 K0.000 F100.000
G3 X124.778 Y24.870 Z-0.800 I0.669 J-3.773 K0.000 F100.000
G3 X124.267 Y24.198 Z-0.800 I7.186 J-6.000 K0.000 F100.000
G1 X124.267 Y24.198 Z-1.600 F100.000
G3 X122.944 Y21.376 Z-1.600 I7.697 J-5.328 K0.000 F100.000
G3 X122.351 Y18.843 Z-1.600 I15.592 J-4.987 K0.000 F100.000
G3 X122.499 Y16.573 Z-1.600 I4.468 J-0.849 K0.000 F100.000
G3 X124.723 Y15.311 Z-1.600 I1.930 J0.811 K0.000 F100.000
G1 X125.079 Y15.384 Z-1.600 F100.000
G3 X126.890 Y16.801 Z-1.600 I-1.200 J3.400 K0.000 F100.000
G3 X127.817 Y19.687 Z-1.600 I-3.844 J2.826 K0.000 F100.000
G3 X127.305 Y20.816 Z-1.600 I-1.391 J0.050 K0.000 F100.000
G2 X126.174 Y21.822 Z-1.600 I3.640 J5.233 K0.000 F100.000
G2 X125.672 Y23.952 Z-1.600 I1.643 J1.511 K0.000 F100.000
G2 X127.022 Y26.154 Z-1.600 I4.581 J-1.293 K0.000 F100.000
G3 X124.778 Y24.870 Z-1.600 I0.669 J-3.773 K0.000 F100.000
G3 X124.267 Y24.198 Z-1.600 I7.186 J-6.000 K0.000 F100.000
G1 X124.267 Y24.198 Z-2.400 F100.000
G3 X122.944 Y21.376 Z-2.400 I7.697 J-5.328 K0.000 F100.000
G3 X122.351 Y18.843 Z-2.400 I15.592 J-4.987 K0.000 F100.000
G3 X122.499 Y16.573 Z-2.400 I4.468 J-0.849 K0.000 F100.000
G3 X124.723 Y15.311 Z-2.400 I1.930 J0.811 K0.000 F100.000
G1 X125.079 Y15.384 Z-2.400 F100.000
G3 X126.890 Y16.801 Z-2.400 I-1.200 J3.400 K0.000 F100.000
G3 X127.817 Y19.687 Z-2.400 I-3.844 J2.826 K0.000 F100.000
G3 X127.305 Y20.816 Z-2.400 I-1.391 J0.050 K0.000 F100.000
G2 X126.174 Y21.822 Z-2.400 I3.640 J5.233 K0.000 F100.000
G2 X125.672 Y23.952 Z-2.400 I1.643 J1.511 K0.000 F100.000
G2 X127.022 Y26.154 Z-2.400 I4.581 J-1.293 K0.000 F100.000
G3 X124.778 Y24.870 Z-2.400 I0.669 J-3.773 K0.000 F100.000
G3 X124.267 Y24.198 Z-2.400 I7.186 J-6.000 K0.000 F100.000
G1 X124.267 Y24.198 Z-3.200 F100.000
G3 X122.944 Y21.376 Z-3.200 I7.697 J-5.328 K0.000 F100.000
G3 X122.351 Y18.843 Z-3.200 I15.592 J-4.987 K0.000 F100.000
G3 X122.499 Y16.573 Z-3.200 I4.468 J-0.849 K0.000 F100.000
G3 X124.723 Y15.311 Z-3.200 I1.930 J0.811 K0.000 F100.000
G1 X125.079 Y15.384 Z-3.200 F100.000
G3 X126.890 Y16.801 Z-3.200 I-1.200 J3.400 K0.000 F100.000
G3 X127.817 Y19.687 Z-3.200 I-3.844 J2.826 K0.000 F100.000
G3 X127.305 Y20.816 Z-3.200 I-1.391 J0.050 K0.000 F100.000
G2 X126.174 Y21.822 Z-3.200 I3.640 J5.233 K0.000 F100.000
G2 X125.672 Y23.952 Z-3.200 I1.643 J1.511 K0.000 F100.000
G2 X127.022 Y26.154 Z-3.200 I4.581 J-1.293 K0.000 F100.000
G3 X124.778 Y24.870 Z-3.200 I0.669 J-3.773 K0.000 F100.000
G3 X124.267 Y24.198 Z-3.200 I7.186 J-6.000 K0.000 F100.000
G1 X124.267 Y24.198 Z-4.000 F100.000
G3 X122.944 Y21.376 Z-4.000 I7.697 J-5.328 K0.000 F100.000
G3 X122.351 Y18.843 Z-4.000 I15.592 J-4.987 K0.000 F100.000
G3 X122.499 Y16.573 Z-4.000 I4.468 J-0.849 K0.000 F100.000
G3 X124.723 Y15.311 Z-4.000 I1.930 J0.811 K0.000 F100.000
G1 X125.079 Y15.384 Z-4.000 F100.000
G3 X126.890 Y16.801 Z-4.000 I-1.200 J3.400 K0.000 F100.000
G3 X127.817 Y19.687 Z-4.000 I-3.844 J2.826 K0.000 F100.000
G3 X127.305 Y20.816 Z-4.000 I-1.391 J0.050 K0.000 F100.000
G2 X126.174 Y21.822 Z-4.000 I3.640 J5.233 K0.000 F100.000
G2 X125.672 Y23.952 Z-4.000 I1.643 J1.511 K0.000 F100.000
G2 X127.022 Y26.154 Z-4.000 I4.581 J-1.293 K0.000 F100.000
G3 X124.778 Y24.870 Z-4.000 I0.669 J-3.773 K0.000 F100.000
G3 X124.267 Y24.198 Z-4.000 I7.186 J-6.000 K0.000 F100.000
G1 X124.267 Y24.198 Z-4.800 F100.000
G3 X122.944 Y21.376 Z-4.800 I7.697 J-5.328 K0.000 F100.000
G3 X122.351 Y18.843 Z-4.800 I15.592 J-4.987 K0.000 F100.000
G3 X122.499 Y16.573 Z-4.800 I4.468 J-0.849 K0.000 F100.000
G3 X124.723 Y15.311 Z-4.800 I1.930 J0.811 K0.000 F100.000
G1 X125.079 Y15.384 Z-4.800 F100.000
G3 X126.890 Y16.801 Z-4.800 I-1.200 J3.400 K0.000 F100.000
G3 X127.817 Y19.687 Z-4.800 I-3.844 J2.826 K0.000 F100.000
G3 X127.305 Y20.816 Z-4.800 I-1.391 J0.050 K0.000 F100.000
G2 X126.174 Y21.822 Z-4.800 I3.640 J5.233 K0.000 F100.000
G2 X125.672 Y23.952 Z-4.800 I1.643 J1.511 K0.000 F100.000
G2 X127.022 Y26.154 Z-4.800 I4.581 J-1.293 K0.000 F100.000
G3 X124.778 Y24.870 Z-4.800 I0.669 J-3.773 K0.000 F100.000
G3 X124.267 Y24.198 Z-4.800 I7.186 J-6.000 K0.000 F100.000
G1 X124.267 Y24.198 Z-5.600 F100.000
G3 X122.944 Y21.376 Z-5.600 I7.697 J-5.328 K0.000 F100.000
G3 X122.351 Y18.843 Z-5.600 I15.592 J-4.987 K0.000 F100.000
G3 X122.499 Y16.573 Z-5.600 I4.468 J-0.849 K0.000 F100.000
G3 X124.723 Y15.311 Z-5.600 I1.930 J0.811 K0.000 F100.000
G1 X125.079 Y15.384 Z-5.600 F100.000
G3 X126.890 Y16.801 Z-5.600 I-1.200 J3.400 K0.000 F100.000
G3 X127.817 Y19.687 Z-5.600 I-3.844 J2.826 K0.000 F100.000
G3 X127.305 Y20.816 Z-5.600 I-1.391 J0.050 K0.000 F100.000
G2 X126.174 Y21.822 Z-5.600 I3.640 J5.233 K0.000 F100.000
G2 X125.672 Y23.952 Z-5.600 I1.643 J1.511 K0.000 F100.000
G2 X127.022 Y26.154 Z-5.600 I4.581 J-1.293 K0.000 F100.000
G3 X124.778 Y24.870 Z-5.600 I0.669 J-3.773 K0.000 F100.000
G3 X124.267 Y24.198 Z-5.600 I7.186 J-6.000 K0.000 F100.000
G1 X124.267 Y24.198 Z-6.000 F100.000
G3 X122.944 Y21.376 Z-6.000 I7.697 J-5.328 K0.000 F100.000
G3 X122.351 Y18.843 Z-6.000 I15.592 J-4.987 K0.000 F100.000
G3 X122.499 Y16.573 Z-6.000 I4.468 J-0.849 K0.000 F100.000
G3 X124.723 Y15.311 Z-6.000 I1.930 J0.811 K0.000 F100.000
G1 X125.079 Y15.384 Z-6.000 F100.000
G3 X126.890 Y16.801 Z-6.000 I-1.200 J3.400 K0.000 F100.000
G3 X127.817 Y19.687 Z-6.000 I-3.844 J2.826 K0.000 F100.000
G3 X127.305 Y20.816 Z-6.000 I-1.391 J0.050 K0.000 F100.000
G2 X126.174 Y21.822 Z-6.000 I3.640 J5.233 K0.000 F100.000
G2 X125.672 Y23.952 Z-6.000 I1.643 J1.511 K0.000 F100.000
G2 X127.022 Y26.154 Z-6.000 I4.581 J-1.293 K0.000 F100.000
G3 X124.778 Y24.870 Z-6.000 I0.669 J-3.773 K0.000 F100.000
G3 X124.267 Y24.198 Z-6.000 I7.186 J-6.000 K0.000 F100.000
G0 Z5.000
G0 Z5.000
G0 X124.267 Y24.198
G0 X142.718 Y16.298
G0 X142.718 Y16.298 Z3.000
G1 X142.718 Y16.298 Z-0.800 F100.000
G3 X142.675 Y16.198 Z-0.800 I10.808 J-4.628 K0.000 F100.000
G3 X141.828 Y13.728 Z-0.800 I14.761 J-6.449 K0.000 F100.000
G3 X141.749 Y11.454 Z-0.800 I4.364 J-1.289 K0.000 F100.000
G3 X143.834 Y9.978 Z-0.800 I1.999 J0.614 K0.000 F100.000
G3 X145.754 Y10.849 Z-0.800 I-0.230 J3.061 K0.000 F100.000
G3 X147.351 Y14.023 Z-0.800 I-3.253 J3.626 K0.000 F100.000
G3 X147.063 Y15.079 Z-0.800 I-1.533 J0.149 K0.000 F100.000
G3 X146.339 Y15.800 Z-0.800 I-7.996 J-7.313 K0.000 F100.000
G2 X145.670 Y16.768 Z-0.800 I2.646 J2.542 K0.000 F100.000
G2 X145.643 Y18.481 Z-0.800 I2.030 J0.889 K0.000 F100.000
G2 X147.207 Y20.535 Z-0.800 I4.411 J-1.736 K0.000 F100.000
G3 X146.389 Y20.393 Z-0.800 I-0.044 J-2.179 K0.000 F100.000
G3 X143.965 Y18.513 Z-0.800 I1.823 J-4.851 K0.000 F100.000
G3 X142.718 Y16.298 Z-0.800 I9.560 J-6.843 K0.000 F100.000
G1 X142.718 Y16.298 Z-1.600 F100.000
G3 X142.675 Y16.198 Z-1.600 I10.808 J-4.628 K0.000 F100.000
G3 X141.828 Y13.728 Z-1.600 I14.761 J-6.449 K0.000 F100.000
G3 X141.749 Y11.454 Z-1.600 I4.364 J-1.289 K0.000 F100.000
G3 X143.834 Y9.978 Z-1.600 I1.999 J0.614 K0.000 F100.000
G3 X145.754 Y10.849 Z-1.600 I-0.230 J3.061 K0.000 F100.000
G3 X147.351 Y14.023 Z-1.600 I-3.253 J3.626 K0.000 F100.000
G3 X147.063 Y15.079 Z-1.600 I-1.533 J0.149 K0.000 F100.000
G3 X146.339 Y15.800 Z-1.600 I-7.996 J-7.313 K0.000 F100.000
G2 X145.670 Y16.768 Z-1.600 I2.646 J2.542 K0.000 F100.000
G2 X145.643 Y18.481 Z-1.600 I2.030 J0.889 K0.000 F100.000
G2 X147.207 Y20.535 Z-1.600 I4.411 J-1.736 K0.000 F100.000
G3 X146.389 Y20.393 Z-1.600 I-0.044 J-2.179 K0.000 F100.000
G3 X143.965 Y18.513 Z-1.600 I1.823 J-4.851 K0.000 F100.000
G3 X142.718 Y16.298 Z-1.600 I9.560 J-6.843 K0.000 F100.000
G1 X142.718 Y16.298 Z-2.400 F100.000
G3 X142.675 Y16.198 Z-2.400 I10.808 J-4.628 K0.000 F100.000
G3 X141.828 Y13.728 Z-2.400 I14.761 J-6.449 K0.000 F100.000
G3 X141.749 Y11.454 Z-2.400 I4.364 J-1.289 K0.000 F100.000
G3 X143.834 Y9.978 Z-2.400 I1.999 J0.614 K0.000 F100.000
G3 X145.754 Y10.849 Z-2.400 I-0.230 J3.061 K0.000 F100.000
G3 X147.351 Y14.023 Z-2.400 I-3.253 J3.626 K0.000 F100.000
G3 X147.063 Y15.079 Z-2.400 I-1.533 J0.149 K0.000 F100.000
G3 X146.339 Y15.800 Z-2.400 I-7.996 J-7.313 K0.000 F100.000
G2 X145.670 Y16.768 Z-2.400 I2.646 J2.542 K0.000 F100.000
G2 X145.643 Y18.481 Z-2.400 I2.030 J0.889 K0.000 F100.000
G2 X147.207 Y20.535 Z-2.400 I4.411 J-1.736 K0.000 F100.000
G3 X146.389 Y20.393 Z-2.400 I-0.044 J-2.179 K0.000 F100.000
G3 X143.965 Y18.513 Z-2.400 I1.823 J-4.851 K0.000 F100.000
G3 X142.718 Y16.298 Z-2.400 I9.560 J-6.843 K0.000 F100.000
G1 X142.718 Y16.298 Z-3.200 F100.000
G3 X142.675 Y16.198 Z-3.200 I10.808 J-4.628 K0.000 F100.000
G3 X141.828 Y13.728 Z-3.200 I14.761 J-6.449 K0.000 F100.000
G3 X141.749 Y11.454 Z-3.200 I4.364 J-1.289 K0.000 F100.000
G3 X143.834 Y9.978 Z-3.200 I1.999 J0.614 K0.000 F100.000
G3 X145.754 Y10.849 Z-3.200 I-0.230 J3.061 K0.000 F100.000
G3 X147.351 Y14.023 Z-3.200 I-3.253 J3.626 K0.000 F100.000
G3 X147.063 Y15.079 Z-3.200 I-1.533 J0.149 K0.000 F100.000
G3 X146.339 Y15.800 Z-3.200 I-7.996 J-7.313 K0.000 F100.000
G2 X145.670 Y16.768 Z-3.200 I2.646 J2.542 K0.000 F100.000
G2 X145.643 Y18.481 Z-3.200 I2.030 J0.889 K0.000 F100.000
G2 X147.207 Y20.535 Z-3.200 I4.411 J-1.736 K0.000 F100.000
G3 X146.389 Y20.393 Z-3.200 I-0.044 J-2.179 K0.000 F100.000
G3 X143.965 Y18.513 Z-3.200 I1.823 J-4.851 K0.000 F100.000
G3 X142.718 Y16.298 Z-3.200 I9.560 J-6.843 K0.000 F100.000
G1 X142.718 Y16.298 Z-4.000 F100.000
G3 X142.675 Y16.198 Z-4.000 I10.808 J-4.628 K0.000 F100.000
G3 X141.828 Y13.728 Z-4.000 I14.761 J-6.449 K0.000 F100.000
G3 X141.749 Y11.454 Z-4.000 I4.364 J-1.289 K0.000 F100.000
G3 X143.834 Y9.978 Z-4.000 I1.999 J0.614 K0.000 F100.000
G3 X145.754 Y10.849 Z-4.000 I-0.230 J3.061 K0.000 F100.000
G3 X147.351 Y14.023 Z-4.000 I-3.253 J3.626 K0.000 F100.000
G3 X147.063 Y15.079 Z-4.000 I-1.533 J0.149 K0.000 F100.000
G3 X146.339 Y15.800 Z-4.000 I-7.996 J-7.313 K0.000 F100.000
G2 X145.670 Y16.768 Z-4.000 I2.646 J2.542 K0.000 F100.000
G2 X145.643 Y18.481 Z-4.000 I2.030 J0.889 K0.000 F100.000
G2 X147.207 Y20.535 Z-4.000 I4.411 J-1.736 K0.000 F100.000
G3 X146.389 Y20.393 Z-4.000 I-0.044 J-2.179 K0.000 F100.000
G3 X143.965 Y18.513 Z-4.000 I1.823 J-4.851 K0.000 F100.000
G3 X142.718 Y16.298 Z-4.000 I9.560 J-6.843 K0.000 F100.000
G1 X142.718 Y16.298 Z-4.800 F100.000
G3 X142.675 Y16.198 Z-4.800 I10.808 J-4.628 K0.000 F100.000
G3 X141.828 Y13.728 Z-4.800 I14.761 J-6.449 K0.000 F100.000
G3 X141.749 Y11.454 Z-4.800 I4.364 J-1.289 K0.000 F100.000
G3 X143.834 Y9.978 Z-4.800 I1.999 J0.614 K0.000 F100.000
G3 X145.754 Y10.849 Z-4.800 I-0.230 J3.061 K0.000 F100.000
G3 X147.351 Y14.023 Z-4.800 I-3.253 J3.626 K0.000 F100.000
G3 X147.063 Y15.079 Z-4.800 I-1.533 J0.149 K0.000 F100.000
G3 X146.339 Y15.800 Z-4.800 I-7.996 J-7.313 K0.000 F100.000
G2 X145.670 Y16.768 Z-4.800 I2.646 J2.542 K0.000 F100.000
G2 X145.643 Y18.481 Z-4.800 I2.030 J0.889 K0.000 F100.000
G2 X147.207 Y20.535 Z-4.800 I4.411 J-1.736 K0.000 F100.000
G3 X146.389 Y20.393 Z-4.800 I-0.044 J-2.179 K0.000 F100.000
G3 X143.965 Y18.513 Z-4.800 I1.823 J-4.851 K0.000 F100.000
G3 X142.718 Y16.298 Z-4.800 I9.560 J-6.843 K0.000 F100.000
G1 X142.718 Y16.298 Z-5.600 F100.000
G3 X142.675 Y16.198 Z-5.600 I10.808 J-4.628 K0.000 F100.000
G3 X141.828 Y13.728 Z-5.600 I14.761 J-6.449 K0.000 F100.000
G3 X141.749 Y11.454 Z-5.600 I4.364 J-1.289 K0.000 F100.000
G3 X143.834 Y9.978 Z-5.600 I1.999 J0.614 K0.000 F100.000
G3 X145.754 Y10.849 Z-5.600 I-0.230 J3.061 K0.000 F100.000
G3 X147.351 Y14.023 Z-5.600 I-3.253 J3.626 K0.000 F100.000
G3 X147.063 Y15.079 Z-5.600 I-1.533 J0.149 K0.000 F100.000
G3 X146.339 Y15.800 Z-5.600 I-7.996 J-7.313 K0.000 F100.000
G2 X145.670 Y16.768 Z-5.600 I2.646 J2.542 K0.000 F100.000
G2 X145.643 Y18.481 Z-5.600 I2.030 J0.889 K0.000 F100.000
G2 X147.207 Y20.535 Z-5.600 I4.411 J-1.736 K0.000 F100.000
G3 X146.389 Y20.393 Z-5.600 I-0.044 J-2.179 K0.000 F100.000
G3 X143.965 Y18.513 Z-5.600 I1.823 J-4.851 K0.000 F100.000
G3 X142.718 Y16.298 Z-5.600 I9.560 J-6.843 K0.000 F100.000
G1 X142.718 Y16.298 Z-6.000 F100.000
G3 X142.675 Y16.198 Z-6.000 I10.808 J-4.628 K0.000 F100.000
G3 X141.828 Y13.728 Z-6.000 I14.761 J-6.449 K0.000 F100.000
G3 X141.749 Y11.454 Z-6.000 I4.364 J-1.289 K0.000 F100.000
G3 X143.834 Y9.978 Z-6.000 I1.999 J0.614 K0.000 F100.000
G3 X145.754 Y10.849 Z-6.000 I-0.230 J3.061 K0.000 F100.000
G3 X147.351 Y14.023 Z-6.000 I-3.253 J3.626 K0.000 F100.000
G3 X147.063 Y15.079 Z-6.000 I-1.533 J0.149 K0.000 F100.000
G3 X146.339 Y15.800 Z-6.000 I-7.996 J-7.313 K0.000 F100.000
G2 X145.670 Y16.768 Z-6.000 I2.646 J2.542 K0.000 F100.000
G2 X145.643 Y18.481 Z-6.000 I2.030 J0.889 K0.000 F100.000
G2 X147.207 Y20.535 Z-6.000 I4.411 J-1.736 K0.000 F100.000
G3 X146.389 Y20.393 Z-6.000 I-0.044 J-2.179 K0.000 F100.000
G3 X143.965 Y18.513 Z-6.000 I1.823 J-4.851 K0.000 F100.000
G3 X142.718 Y16.298 Z-6.000 I9.560 J-6.843 K0.000 F100.000
G0 Z5.000
G0 Z5.000
G0 X142.718 Y16.298
G0 X138.349 Y23.030
G0 X138.349 Y23.030 Z3.000
G1 X138.349 Y23.030 Z-0.800 F100.000
G2 X149.409 Y24.048 Z-0.800 I6.488 J-9.906 K0.000 F100.000
G2 X153.786 Y19.127 Z-0.800 I-2.378 J-6.522 K0.000 F100.000
G2 X153.865 Y16.046 Z-0.800 I-8.174 J-1.754 K0.000 F100.000
G2 X150.961 Y9.492 Z-0.800 I-15.670 J3.024 K0.000 F100.000
G2 X144.190 Y5.168 Z-0.800 I-8.525 J5.886 K0.000 F100.000
G2 X136.676 Y6.802 Z-0.800 I-1.502 J11.188 K0.000 F100.000
G2 X132.833 Y14.215 Z-0.800 I4.048 J6.801 K0.000 F100.000
G2 X138.349 Y23.030 Z-0.800 I12.097 J-1.438 K0.000 F100.000
G0 Z5.000
G0 X134.112 Y22.968 Z5.000
G0 X134.112 Y22.968 Z3.000
G1 X134.112 Y22.968 Z-0.800 F100.000
G2 X134.099 Y22.351 Z-0.800 I-8.366 J-0.122 K0.000 F100.000
G2 X131.258 Y14.596 Z-0.800 I-16.113 J1.504 K0.000 F100.000
G2 X124.693 Y10.380 Z-0.800 I-8.284 J5.681 K0.000 F100.000
G2 X118.681 Y11.082 Z-0.800 I-1.708 J11.474 K0.000 F100.000
G2 X113.516 Y16.968 Z-0.800 I2.788 J7.655 K0.000 F100.000
G2 X108.958 Y14.088 Z-0.800 I-9.594 J10.136 K0.000 F100.000
G2 X103.513 Y13.695 Z-0.800 I-3.283 J7.571 K0.000 F100.000
G2 X99.812 Y17.149 Z-0.800 I1.238 J5.037 K0.000 F100.000
G2 X99.651 Y21.385 Z-0.800 I9.530 J2.484 K0.000 F100.000
G2 X101.052 Y26.308 Z-0.800 I33.636 J-6.912 K0.000 F100.000
G3 X101.930 Y29.616 Z-0.800 I-15.329 J5.840 K0.000 F100.000
G3 X101.960 Y30.217 Z-0.800 I-1.309 J0.366 K0.000 F100.000
G3 X101.478 Y30.808 Z-0.800 I-1.146 J-0.443 K0.000 F100.000
G2 X101.278 Y33.303 Z-0.800 I0.712 J1.313 K0.000 F100.000
G3 X103.040 Y34.535 Z-0.800 I-3.173 J6.412 K0.000 F100.000
G3 X104.655 Y38.361 Z-0.800 I-3.764 J3.843 K0.000 F100.000
G3 X104.041 Y39.223 Z-0.800 I-0.874 J0.027 K0.000 F100.000
G3 X102.244 Y38.833 Z-0.800 I-0.377 J-2.594 K0.000 F100.000
G3 X100.415 Y36.607 Z-0.800 I3.093 J-4.407 K0.000 F100.000
G3 X99.761 Y33.113 Z-0.800 I8.020 J-3.309 K0.000 F100.000
G2 X99.820 Y30.618 Z-0.800 I-36.932 J-2.112 K0.000 F100.000
G2 X99.069 Y28.036 Z-0.800 I-3.984 J-0.242 K0.000 F100.000
G2 X95.341 Y27.389 Z-0.800 I-2.203 J1.629 K0.000 F100.000
G2 X94.467 Y29.285 Z-0.800 I1.102 J1.657 K0.000 F100.000
G2 X94.905 Y30.606 Z-0.800 I5.284 J-1.019 K0.000 F100.000
G3 X95.041 Y31.132 Z-0.800 I-0.729 J0.469 K0.000 F100.000
G3 X94.223 Y31.533 Z-0.800 I-0.639 J-0.269 K0.000 F100.000
G3 X93.192 Y30.265 Z-0.800 I0.627 J-1.564 K0.000 F100.000
G3 X93.806 Y27.899 Z-0.800 I3.140 J-0.448 K0.000 F100.000
G3 X95.190 Y26.496 Z-0.800 I7.596 J6.112 K0.000 F100.000
G2 X97.163 Y24.640 Z-0.800 I-13.480 J-16.301 K0.000 F100.000
G2 X98.458 Y21.400 Z-0.800 I-3.682 J-3.350 K0.000 F100.000
G2 X95.076 Y15.710 Z-0.800 I-6.636 J0.094 K0.000 F100.000
G2 X89.272 Y14.621 Z-0.800 I-4.749 J9.297 K0.000 F100.000
G2 X85.237 Y15.806 Z-0.800 I0.762 J10.054 K0.000 F100.000
G2 X82.951 Y17.881 Z-0.800 I2.677 J5.246 K0.000 F100.000
G2 X80.143 Y15.584 Z-0.800 I-7.240 J5.985 K0.000 F100.000
G2 X76.772 Y14.569 Z-0.800 I-3.927 J6.938 K0.000 F100.000
G2 X72.202 Y17.076 Z-0.800 I-0.340 J4.799 K0.000 F100.000
G2 X68.583 Y14.598 Z-0.800 I-7.670 J7.321 K0.000 F100.000
G2 X64.261 Y13.983 Z-0.800 I-3.203 J7.023 K0.000 F100.000
G2 X60.028 Y16.787 Z-0.800 I0.721 J5.686 K0.000 F100.000
G2 X57.225 Y13.768 Z-0.800 I-8.494 J5.075 K0.000 F100.000
G2 X54.022 Y12.377 Z-0.800 I-4.604 J6.219 K0.000 F100.000
G1 X54.021 Y12.382 Z-0.800 F100.000
G1 X53.989 Y12.371 Z-0.800 F100.000
G2 X52.820 Y12.304 Z-0.800 I-0.862 J4.821 K0.000 F100.000
G2 X49.042 Y14.374 Z-0.800 I0.427 J5.262 K0.000 F100.000
G2 X42.530 Y10.317 Z-0.800 I-7.277 J4.427 K0.000 F100.000
G2 X36.823 Y12.784 Z-0.800 I-0.665 J6.296 K0.000 F100.000
G2 X35.360 Y15.940 Z-0.800 I7.815 J5.539 K0.000 F100.000
G2 X35.328 Y22.987 Z-0.800 I14.976 J3.592 K0.000 F100.000
G2 X38.503 Y28.512 Z-0.800 I10.180 J-2.176 K0.000 F100.000
G2 X44.841 Y31.251 Z-0.800 I7.470 J-8.582 K0.000 F100.000
G2 X48.586 Y30.899 Z-0.800 I0.879 J-10.739 K0.000 F100.000
G3 X49.243 Y30.893 Z-0.800 I0.341 J1.388 K0.000 F100.000
G3 X51.448 Y31.875 Z-0.800 I-5.854 J16.107 K0.000 F100.000
G2 X53.777 Y32.905 Z-0.800 I4.928 J-7.994 K0.000 F100.000
G2 X55.075 Y32.390 Z-0.800 I0.325 J-1.075 K0.000 F100.000
G2 X55.328 Y31.045 Z-0.800 I-3.339 J-1.324 K0.000 F100.000
G3 X55.081 Y26.744 Z-0.800 I168.560 J-11.820 K0.000 F100.000
G3 X55.385 Y20.637 Z-0.800 I25.771 J-1.781 K0.000 F100.000
G3 X55.835 Y19.491 Z-0.800 I2.629 J0.371 K0.000 F100.000
G3 X57.991 Y19.213 Z-0.800 I1.183 J0.675 K0.000 F100.000
G3 X58.901 Y20.563 Z-0.800 I-20.628 J14.890 K0.000 F100.000
G2 X60.155 Y28.089 Z-0.800 I14.358 J1.474 K0.000 F100.000
G2 X64.292 Y32.868 Z-0.800 I9.858 J-4.353 K0.000 F100.000
G2 X70.458 Y34.331 Z-0.800 I5.134 J-7.913 K0.000 F100.000
G2 X72.599 Y33.792 Z-0.800 I-0.617 J-6.964 K0.000 F100.000
G2 X75.194 Y47.573 Z-0.800 I162.759 J-23.511 K0.000 F100.000
G2 X65.906 Y50.894 Z-0.800 I82.669 J245.866 K0.000 F100.000
G3 X54.403 Y54.939 Z-0.800 I-46.839 J-114.819 K0.000 F100.000
G3 X36.208 Y56.840 Z-0.800 I-14.117 J-47.087 K0.000 F100.000
G3 X34.650 Y56.525 Z-0.800 I1.001 J-8.950 K0.000 F100.000
G3 X30.783 Y54.105 Z-0.800 I2.180 J-7.785 K0.000 F100.000
G3 X29.517 Y45.714 Z-0.800 I6.285 J-5.239 K0.000 F100.000
G2 X30.129 Y44.381 Z-0.800 I-6.242 J-3.670 K0.000 F100.000
G2 X29.651 Y42.891 Z-0.800 I-1.200 J-0.437 K0.000 F100.000
G2 X28.522 Y42.806 Z-0.800 I-0.709 J1.878 K0.000 F100.000
G2 X25.889 Y43.861 Z-0.800 I1.983 J8.761 K0.000 F100.000
G2 X20.739 Y49.662 Z-0.800 I7.546 J11.886 K0.000 F100.000
G2 X19.289 Y57.775 Z-0.800 I14.291 J6.741 K0.000 F100.000
G2 X28.950 Y71.038 Z-0.800 I15.487 J-1.132 K0.000 F100.000
G2 X37.455 Y72.348 Z-0.800 I7.234 J-18.703 K0.000 F100.000
G2 X46.241 Y70.399 Z-0.800 I-2.719 J-33.028 K0.000 F100.000
G2 X56.287 Y65.674 Z-0.800 I-27.585 J-71.693 K0.000 F100.000
G2 X67.746 Y58.905 Z-0.800 I-300.182 J-521.299 K0.000 F100.000
G3 X76.611 Y54.242 Z-0.800 I44.324 J73.507 K0.000 F100.000
G2 X79.551 Y63.274 Z-0.800 I50.279 J-11.374 K0.000 F100.000
G2 X83.357 Y69.837 Z-0.800 I27.852 J-11.767 K0.000 F100.000
G2 X87.578 Y73.888 Z-0.800 I14.557 J-10.942 K0.000 F100.000
G2 X98.680 Y76.094 Z-0.800 I8.047 J-11.464 K0.000 F100.000
G2 X105.666 Y70.747 Z-0.800 I-2.143 J-10.038 K0.000 F100.000
G2 X106.937 Y66.889 Z-0.800 I-13.243 J-6.502 K0.000 F100.000
G2 X106.915 Y60.296 Z-0.800 I-20.179 J-3.229 K0.000 F100.000
G2 X100.595 Y49.935 Z-0.800 I-16.224 J2.788 K0.000 F100.000
G2 X87.787 Y45.733 Z-0.800 I-13.051 J18.160 K0.000 F100.000
G2 X83.042 Y46.206 Z-0.800 I1.162 J35.706 K0.000 F100.000
G3 X79.643 Y27.921 Z-0.800 I158.411 J-38.909 K0.000 F100.000
G3 X79.349 Y24.144 Z-0.800 I44.979 J-5.393 K0.000 F100.000
G3 X79.556 Y21.541 Z-0.800 I7.956 J-0.677 K0.000 F100.000
G3 X80.225 Y20.662 Z-0.800 I1.320 J0.310 K0.000 F100.000
G3 X81.505 Y20.884 Z-0.800 I0.432 J1.304 K0.000 F100.000
G3 X82.373 Y21.870 Z-0.800 I-8.591 J8.438 K0.000 F100.000
G2 X83.680 Y23.781 Z-0.800 I3.161 J-0.760 K0.000 F100.000
G2 X87.012 Y23.895 Z-0.800 I1.748 J-2.348 K0.000 F100.000
G2 X88.038 Y21.529 Z-0.800 I-1.514 J-2.062 K0.000 F100.000
G1 X88.038 Y21.529 Z-0.800 F100.000
G3 X88.157 Y20.056 Z-0.800 I3.261 J-0.478 K0.000 F100.000
G3 X89.247 Y19.771 Z-0.800 I0.639 J0.214 K0.000 F100.000
G3 X89.552 Y20.961 Z-0.800 I-1.205 J0.942 K0.000 F100.000
G3 X88.845 Y22.562 Z-0.800 I-3.659 J-0.659 K0.000 F100.000
G3 X87.211 Y24.336 Z-0.800 I-32.176 J-27.985 K0.000 F100.000
G2 X85.681 Y26.270 Z-0.800 I5.368 J5.817 K0.000 F100.000
G2 X85.800 Y31.906 Z-0.800 I4.725 J2.720 K0.000 F100.000
G2 X89.361 Y34.635 Z-0.800 I6.135 J-4.318 K0.000 F100.000
G2 X96.248 Y34.755 Z-0.800 I3.623 J-10.218 K0.000 F100.000
G2 X100.278 Y42.123 Z-0.800 I11.019 J-1.241 K0.000 F100.000
G2 X108.593 Y43.500 Z-0.800 I5.342 J-6.462 K0.000 F100.000
G2 X111.938 Y40.214 Z-0.800 I-2.050 J-5.433 K0.000 F100.000
G2 X112.403 Y36.552 Z-0.800 I-7.732 J-2.842 K0.000 F100.000
G3 X111.997 Y33.665 Z-0.800 I152.621 J-22.949 K0.000 F100.000
G3 X112.162 Y32.985 Z-0.800 I0.713 J-0.187 K0.000 F100.000
G3 X113.358 Y32.667 Z-0.800 I1.188 J2.056 K0.000 F100.000
G2 X114.277 Y32.059 Z-0.800 I-0.040 J-1.060 K0.000 F100.000
G2 X113.785 Y30.263 Z-0.800 I-1.572 J-0.535 K0.000 F100.000
G2 X112.685 Y29.803 Z-0.800 I-1.370 J1.730 K0.000 F100.000
G3 X110.722 Y28.362 Z-0.800 I0.419 J-2.628 K0.000 F100.000
G3 X109.287 Y23.839 Z-0.800 I28.905 J-11.661 K0.000 F100.000
G3 X108.758 Y21.009 Z-0.800 I16.795 J-4.605 K0.000 F100.000
G1 X108.755 Y21.001 Z-0.800 F100.000
G3 X109.200 Y19.291 Z-0.800 I1.977 J-0.399 K0.000 F100.000
G3 X110.951 Y18.969 Z-0.800 I1.196 J1.585 K0.000 F100.000
G3 X112.593 Y19.896 Z-0.800 I-2.676 J6.660 K0.000 F100.000
G2 X113.587 Y20.659 Z-0.800 I8.855 J-10.513 K0.000 F100.000
G2 X118.030 Y27.808 Z-0.800 I12.004 J-2.504 K0.000 F100.000
G2 X128.864 Y29.867 Z-0.800 I7.379 J-9.295 K0.000 F100.000
G2 X133.711 Y25.410 Z-0.800 I-1.711 J-6.725 K0.000 F100.000
G2 X134.112 Y22.968 Z-0.800 I-7.965 J-2.564 K0.000 F100.000
G0 Z5.000
G0 X152.852 Y10.476 Z5.000
G0 X152.852 Y10.476 Z3.000
G1 X152.852 Y10.476 Z-0.800 F100.000
G2 X156.034 Y14.863 Z-0.800 I56.960 J-37.969 K0.000 F100.000
G3 X162.156 Y23.372 Z-0.800 I-57.679 J47.952 K0.000 F100.000
G3 X164.638 Y28.471 Z-0.800 I-26.064 J15.842 K0.000 F100.000
G3 X164.816 Y29.485 Z-0.800 I-2.677 J0.991 K0.000 F100.000
G3 X164.047 Y30.733 Z-0.800 I-1.188 J0.130 K0.000 F100.000
G2 X163.332 Y31.897 Z-0.800 I0.338 J1.009 K0.000 F100.000
G2 X164.256 Y33.055 Z-0.800 I1.612 J-0.339 K0.000 F100.000
G2 X165.620 Y33.539 Z-0.800 I3.063 J-6.460 K0.000 F100.000
G2 X170.118 Y33.385 Z-0.800 I1.941 J-9.075 K0.000 F100.000
G2 X173.118 Y31.614 Z-0.800 I-1.689 J-6.288 K0.000 F100.000
G2 X174.065 Y26.857 Z-0.800 I-3.620 J-3.193 K0.000 F100.000
G2 X172.607 Y23.941 Z-0.800 I-16.597 J6.476 K0.000 F100.000
G2 X168.714 Y18.311 Z-0.800 I-92.710 J59.957 K0.000 F100.000
G3 X162.849 Y10.133 Z-0.800 I126.731 J-97.062 K0.000 F100.000
G3 X160.942 Y6.820 Z-0.800 I21.106 J-14.354 K0.000 F100.000
G3 X160.255 Y4.556 Z-0.800 I5.408 J-2.879 K0.000 F100.000
G3 X160.541 Y3.707 Z-0.800 I0.968 J-0.147 K0.000 F100.000
G3 X161.704 Y3.538 Z-0.800 I0.775 J1.247 K0.000 F100.000
G2 X162.595 Y3.805 Z-0.800 I3.430 J-9.852 K0.000 F100.000
G2 X163.788 Y2.680 Z-0.800 I0.230 J-0.950 K0.000 F100.000
G2 X163.159 Y1.617 Z-0.800 I-2.053 J0.496 K0.000 F100.000
G2 X159.275 Y-0.263 Z-0.800 I-5.785 J7.000 K0.000 F100.000
G2 X153.785 Y0.815 Z-0.800 I-1.510 J6.829 K0.000 F100.000
G2 X151.229 Y6.775 Z-0.800 I3.176 J4.890 K0.000 F100.000
G2 X152.690 Y10.231 Z-0.800 I11.592 J-2.863 K0.000 F100.000
G2 X152.852 Y10.476 Z-0.800 I57.122 J-37.724 K0.000 F100.000
G0 Z5.000
G0 X34.293 Y15.535 Z5.000
G0 X34.293 Y15.535 Z3.000
G1 X34.293 Y15.535 Z-0.800 F100.000
G2 X34.217 Y14.517 Z-0.800 I-16.179 J0.690 K0.000 F100.000
G2 X29.706 Y7.097 Z-0.800 I-9.872 J0.921 K0.000 F100.000
G2 X23.201 Y5.314 Z-0.800 I-6.081 J9.425 K0.000 F100.000
G2 X17.754 Y7.820 Z-0.800 I0.280 J7.782 K0.000 F100.000
G2 X14.068 Y2.299 Z-0.800 I-13.066 J4.733 K0.000 F100.000
G2 X10.801 Y0.492 Z-0.800 I-5.400 J5.907 K0.000 F100.000
G1 X10.066 Y0.325 Z-0.800 F100.000
G2 X5.236 Y1.844 Z-0.800 I-1.057 J5.080 K0.000 F100.000
G2 X3.270 Y5.567 Z-0.800 I7.438 J6.309 K0.000 F100.000
G2 X2.447 Y10.485 Z-0.800 I30.701 J7.662 K0.000 F100.000
G3 X1.731 Y14.285 Z-0.800 I-16.657 J-1.174 K0.000 F100.000
G3 X1.555 Y14.512 Z-0.800 I-0.229 J0.004 K0.000 F100.000
G3 X0.977 Y14.489 Z-0.800 I-0.140 J-3.920 K0.000 F100.000
G2 X-0.086 Y15.014 Z-0.800 I-0.081 J1.175 K0.000 F100.000
G2 X-0.312 Y17.132 Z-0.800 I2.582 J1.346 K0.000 F100.000
G2 X0.098 Y17.694 Z-0.800 I0.903 J-0.228 K0.000 F100.000
G3 X2.137 Y19.114 Z-0.800 I-2.269 J5.434 K0.000 F100.000
G3 X4.213 Y22.865 Z-0.800 I-9.503 J7.710 K0.000 F100.000
G3 X5.116 Y26.157 Z-0.800 I-46.822 J14.613 K0.000 F100.000
G2 X5.872 Y27.415 Z-0.800 I2.490 J-0.639 K0.000 F100.000
G2 X7.493 Y27.526 Z-0.800 I0.878 J-0.929 K0.000 F100.000
G2 X8.168 Y26.395 Z-0.800 I-1.343 J-1.569 K0.000 F100.000
G2 X8.673 Y23.770 Z-0.800 I-38.868 J-8.835 K0.000 F100.000
G3 X9.040 Y21.980 Z-0.800 I8.293 J0.768 K0.000 F100.000
G3 X9.472 Y21.469 Z-0.800 I0.675 J0.132 K0.000 F100.000
G3 X10.526 Y21.670 Z-0.800 I0.136 J2.146 K0.000 F100.000
G2 X11.864 Y21.321 Z-0.800 I0.471 J-0.932 K0.000 F100.000
G2 X12.136 Y19.135 Z-0.800 I-2.672 J-1.443 K0.000 F100.000
G2 X11.385 Y18.194 Z-0.800 I-1.325 J0.287 K0.000 F100.000
G3 X10.310 Y17.369 Z-0.800 I0.424 J-1.666 K0.000 F100.000
G3 X10.219 Y16.414 Z-0.800 I2.406 J-0.711 K0.000 F100.000
G3 X11.191 Y10.640 Z-0.800 I39.279 J3.639 K0.000 F100.000
G3 X12.093 Y8.327 Z-0.800 I6.547 J1.222 K0.000 F100.000
G3 X12.756 Y7.828 Z-0.800 I1.074 J0.737 K0.000 F100.000
G3 X14.499 Y8.297 Z-0.800 I0.404 J1.973 K0.000 F100.000
G3 X16.022 Y10.707 Z-0.800 I-6.988 J6.100 K0.000 F100.000
G2 X16.309 Y19.829 Z-0.800 I11.600 J4.200 K0.000 F100.000
G2 X24.753 Y26.742 Z-0.800 I10.910 J-4.711 K0.000 F100.000
G2 X31.148 Y25.176 Z-0.800 I1.744 J-6.718 K0.000 F100.000
G2 X32.964 Y22.683 Z-0.800 I-5.738 J-6.087 K0.000 F100.000
G2 X34.293 Y15.535 Z-0.800 I-14.850 J-6.458 K0.000 F100.000
G1 X34.293 Y15.535 Z-1.600 F100.000
G2 X34.217 Y14.517 Z-1.600 I-16.179 J0.690 K0.000 F100.000
G2 X29.706 Y7.097 Z-1.600 I-9.872 J0.921 K0.000 F100.000
G2 X23.201 Y5.314 Z-1.600 I-6.081 J9.425 K0.000 F100.000
G2 X17.754 Y7.820 Z-1.600 I0.280 J7.782 K0.000 F100.000
G2 X14.068 Y2.299 Z-1.600 I-13.066 J4.733 K0.000 F100.000
G2 X10.801 Y0.492 Z-1.600 I-5.400 J5.907 K0.000 F100.000
G1 X10.066 Y0.325 Z-1.600 F100.000
G2 X5.236 Y1.844 Z-1.600 I-1.057 J5.080 K0.000 F100.000
G2 X3.270 Y5.567 Z-1.600 I7.438 J6.309 K0.000 F100.000
G2 X2.447 Y10.485 Z-1.600 I30.701 J7.662 K0.000 F100.000
G3 X1.731 Y14.285 Z-1.600 I-16.657 J-1.174 K0.000 F100.000
G3 X1.555 Y14.512 Z-1.600 I-0.229 J0.004 K0.000 F100.000
G3 X0.977 Y14.489 Z-1.600 I-0.140 J-3.920 K0.000 F100.000
G2 X-0.086 Y15.014 Z-1.600 I-0.081 J1.175 K0.000 F100.000
G2 X-0.312 Y17.132 Z-1.600 I2.582 J1.346 K0.000 F100.000
G2 X0.098 Y17.694 Z-1.600 I0.903 J-0.228 K0.000 F100.000
G3 X2.137 Y19.114 Z-1.600 I-2.269 J5.434 K0.000 F100.000
G3 X4.213 Y22.865 Z-1.600 I-9.503 J7.710 K0.000 F100.000
G3 X5.116 Y26.157 Z-1.600 I-46.822 J14.613 K0.000 F100.000
G2 X5.872 Y27.415 Z-1.600 I2.490 J-0.639 K0.000 F100.000
G2 X7.493 Y27.526 Z-1.600 I0.878 J-0.929 K0.000 F100.000
G2 X8.168 Y26.395 Z-1.600 I-1.343 J-1.569 K0.000 F100.000
G2 X8.673 Y23.770 Z-1.600 I-38.868 J-8.835 K0.000 F100.000
G3 X9.040 Y21.980 Z-1.600 I8.293 J0.768 K0.000 F100.000
G3 X9.472 Y21.469 Z-1.600 I0.675 J0.132 K0.000 F100.000
G3 X10.526 Y21.670 Z-1.600 I0.136 J2.146 K0.000 F100.000
G2 X11.864 Y21.321 Z-1.600 I0.471 J-0.932 K0.000 F100.000
G2 X12.136 Y19.135 Z-1.600 I-2.672 J-1.443 K0.000 F100.000
G2 X11.385 Y18.194 Z-1.600 I-1.325 J0.287 K0.000 F100.000
G3 X10.310 Y17.369 Z-1.600 I0.424 J-1.666 K0.000 F100.000
G3 X10.219 Y16.414 Z-1.600 I2.406 J-0.711 K0.000 F100.000
G3 X11.191 Y10.640 Z-1.600 I39.279 J3.639 K0.000 F100.000
G3 X12.093 Y8.327 Z-1.600 I6.547 J1.222 K0.000 F100.000
G3 X12.756 Y7.828 Z-1.600 I1.074 J0.737 K0.000 F100.000
G3 X14.499 Y8.297 Z-1.600 I0.404 J1.973 K0.000 F100.000
G3 X16.022 Y10.707 Z-1.600 I-6.988 J6.100 K0.000 F100.000
G2 X16.309 Y19.829 Z-1.600 I11.600 J4.200 K0.000 F100.000
G2 X24.753 Y26.742 Z-1.600 I10.910 J-4.711 K0.000 F100.000
G2 X31.148 Y25.176 Z-1.600 I1.744 J-6.718 K0.000 F100.000
G2 X32.964 Y22.683 Z-1.600 I-5.738 J-6.087 K0.000 F100.000
G2 X34.293 Y15.535 Z-1.600 I-14.850 J-6.458 K0.000 F100.000
G0 Z5.000
G0 X35.389 Y15.830 Z5.000
G0 X35.389 Y15.830 Z3.000
G1 X35.389 Y15.830 Z-1.600 F100.000
G2 X35.360 Y15.940 Z-1.600 I9.249 J2.492 K0.000 F100.000
G2 X35.328 Y22.987 Z-1.600 I14.976 J3.592 K0.000 F100.000
G2 X38.503 Y28.512 Z-1.600 I10.180 J-2.176 K0.000 F100.000
G2 X44.841 Y31.251 Z-1.600 I7.470 J-8.582 K0.000 F100.000
G2 X48.586 Y30.899 Z-1.600 I0.879 J-10.739 K0.000 F100.000
G3 X49.243 Y30.893 Z-1.600 I0.341 J1.388 K0.000 F100.000
G3 X51.448 Y31.875 Z-1.600 I-5.854 J16.107 K0.000 F100.000
G2 X53.777 Y32.905 Z-1.600 I4.928 J-7.994 K0.000 F100.000
G2 X55.075 Y32.390 Z-1.600 I0.325 J-1.075 K0.000 F100.000
G2 X55.328 Y31.045 Z-1.600 I-3.339 J-1.324 K0.000 F100.000
G3 X55.081 Y26.744 Z-1.600 I168.560 J-11.820 K0.000 F100.000
G3 X55.385 Y20.637 Z-1.600 I25.771 J-1.781 K0.000 F100.000
G3 X55.835 Y19.491 Z-1.600 I2.629 J0.371 K0.000 F100.000
G3 X57.991 Y19.213 Z-1.600 I1.183 J0.675 K0.000 F100.000
G3 X58.901 Y20.563 Z-1.600 I-20.628 J14.890 K0.000 F100.000
G2 X60.155 Y28.089 Z-1.600 I14.358 J1.474 K0.000 F100.000
G2 X64.292 Y32.868 Z-1.600 I9.858 J-4.353 K0.000 F100.000
G2 X70.458 Y34.331 Z-1.600 I5.134 J-7.913 K0.000 F100.000
G2 X72.599 Y33.792 Z-1.600 I-0.617 J-6.964 K0.000 F100.000
G2 X75.194 Y47.573 Z-1.600 I162.759 J-23.511 K0.000 F100.000
G2 X65.906 Y50.894 Z-1.600 I82.669 J245.866 K0.000 F100.000
G3 X54.403 Y54.939 Z-1.600 I-46.839 J-114.819 K0.000 F100.000
G3 X36.208 Y56.840 Z-1.600 I-14.117 J-47.087 K0.000 F100.000
G3 X34.650 Y56.525 Z-1.600 I1.001 J-8.950 K0.000 F100.000
G3 X30.783 Y54.105 Z-1.600 I2.180 J-7.785 K0.000 F100.000
G3 X29.517 Y45.714 Z-1.600 I6.285 J-5.239 K0.000 F100.000
G2 X30.129 Y44.381 Z-1.600 I-6.242 J-3.670 K0.000 F100.000
G2 X29.651 Y42.891 Z-1.600 I-1.200 J-0.437 K0.000 F100.000
G2 X28.522 Y42.806 Z-1.600 I-0.709 J1.878 K0.000 F100.000
G2 X25.889 Y43.861 Z-1.600 I1.983 J8.761 K0.000 F100.000
G2 X20.739 Y49.662 Z-1.600 I7.546 J11.886 K0.000 F100.000
G2 X19.289 Y57.775 Z-1.600 I14.291 J6.741 K0.000 F100.000
G2 X28.950 Y71.038 Z-1.600 I15.487 J-1.132 K0.000 F100.000
G2 X37.455 Y72.348 Z-1.600 I7.234 J-18.703 K0.000 F100.000
G2 X46.241 Y70.399 Z-1.600 I-2.719 J-33.028 K0.000 F100.000
G2 X56.287 Y65.674 Z-1.600 I-27.585 J-71.693 K0.000 F100.000
G2 X67.746 Y58.905 Z-1.600 I-300.182 J-521.299 K0.000 F100.000
G3 X76.611 Y54.242 Z-1.600 I44.324 J73.507 K0.000 F100.000
G2 X79.551 Y63.274 Z-1.600 I50.279 J-11.374 K0.000 F100.000
G2 X83.357 Y69.837 Z-1.600 I27.852 J-11.767 K0.000 F100.000
G2 X87.578 Y73.888 Z-1.600 I14.557 J-10.942 K0.000 F100.000
G2 X98.680 Y76.094 Z-1.600 I8.047 J-11.464 K0.000 F100.000
G2 X105.666 Y70.747 Z-1.600 I-2.143 J-10.038 K0.000 F100.000
G2 X106.937 Y66.889 Z-1.600 I-13.243 J-6.502 K0.000 F100.000
G2 X106.915 Y60.296 Z-1.600 I-20.179 J-3.229 K0.000 F100.000
G2 X100.595 Y49.935 Z-1.600 I-16.224 J2.788 K0.000 F100.000
G2 X87.787 Y45.733 Z-1.600 I-13.051 J18.160 K0.000 F100.000
G2 X83.042 Y46.206 Z-1.600 I1.162 J35.706 K0.000 F100.000
G3 X79.643 Y27.921 Z-1.600 I158.411 J-38.909 K0.000 F100.000
G3 X79.349 Y24.144 Z-1.600 I44.979 J-5.393 K0.000 F100.000
G3 X79.556 Y21.541 Z-1.600 I7.956 J-0.677 K0.000 F100.000
G3 X80.225 Y20.662 Z-1.600 I1.320 J0.310 K0.000 F100.000
G3 X81.505 Y20.884 Z-1.600 I0.432 J1.304 K0.000 F100.000
G3 X82.373 Y21.870 Z-1.600 I-8.591 J8.438 K0.000 F100.000
G2 X83.680 Y23.781 Z-1.600 I3.161 J-0.760 K0.000 F100.000
G2 X87.012 Y23.895 Z-1.600 I1.748 J-2.348 K0.000 F100.000
G2 X88.038 Y21.529 Z-1.600 I-1.514 J-2.062 K0.000 F100.000
G1 X88.038 Y21.529 Z-1.600 F100.000
G3 X88.157 Y20.056 Z-1.600 I3.261 J-0.478 K0.000 F100.000
G3 X89.247 Y19.771 Z-1.600 I0.639 J0.214 K0.000 F100.000
G3 X89.552 Y20.961 Z-1.600 I-1.205 J0.942 K0.000 F100.000
G3 X88.845 Y22.562 Z-1.600 I-3.659 J-0.659 K0.000 F100.000
G3 X87.211 Y24.336 Z-1.600 I-32.176 J-27.985 K0.000 F100.000
G2 X85.681 Y26.270 Z-1.600 I5.368 J5.817 K0.000 F100.000
G2 X85.800 Y31.906 Z-1.600 I4.725 J2.720 K0.000 F100.000
G2 X89.361 Y34.635 Z-1.600 I6.135 J-4.318 K0.000 F100.000
G2 X96.248 Y34.755 Z-1.600 I3.623 J-10.218 K0.000 F100.000
G2 X100.278 Y42.123 Z-1.600 I11.019 J-1.241 K0.000 F100.000
G2 X108.593 Y43.500 Z-1.600 I5.342 J-6.462 K0.000 F100.000
G2 X111.938 Y40.214 Z-1.600 I-2.050 J-5.433 K0.000 F100.000
G2 X112.403 Y36.552 Z-1.600 I-7.732 J-2.842 K0.000 F100.000
G3 X111.997 Y33.665 Z-1.600 I152.621 J-22.949 K0.000 F100.000
G3 X112.162 Y32.985 Z-1.600 I0.713 J-0.187 K0.000 F100.000
G3 X113.358 Y32.667 Z-1.600 I1.188 J2.056 K0.000 F100.000
G2 X114.277 Y32.059 Z-1.600 I-0.040 J-1.060 K0.000 F100.000
G2 X113.785 Y30.263 Z-1.600 I-1.572 J-0.535 K0.000 F100.000
G2 X112.685 Y29.803 Z-1.600 I-1.370 J1.730 K0.000 F100.000
G3 X110.722 Y28.362 Z-1.600 I0.419 J-2.628 K0.000 F100.000
G3 X109.287 Y23.839 Z-1.600 I28.905 J-11.661 K0.000 F100.000
G3 X108.758 Y21.009 Z-1.600 I16.795 J-4.605 K0.000 F100.000
G1 X108.755 Y21.001 Z-1.600 F100.000
G3 X109.200 Y19.291 Z-1.600 I1.977 J-0.399 K0.000 F100.000
G3 X110.951 Y18.969 Z-1.600 I1.196 J1.585 K0.000 F100.000
G3 X112.593 Y19.896 Z-1.600 I-2.676 J6.660 K0.000 F100.000
G2 X113.587 Y20.659 Z-1.600 I8.855 J-10.513 K0.000 F100.000
G2 X118.030 Y27.808 Z-1.600 I12.004 J-2.504 K0.000 F100.000
G2 X128.864 Y29.867 Z-1.600 I7.379 J-9.295 K0.000 F100.000
G2 X133.711 Y25.410 Z-1.600 I-1.711 J-6.725 K0.000 F100.000
G2 X134.099 Y22.351 Z-1.600 I-7.965 J-2.564 K0.000 F100.000
G2 X131.258 Y14.596 Z-1.600 I-16.113 J1.504 K0.000 F100.000
G2 X124.693 Y10.380 Z-1.600 I-8.284 J5.681 K0.000 F100.000
G2 X118.681 Y11.082 Z-1.600 I-1.708 J11.474 K0.000 F100.000
G2 X113.516 Y16.968 Z-1.600 I2.788 J7.655 K0.000 F100.000
G2 X108.958 Y14.088 Z-1.600 I-9.594 J10.136 K0.000 F100.000
G2 X103.513 Y13.695 Z-1.600 I-3.283 J7.571 K0.000 F100.000
G2 X99.812 Y17.149 Z-1.600 I1.238 J5.037 K0.000 F100.000
G2 X99.651 Y21.385 Z-1.600 I9.530 J2.484 K0.000 F100.000
G2 X101.052 Y26.308 Z-1.600 I33.636 J-6.912 K0.000 F100.000
G3 X101.930 Y29.616 Z-1.600 I-15.329 J5.840 K0.000 F100.000
G3 X101.960 Y30.217 Z-1.600 I-1.309 J0.366 K0.000 F100.000
G3 X101.478 Y30.808 Z-1.600 I-1.146 J-0.443 K0.000 F100.000
G2 X101.278 Y33.303 Z-1.600 I0.712 J1.313 K0.000 F100.000
G3 X103.040 Y34.535 Z-1.600 I-3.173 J6.412 K0.000 F100.000
G3 X104.655 Y38.361 Z-1.600 I-3.764 J3.843 K0.000 F100.000
G3 X104.041 Y39.223 Z-1.600 I-0.874 J0.027 K0.000 F100.000
G3 X102.244 Y38.833 Z-1.600 I-0.377 J-2.594 K0.000 F100.000
G3 X100.415 Y36.607 Z-1.600 I3.093 J-4.407 K0.000 F100.000
G3 X99.761 Y33.113 Z-1.600 I8.020 J-3.309 K0.000 F100.000
G2 X99.820 Y30.618 Z-1.600 I-36.932 J-2.112 K0.000 F100.000
G2 X99.069 Y28.036 Z-1.600 I-3.984 J-0.242 K0.000 F100.000
G2 X95.341 Y27.389 Z-1.600 I-2.203 J1.629 K0.000 F100.000
G2 X94.467 Y29.285 Z-1.600 I1.102 J1.657 K0.000 F100.000
G2 X94.905 Y30.606 Z-1.600 I5.284 J-1.019 K0.000 F100.000
G3 X95.041 Y31.132 Z-1.600 I-0.729 J0.469 K0.000 F100.000
G3 X94.223 Y31.533 Z-1.600 I-0.639 J-0.269 K0.000 F100.000
G3 X93.192 Y30.265 Z-1.600 I0.627 J-1.564 K0.000 F100.000
G3 X93.806 Y27.899 Z-1.600 I3.140 J-0.448 K0.000 F100.000
G3 X95.190 Y26.496 Z-1.600 I7.596 J6.112 K0.000 F100.000
G2 X97.163 Y24.640 Z-1.600 I-13.480 J-16.301 K0.000 F100.000
G2 X98.458 Y21.400 Z-1.600 I-3.682 J-3.350 K0.000 F100.000
G2 X95.076 Y15.710 Z-1.600 I-6.636 J0.094 K0.000 F100.000
G2 X89.272 Y14.621 Z-1.600 I-4.749 J9.297 K0.000 F100.000
G2 X85.237 Y15.806 Z-1.600 I0.762 J10.054 K0.000 F100.000
G2 X82.951 Y17.881 Z-1.600 I2.677 J5.246 K0.000 F100.000
G2 X80.143 Y15.584 Z-1.600 I-7.240 J5.985 K0.000 F100.000
G2 X76.772 Y14.569 Z-1.600 I-3.927 J6.938 K0.000 F100.000
G2 X72.202 Y17.076 Z-1.600 I-0.340 J4.799 K0.000 F100.000
G2 X68.583 Y14.598 Z-1.600 I-7.670 J7.321 K0.000 F100.000
G2 X64.261 Y13.983 Z-1.600 I-3.203 J7.023 K0.000 F100.000
G2 X60.028 Y16.787 Z-1.600 I0.721 J5.686 K0.000 F100.000
G2 X57.225 Y13.768 Z-1.600 I-8.494 J5.075 K0.000 F100.000
G2 X54.022 Y12.377 Z-1.600 I-4.604 J6.219 K0.000 F100.000
G1 X54.021 Y12.382 Z-1.600 F100.000
G1 X53.989 Y12.371 Z-1.600 F100.000
G2 X52.820 Y12.304 Z-1.600 I-0.862 J4.821 K0.000 F100.000
G2 X49.042 Y14.374 Z-1.600 I0.427 J5.262 K0.000 F100.000
G2 X42.530 Y10.317 Z-1.600 I-7.277 J4.427 K0.000 F100.000
G2 X36.823 Y12.784 Z-1.600 I-0.665 J6.296 K0.000 F100.000
G2 X35.389 Y15.830 Z-1.600 I7.815 J5.539 K0.000 F100.000
G0 Z5.000
G0 X132.811 Y13.770 Z5.000
G0 X132.811 Y13.770 Z3.000
G1 X132.811 Y13.770 Z-1.600 F100.000
G2 X132.833 Y14.215 Z-1.600 I7.913 J-0.167 K0.000 F100.000
G2 X138.349 Y23.030 Z-1.600 I12.097 J-1.438 K0.000 F100.000
G2 X149.409 Y24.048 Z-1.600 I6.488 J-9.906 K0.000 F100.000
G2 X153.786 Y19.127 Z-1.600 I-2.378 J-6.522 K0.000 F100.000
G2 X153.865 Y16.046 Z-1.600 I-8.174 J-1.754 K0.000 F100.000
G2 X150.961 Y9.492 Z-1.600 I-15.670 J3.024 K0.000 F100.000
G2 X144.190 Y5.168 Z-1.600 I-8.525 J5.886 K0.000 F100.000
G2 X136.676 Y6.802 Z-1.600 I-1.502 J11.188 K0.000 F100.000
G2 X132.811 Y13.770 Z-1.600 I4.048 J6.801 K0.000 F100.000
G0 Z5.000
G0 X151.477 Y7.638 Z5.000
G0 X151.477 Y7.638 Z3.000
G1 X151.477 Y7.638 Z-1.600 F100.000
G2 X152.690 Y10.231 Z-1.600 I11.344 J-3.726 K0.000 F100.000
G2 X156.034 Y14.863 Z-1.600 I57.122 J-37.724 K0.000 F100.000
G3 X162.156 Y23.372 Z-1.600 I-57.679 J47.952 K0.000 F100.000
G3 X164.638 Y28.471 Z-1.600 I-26.064 J15.842 K0.000 F100.000
G3 X164.816 Y29.485 Z-1.600 I-2.677 J0.991 K0.000 F100.000
G3 X164.047 Y30.733 Z-1.600 I-1.188 J0.130 K0.000 F100.000
G2 X163.332 Y31.897 Z-1.600 I0.338 J1.009 K0.000 F100.000
G2 X164.256 Y33.055 Z-1.600 I1.612 J-0.339 K0.000 F100.000
G2 X165.620 Y33.539 Z-1.600 I3.063 J-6.460 K0.000 F100.000
G2 X170.118 Y33.385 Z-1.600 I1.941 J-9.075 K0.000 F100.000
G2 X173.118 Y31.614 Z-1.600 I-1.689 J-6.288 K0.000 F100.000
G2 X174.065 Y26.857 Z-1.600 I-3.620 J-3.193 K0.000 F100.000
G2 X172.607 Y23.941 Z-1.600 I-16.597 J6.476 K0.000 F100.000
G2 X168.714 Y18.311 Z-1.600 I-92.710 J59.957 K0.000 F100.000
G3 X162.849 Y10.133 Z-1.600 I126.731 J-97.062 K0.000 F100.000
G3 X160.942 Y6.820 Z-1.600 I21.106 J-14.354 K0.000 F100.000
G3 X160.255 Y4.556 Z-1.600 I5.408 J-2.879 K0.000 F100.000
G3 X160.541 Y3.707 Z-1.600 I0.968 J-0.147 K0.000 F100.000
G3 X161.704 Y3.538 Z-1.600 I0.775 J1.247 K0.000 F100.000
G2 X162.595 Y3.805 Z-1.600 I3.430 J-9.852 K0.000 F100.000
G2 X163.788 Y2.680 Z-1.600 I0.230 J-0.950 K0.000 F100.000
G2 X163.159 Y1.617 Z-1.600 I-2.053 J0.496 K0.000 F100.000
G2 X159.275 Y-0.263 Z-1.600 I-5.785 J7.000 K0.000 F100.000
G2 X153.785 Y0.815 Z-1.600 I-1.510 J6.829 K0.000 F100.000
G2 X151.229 Y6.775 Z-1.600 I3.176 J4.890 K0.000 F100.000
G2 X151.477 Y7.638 Z-1.600 I11.592 J-2.863 K0.000 F100.000
G1 X151.477 Y7.638 Z-2.400 F100.000
G2 X152.690 Y10.231 Z-2.400 I11.344 J-3.726 K0.000 F100.000
G2 X156.034 Y14.863 Z-2.400 I57.122 J-37.724 K0.000 F100.000
G3 X162.156 Y23.372 Z-2.400 I-57.679 J47.952 K0.000 F100.000
G3 X164.638 Y28.471 Z-2.400 I-26.064 J15.842 K0.000 F100.000
G3 X164.816 Y29.485 Z-2.400 I-2.677 J0.991 K0.000 F100.000
G3 X164.047 Y30.733 Z-2.400 I-1.188 J0.130 K0.000 F100.000
G2 X163.332 Y31.897 Z-2.400 I0.338 J1.009 K0.000 F100.000
G2 X164.256 Y33.055 Z-2.400 I1.612 J-0.339 K0.000 F100.000
G2 X165.620 Y33.539 Z-2.400 I3.063 J-6.460 K0.000 F100.000
G2 X170.118 Y33.385 Z-2.400 I1.941 J-9.075 K0.000 F100.000
G2 X173.118 Y31.614 Z-2.400 I-1.689 J-6.288 K0.000 F100.000
G2 X174.065 Y26.857 Z-2.400 I-3.620 J-3.193 K0.000 F100.000
G2 X172.607 Y23.941 Z-2.400 I-16.597 J6.476 K0.000 F100.000
G2 X168.714 Y18.311 Z-2.400 I-92.710 J59.957 K0.000 F100.000
G3 X162.849 Y10.133 Z-2.400 I126.731 J-97.062 K0.000 F100.000
G3 X160.942 Y6.820 Z-2.400 I21.106 J-14.354 K0.000 F100.000
G3 X160.255 Y4.556 Z-2.400 I5.408 J-2.879 K0.000 F100.000
G3 X160.541 Y3.707 Z-2.400 I0.968 J-0.147 K0.000 F100.000
G3 X161.704 Y3.538 Z-2.400 I0.775 J1.247 K0.000 F100.000
G2 X162.595 Y3.805 Z-2.400 I3.430 J-9.852 K0.000 F100.000
G2 X163.788 Y2.680 Z-2.400 I0.230 J-0.950 K0.000 F100.000
G2 X163.159 Y1.617 Z-2.400 I-2.053 J0.496 K0.000 F100.000
G2 X159.275 Y-0.263 Z-2.400 I-5.785 J7.000 K0.000 F100.000
G2 X153.785 Y0.815 Z-2.400 I-1.510 J6.829 K0.000 F100.000
G2 X151.229 Y6.775 Z-2.400 I3.176 J4.890 K0.000 F100.000
G2 X151.477 Y7.638 Z-2.400 I11.592 J-2.863 K0.000 F100.000
G0 Z5.000
G0 X150.306 Y8.641 Z5.000
G0 X150.306 Y8.641 Z3.000
G1 X150.306 Y8.641 Z-2.400 F100.000
G2 X144.190 Y5.168 Z-2.400 I-7.869 J6.737 K0.000 F100.000
G2 X136.676 Y6.802 Z-2.400 I-1.502 J11.188 K0.000 F100.000
G2 X132.833 Y14.215 Z-2.400 I4.048 J6.801 K0.000 F100.000
G2 X138.349 Y23.030 Z-2.400 I12.097 J-1.438 K0.000 F100.000
G2 X149.409 Y24.048 Z-2.400 I6.488 J-9.906 K0.000 F100.000
G2 X153.786 Y19.127 Z-2.400 I-2.378 J-6.522 K0.000 F100.000
G2 X153.865 Y16.046 Z-2.400 I-8.174 J-1.754 K0.000 F100.000
G2 X150.961 Y9.492 Z-2.400 I-15.670 J3.024 K0.000 F100.000
G2 X150.306 Y8.641 Z-2.400 I-8.525 J5.886 K0.000 F100.000
G0 Z5.000
G0 X132.628 Y16.963 Z5.000
G0 X132.628 Y16.963 Z3.000
G1 X132.628 Y16.963 Z-2.400 F100.000
G2 X131.258 Y14.596 Z-2.400 I-14.642 J6.892 K0.000 F100.000
G2 X124.693 Y10.380 Z-2.400 I-8.284 J5.681 K0.000 F100.000
G2 X118.681 Y11.082 Z-2.400 I-1.708 J11.474 K0.000 F100.000
G2 X113.516 Y16.968 Z-2.400 I2.788 J7.655 K0.000 F100.000
G2 X108.958 Y14.088 Z-2.400 I-9.594 J10.136 K0.000 F100.000
G2 X103.513 Y13.695 Z-2.400 I-3.283 J7.571 K0.000 F100.000
G2 X99.812 Y17.149 Z-2.400 I1.238 J5.037 K0.000 F100.000
G2 X99.651 Y21.385 Z-2.400 I9.530 J2.484 K0.000 F100.000
G2 X101.052 Y26.308 Z-2.400 I33.636 J-6.912 K0.000 F100.000
G3 X101.930 Y29.616 Z-2.400 I-15.329 J5.840 K0.000 F100.000
G3 X101.960 Y30.217 Z-2.400 I-1.309 J0.366 K0.000 F100.000
G3 X101.478 Y30.808 Z-2.400 I-1.146 J-0.443 K0.000 F100.000
G2 X101.278 Y33.303 Z-2.400 I0.712 J1.313 K0.000 F100.000
G3 X103.040 Y34.535 Z-2.400 I-3.173 J6.412 K0.000 F100.000
G3 X104.655 Y38.361 Z-2.400 I-3.764 J3.843 K0.000 F100.000
G3 X104.041 Y39.223 Z-2.400 I-0.874 J0.027 K0.000 F100.000
G3 X102.244 Y38.833 Z-2.400 I-0.377 J-2.594 K0.000 F100.000
G3 X100.415 Y36.607 Z-2.400 I3.093 J-4.407 K0.000 F100.000
G3 X99.761 Y33.113 Z-2.400 I8.020 J-3.309 K0.000 F100.000
G2 X99.820 Y30.618 Z-2.400 I-36.932 J-2.112 K0.000 F100.000
G2 X99.069 Y28.036 Z-2.400 I-3.984 J-0.242 K0.000 F100.000
G2 X95.341 Y27.389 Z-2.400 I-2.203 J1.629 K0.000 F100.000
G2 X94.467 Y29.285 Z-2.400 I1.102 J1.657 K0.000 F100.000
G2 X94.905 Y30.606 Z-2.400 I5.284 J-1.019 K0.000 F100.000
G3 X95.041 Y31.132 Z-2.400 I-0.729 J0.469 K0.000 F100.000
G3 X94.223 Y31.533 Z-2.400 I-0.639 J-0.269 K0.000 F100.000
G3 X93.192 Y30.265 Z-2.400 I0.627 J-1.564 K0.000 F100.000
G3 X93.806 Y27.899 Z-2.400 I3.140 J-0.448 K0.000 F100.000
G3 X95.190 Y26.496 Z-2.400 I7.596 J6.112 K0.000 F100.000
G2 X97.163 Y24.640 Z-2.400 I-13.480 J-16.301 K0.000 F100.000
G2 X98.458 Y21.400 Z-2.400 I-3.682 J-3.350 K0.000 F100.000
G2 X95.076 Y15.710 Z-2.400 I-6.636 J0.094 K0.000 F100.000
G2 X89.272 Y14.621 Z-2.400 I-4.749 J9.297 K0.000 F100.000
G2 X85.237 Y15.806 Z-2.400 I0.762 J10.054 K0.000 F100.000
G2 X82.951 Y17.881 Z-2.400 I2.677 J5.246 K0.000 F100.000
G2 X80.143 Y15.584 Z-2.400 I-7.240 J5.985 K0.000 F100.000
G2 X76.772 Y14.569 Z-2.400 I-3.927 J6.938 K0.000 F100.000
G2 X72.202 Y17.076 Z-2.400 I-0.340 J4.799 K0.000 F100.000
G2 X68.583 Y14.598 Z-2.400 I-7.670 J7.321 K0.000 F100.000
G2 X64.261 Y13.983 Z-2.400 I-3.203 J7.023 K0.000 F100.000
G2 X60.028 Y16.787 Z-2.400 I0.721 J5.686 K0.000 F100.000
G2 X57.225 Y13.768 Z-2.400 I-8.494 J5.075 K0.000 F100.000
G2 X54.022 Y12.377 Z-2.400 I-4.604 J6.219 K0.000 F100.000
G1 X54.021 Y12.382 Z-2.400 F100.000
G1 X53.989 Y12.371 Z-2.400 F100.000
G2 X52.820 Y12.304 Z-2.400 I-0.862 J4.821 K0.000 F100.000
G2 X49.042 Y14.374 Z-2.400 I0.427 J5.262 K0.000 F100.000
G2 X42.530 Y10.317 Z-2.400 I-7.277 J4.427 K0.000 F100.000
G2 X36.823 Y12.784 Z-2.400 I-0.665 J6.296 K0.000 F100.000
G2 X35.360 Y15.940 Z-2.400 I7.815 J5.539 K0.000 F100.000
G2 X35.328 Y22.987 Z-2.400 I14.976 J3.592 K0.000 F100.000
G2 X38.503 Y28.512 Z-2.400 I10.180 J-2.176 K0.000 F100.000
G2 X44.841 Y31.251 Z-2.400 I7.470 J-8.582 K0.000 F100.000
G2 X48.586 Y30.899 Z-2.400 I0.879 J-10.739 K0.000 F100.000
G3 X49.243 Y30.893 Z-2.400 I0.341 J1.388 K0.000 F100.000
G3 X51.448 Y31.875 Z-2.400 I-5.854 J16.107 K0.000 F100.000
G2 X53.777 Y32.905 Z-2.400 I4.928 J-7.994 K0.000 F100.000
G2 X55.075 Y32.390 Z-2.400 I0.325 J-1.075 K0.000 F100.000
G2 X55.328 Y31.045 Z-2.400 I-3.339 J-1.324 K0.000 F100.000
G3 X55.081 Y26.744 Z-2.400 I168.560 J-11.820 K0.000 F100.000
G3 X55.385 Y20.637 Z-2.400 I25.771 J-1.781 K0.000 F100.000
G3 X55.835 Y19.491 Z-2.400 I2.629 J0.371 K0.000 F100.000
G3 X57.991 Y19.213 Z-2.400 I1.183 J0.675 K0.000 F100.000
G3 X58.901 Y20.563 Z-2.400 I-20.628 J14.890 K0.000 F100.000
G2 X60.155 Y28.089 Z-2.400 I14.358 J1.474 K0.000 F100.000
G2 X64.292 Y32.868 Z-2.400 I9.858 J-4.353 K0.000 F100.000
G2 X70.458 Y34.331 Z-2.400 I5.134 J-7.913 K0.000 F100.000
G2 X72.599 Y33.792 Z-2.400 I-0.617 J-6.964 K0.000 F100.000
G2 X75.194 Y47.573 Z-2.400 I162.759 J-23.511 K0.000 F100.000
G2 X65.906 Y50.894 Z-2.400 I82.669 J245.866 K0.000 F100.000
G3 X54.403 Y54.939 Z-2.400 I-46.839 J-114.819 K0.000 F100.000
G3 X36.208 Y56.840 Z-2.400 I-14.117 J-47.087 K0.000 F100.000
G3 X34.650 Y56.525 Z-2.400 I1.001 J-8.950 K0.000 F100.000
G3 X30.783 Y54.105 Z-2.400 I2.180 J-7.785 K0.000 F100.000
G3 X29.517 Y45.714 Z-2.400 I6.285 J-5.239 K0.000 F100.000
G2 X30.129 Y44.381 Z-2.400 I-6.242 J-3.670 K0.000 F100.000
G2 X29.651 Y42.891 Z-2.400 I-1.200 J-0.437 K0.000 F100.000
G2 X28.522 Y42.806 Z-2.400 I-0.709 J1.878 K0.000 F100.000
G2 X25.889 Y43.861 Z-2.400 I1.983 J8.761 K0.000 F100.000
G2 X20.739 Y49.662 Z-2.400 I7.546 J11.886 K0.000 F100.000
G2 X19.289 Y57.775 Z-2.400 I14.291 J6.741 K0.000 F100.000
G2 X28.950 Y71.038 Z-2.400 I15.487 J-1.132 K0.000 F100.000
G2 X37.455 Y72.348 Z-2.400 I7.234 J-18.703 K0.000 F100.000
G2 X46.241 Y70.399 Z-2.400 I-2.719 J-33.028 K0.000 F100.000
G2 X56.287 Y65.674 Z-2.400 I-27.585 J-71.693 K0.000 F100.000
G2 X67.746 Y58.905 Z-2.400 I-300.182 J-521.299 K0.000 F100.000
G3 X76.611 Y54.242 Z-2.400 I44.324 J73.507 K0.000 F100.000
G2 X79.551 Y63.274 Z-2.400 I50.279 J-11.374 K0.000 F100.000
G2 X83.357 Y69.837 Z-2.400 I27.852 J-11.767 K0.000 F100.000
G2 X87.578 Y73.888 Z-2.400 I14.557 J-10.942 K0.000 F100.000
G2 X98.680 Y76.094 Z-2.400 I8.047 J-11.464 K0.000 F100.000
G2 X105.666 Y70.747 Z-2.400 I-2.143 J-10.038 K0.000 F100.000
G2 X106.937 Y66.889 Z-2.400 I-13.243 J-6.502 K0.000 F100.000
G2 X106.915 Y60.296 Z-2.400 I-20.179 J-3.229 K0.000 F100.000
G2 X100.595 Y49.935 Z-2.400 I-16.224 J2.788 K0.000 F100.000
G2 X87.787 Y45.733 Z-2.400 I-13.051 J18.160 K0.000 F100.000
G2 X83.042 Y46.206 Z-2.400 I1.162 J35.706 K0.000 F100.000
G3 X79.643 Y27.921 Z-2.400 I158.411 J-38.909 K0.000 F100.000
G3 X79.349 Y24.144 Z-2.400 I44.979 J-5.393 K0.000 F100.000
G3 X79.556 Y21.541 Z-2.400 I7.956 J-0.677 K0.000 F100.000
G3 X80.225 Y20.662 Z-2.400 I1.320 J0.310 K0.000 F100.000
G3 X81.505 Y20.884 Z-2.400 I0.432 J1.304 K0.000 F100.000
G3 X82.373 Y21.870 Z-2.400 I-8.591 J8.438 K0.000 F100.000
G2 X83.680 Y23.781 Z-2.400 I3.161 J-0.760 K0.000 F100.000
G2 X87.012 Y23.895 Z-2.400 I1.748 J-2.348 K0.000 F100.000
G2 X88.038 Y21.529 Z-2.400 I-1.514 J-2.062 K0.000 F100.000
G1 X88.038 Y21.529 Z-2.400 F100.000
G3 X88.157 Y20.056 Z-2.400 I3.261 J-0.478 K0.000 F100.000
G3 X89.247 Y19.771 Z-2.400 I0.639 J0.214 K0.000 F100.000
G3 X89.552 Y20.961 Z-2.400 I-1.205 J0.942 K0.000 F100.000
G3 X88.845 Y22.562 Z-2.400 I-3.659 J-0.659 K0.000 F100.000
G3 X87.211 Y24.336 Z-2.400 I-32.176 J-27.985 K0.000 F100.000
G2 X85.681 Y26.270 Z-2.400 I5.368 J5.817 K0.000 F100.000
G2 X85.800 Y31.906 Z-2.400 I4.725 J2.720 K0.000 F100.000
G2 X89.361 Y34.635 Z-2.400 I6.135 J-4.318 K0.000 F100.000
G2 X96.248 Y34.755 Z-2.400 I3.623 J-10.218 K0.000 F100.000
G2 X100.278 Y42.123 Z-2.400 I11.019 J-1.241 K0.000 F100.000
G2 X108.593 Y43.500 Z-2.400 I5.342 J-6.462 K0.000 F100.000
G2 X111.938 Y40.214 Z-2.400 I-2.050 J-5.433 K0.000 F100.000
G2 X112.403 Y36.552 Z-2.400 I-7.732 J-2.842 K0.000 F100.000
G3 X111.997 Y33.665 Z-2.400 I152.621 J-22.949 K0.000 F100.000
G3 X112.162 Y32.985 Z-2.400 I0.713 J-0.187 K0.000 F100.000
G3 X113.358 Y32.667 Z-2.400 I1.188 J2.056 K0.000 F100.000
G2 X114.277 Y32.059 Z-2.400 I-0.040 J-1.060 K0.000 F100.000
G2 X113.785 Y30.263 Z-2.400 I-1.572 J-0.535 K0.000 F100.000
G2 X112.685 Y29.803 Z-2.400 I-1.370 J1.730 K0.000 F100.000
G3 X110.722 Y28.362 Z-2.400 I0.419 J-2.628 K0.000 F100.000
G3 X109.287 Y23.839 Z-2.400 I28.905 J-11.661 K0.000 F100.000
G3 X108.758 Y21.009 Z-2.400 I16.795 J-4.605 K0.000 F100.000
G1 X108.755 Y21.001 Z-2.400 F100.000
G3 X109.200 Y19.291 Z-2.400 I1.977 J-0.399 K0.000 F100.000
G3 X110.951 Y18.969 Z-2.400 I1.196 J1.585 K0.000 F100.000
G3 X112.593 Y19.896 Z-2.400 I-2.676 J6.660 K0.000 F100.000
G2 X113.587 Y20.659 Z-2.400 I8.855 J-10.513 K0.000 F100.000
G2 X118.030 Y27.808 Z-2.400 I12.004 J-2.504 K0.000 F100.000
G2 X128.864 Y29.867 Z-2.400 I7.379 J-9.295 K0.000 F100.000
G2 X133.711 Y25.410 Z-2.400 I-1.711 J-6.725 K0.000 F100.000
G2 X134.099 Y22.351 Z-2.400 I-7.965 J-2.564 K0.000 F100.000
G2 X132.628 Y16.963 Z-2.400 I-16.113 J1.504 K0.000 F100.000
G0 Z5.000
G0 X34.307 Y16.329 Z5.000
G0 X34.307 Y16.329 Z3.000
G1 X34.307 Y16.329 Z-2.400 F100.000
G2 X34.217 Y14.517 Z-2.400 I-16.194 J-0.104 K0.000 F100.000
G2 X29.706 Y7.097 Z-2.400 I-9.872 J0.921 K0.000 F100.000
G2 X23.201 Y5.314 Z-2.400 I-6.081 J9.425 K0.000 F100.000
G2 X17.754 Y7.820 Z-2.400 I0.280 J7.782 K0.000 F100.000
G2 X14.068 Y2.299 Z-2.400 I-13.066 J4.733 K0.000 F100.000
G2 X10.801 Y0.492 Z-2.400 I-5.400 J5.907 K0.000 F100.000
G1 X10.066 Y0.325 Z-2.400 F100.000
G2 X5.236 Y1.844 Z-2.400 I-1.057 J5.080 K0.000 F100.000
G2 X3.270 Y5.567 Z-2.400 I7.438 J6.309 K0.000 F100.000
G2 X2.447 Y10.485 Z-2.400 I30.701 J7.662 K0.000 F100.000
G3 X1.731 Y14.285 Z-2.400 I-16.657 J-1.174 K0.000 F100.000
G3 X1.555 Y14.512 Z-2.400 I-0.229 J0.004 K0.000 F100.000
G3 X0.977 Y14.489 Z-2.400 I-0.140 J-3.920 K0.000 F100.000
G2 X-0.086 Y15.014 Z-2.400 I-0.081 J1.175 K0.000 F100.000
G2 X-0.312 Y17.132 Z-2.400 I2.582 J1.346 K0.000 F100.000
G2 X0.098 Y17.694 Z-2.400 I0.903 J-0.228 K0.000 F100.000
G3 X2.137 Y19.114 Z-2.400 I-2.269 J5.434 K0.000 F100.000
G3 X4.213 Y22.865 Z-2.400 I-9.503 J7.710 K0.000 F100.000
G3 X5.116 Y26.157 Z-2.400 I-46.822 J14.613 K0.000 F100.000
G2 X5.872 Y27.415 Z-2.400 I2.490 J-0.639 K0.000 F100.000
G2 X7.493 Y27.526 Z-2.400 I0.878 J-0.929 K0.000 F100.000
G2 X8.168 Y26.395 Z-2.400 I-1.343 J-1.569 K0.000 F100.000
G2 X8.673 Y23.770 Z-2.400 I-38.868 J-8.835 K0.000 F100.000
G3 X9.040 Y21.980 Z-2.400 I8.293 J0.768 K0.000 F100.000
G3 X9.472 Y21.469 Z-2.400 I0.675 J0.132 K0.000 F100.000
G3 X10.526 Y21.670 Z-2.400 I0.136 J2.146 K0.000 F100.000
G2 X11.864 Y21.321 Z-2.400 I0.471 J-0.932 K0.000 F100.000
G2 X12.136 Y19.135 Z-2.400 I-2.672 J-1.443 K0.000 F100.000
G2 X11.385 Y18.194 Z-2.400 I-1.325 J0.287 K0.000 F100.000
G3 X10.310 Y17.369 Z-2.400 I0.424 J-1.666 K0.000 F100.000
G3 X10.219 Y16.414 Z-2.400 I2.406 J-0.711 K0.000 F100.000
G3 X11.191 Y10.640 Z-2.400 I39.279 J3.639 K0.000 F100.000
G3 X12.093 Y8.327 Z-2.400 I6.547 J1.222 K0.000 F100.000
G3 X12.756 Y7.828 Z-2.400 I1.074 J0.737 K0.000 F100.000
G3 X14.499 Y8.297 Z-2.400 I0.404 J1.973 K0.000 F100.000
G3 X16.022 Y10.707 Z-2.400 I-6.988 J6.100 K0.000 F100.000
G2 X16.309 Y19.829 Z-2.400 I11.600 J4.200 K0.000 F100.000
G2 X24.753 Y26.742 Z-2.400 I10.910 J-4.711 K0.000 F100.000
G2 X31.148 Y25.176 Z-2.400 I1.744 J-6.718 K0.000 F100.000
G2 X32.964 Y22.683 Z-2.400 I-5.738 J-6.087 K0.000 F100.000
G2 X34.307 Y16.329 Z-2.400 I-14.850 J-6.458 K0.000 F100.000
G1 X34.307 Y16.329 Z-3.200 F100.000
G2 X34.217 Y14.517 Z-3.200 I-16.194 J-0.104 K0.000 F100.000
G2 X29.706 Y7.097 Z-3.200 I-9.872 J0.921 K0.000 F100.000
G2 X23.201 Y5.314 Z-3.200 I-6.081 J9.425 K0.000 F100.000
G2 X17.754 Y7.820 Z-3.200 I0.280 J7.782 K0.000 F100.000
G2 X14.068 Y2.299 Z-3.200 I-13.066 J4.733 K0.000 F100.000
G2 X10.801 Y0.492 Z-3.200 I-5.400 J5.907 K0.000 F100.000
G1 X10.066 Y0.325 Z-3.200 F100.000
G2 X5.236 Y1.844 Z-3.200 I-1.057 J5.080 K0.000 F100.000
G2 X3.270 Y5.567 Z-3.200 I7.438 J6.309 K0.000 F100.000
G2 X2.447 Y10.485 Z-3.200 I30.701 J7.662 K0.000 F100.000
G3 X1.731 Y14.285 Z-3.200 I-16.657 J-1.174 K0.000 F100.000
G3 X1.555 Y14.512 Z-3.200 I-0.229 J0.004 K0.000 F100.000
G3 X0.977 Y14.489 Z-3.200 I-0.140 J-3.920 K0.000 F100.000
G2 X-0.086 Y15.014 Z-3.200 I-0.081 J1.175 K0.000 F100.000
G2 X-0.312 Y17.132 Z-3.200 I2.582 J1.346 K0.000 F100.000
G2 X0.098 Y17.694 Z-3.200 I0.903 J-0.228 K0.000 F100.000
G3 X2.137 Y19.114 Z-3.200 I-2.269 J5.434 K0.000 F100.000
G3 X4.213 Y22.865 Z-3.200 I-9.503 J7.710 K0.000 F100.000
G3 X5.116 Y26.157 Z-3.200 I-46.822 J14.613 K0.000 F100.000
G2 X5.872 Y27.415 Z-3.200 I2.490 J-0.639 K0.000 F100.000
G2 X7.493 Y27.526 Z-3.200 I0.878 J-0.929 K0.000 F100.000
G2 X8.168 Y26.395 Z-3.200 I-1.343 J-1.569 K0.000 F100.000
G2 X8.673 Y23.770 Z-3.200 I-38.868 J-8.835 K0.000 F100.000
G3 X9.040 Y21.980 Z-3.200 I8.293 J0.768 K0.000 F100.000
G3 X9.472 Y21.469 Z-3.200 I0.675 J0.132 K0.000 F100.000
G3 X10.526 Y21.670 Z-3.200 I0.136 J2.146 K0.000 F100.000
G2 X11.864 Y21.321 Z-3.200 I0.471 J-0.932 K0.000 F100.000
G2 X12.136 Y19.135 Z-3.200 I-2.672 J-1.443 K0.000 F100.000
G2 X11.385 Y18.194 Z-3.200 I-1.325 J0.287 K0.000 F100.000
G3 X10.310 Y17.369 Z-3.200 I0.424 J-1.666 K0.000 F100.000
G3 X10.219 Y16.414 Z-3.200 I2.406 J-0.711 K0.000 F100.000
G3 X11.191 Y10.640 Z-3.200 I39.279 J3.639 K0.000 F100.000
G3 X12.093 Y8.327 Z-3.200 I6.547 J1.222 K0.000 F100.000
G3 X12.756 Y7.828 Z-3.200 I1.074 J0.737 K0.000 F100.000
G3 X14.499 Y8.297 Z-3.200 I0.404 J1.973 K0.000 F100.000
G3 X16.022 Y10.707 Z-3.200 I-6.988 J6.100 K0.000 F100.000
G2 X16.309 Y19.829 Z-3.200 I11.600 J4.200 K0.000 F100.000
G2 X24.753 Y26.742 Z-3.200 I10.910 J-4.711 K0.000 F100.000
G2 X31.148 Y25.176 Z-3.200 I1.744 J-6.718 K0.000 F100.000
G2 X32.964 Y22.683 Z-3.200 I-5.738 J-6.087 K0.000 F100.000
G2 X34.307 Y16.329 Z-3.200 I-14.850 J-6.458 K0.000 F100.000
G0 Z5.000
G0 X35.234 Y16.514 Z5.000
G0 X35.234 Y16.514 Z3.000
G1 X35.234 Y16.514 Z-3.200 F100.000
G2 X35.328 Y22.987 Z-3.200 I15.102 J3.017 K0.000 F100.000
G2 X38.503 Y28.512 Z-3.200 I10.180 J-2.176 K0.000 F100.000
G2 X44.841 Y31.251 Z-3.200 I7.470 J-8.582 K0.000 F100.000
G2 X48.586 Y30.899 Z-3.200 I0.879 J-10.739 K0.000 F100.000
G3 X49.243 Y30.893 Z-3.200 I0.341 J1.388 K0.000 F100.000
G3 X51.448 Y31.875 Z-3.200 I-5.854 J16.107 K0.000 F100.000
G2 X53.777 Y32.905 Z-3.200 I4.928 J-7.994 K0.000 F100.000
G2 X55.075 Y32.390 Z-3.200 I0.325 J-1.075 K0.000 F100.000
G2 X55.328 Y31.045 Z-3.200 I-3.339 J-1.324 K0.000 F100.000
G3 X55.081 Y26.744 Z-3.200 I168.560 J-11.820 K0.000 F100.000
G3 X55.385 Y20.637 Z-3.200 I25.771 J-1.781 K0.000 F100.000
G3 X55.835 Y19.491 Z-3.200 I2.629 J0.371 K0.000 F100.000
G3 X57.991 Y19.213 Z-3.200 I1.183 J0.675 K0.000 F100.000
G3 X58.901 Y20.563 Z-3.200 I-20.628 J14.890 K0.000 F100.000
G2 X60.155 Y28.089 Z-3.200 I14.358 J1.474 K0.000 F100.000
G2 X64.292 Y32.868 Z-3.200 I9.858 J-4.353 K0.000 F100.000
G2 X70.458 Y34.331 Z-3.200 I5.134 J-7.913 K0.000 F100.000
G2 X72.599 Y33.792 Z-3.200 I-0.617 J-6.964 K0.000 F100.000
G2 X75.194 Y47.573 Z-3.200 I162.759 J-23.511 K0.000 F100.000
G2 X65.906 Y50.894 Z-3.200 I82.669 J245.866 K0.000 F100.000
G3 X54.403 Y54.939 Z-3.200 I-46.839 J-114.819 K0.000 F100.000
G3 X36.208 Y56.840 Z-3.200 I-14.117 J-47.087 K0.000 F100.000
G3 X34.650 Y56.525 Z-3.200 I1.001 J-8.950 K0.000 F100.000
G3 X30.783 Y54.105 Z-3.200 I2.180 J-7.785 K0.000 F100.000
G3 X29.517 Y45.714 Z-3.200 I6.285 J-5.239 K0.000 F100.000
G2 X30.129 Y44.381 Z-3.200 I-6.242 J-3.670 K0.000 F100.000
G2 X29.651 Y42.891 Z-3.200 I-1.200 J-0.437 K0.000 F100.000
G2 X28.522 Y42.806 Z-3.200 I-0.709 J1.878 K0.000 F100.000
G2 X25.889 Y43.861 Z-3.200 I1.983 J8.761 K0.000 F100.000
G2 X20.739 Y49.662 Z-3.200 I7.546 J11.886 K0.000 F100.000
G2 X19.289 Y57.775 Z-3.200 I14.291 J6.741 K0.000 F100.000
G2 X28.950 Y71.038 Z-3.200 I15.487 J-1.132 K0.000 F100.000
G2 X37.455 Y72.348 Z-3.200 I7.234 J-18.703 K0.000 F100.000
G2 X46.241 Y70.399 Z-3.200 I-2.719 J-33.028 K0.000 F100.000
G2 X56.287 Y65.674 Z-3.200 I-27.585 J-71.693 K0.000 F100.000
G2 X67.746 Y58.905 Z-3.200 I-300.182 J-521.299 K0.000 F100.000
G3 X76.611 Y54.242 Z-3.200 I44.324 J73.507 K0.000 F100.000
G2 X79.551 Y63.274 Z-3.200 I50.279 J-11.374 K0.000 F100.000
G2 X83.357 Y69.837 Z-3.200 I27.852 J-11.767 K0.000 F100.000
G2 X87.578 Y73.888 Z-3.200 I14.557 J-10.942 K0.000 F100.000
G2 X98.680 Y76.094 Z-3.200 I8.047 J-11.464 K0.000 F100.000
G2 X105.666 Y70.747 Z-3.200 I-2.143 J-10.038 K0.000 F100.000
G2 X106.937 Y66.889 Z-3.200 I-13.243 J-6.502 K0.000 F100.000
G2 X106.915 Y60.296 Z-3.200 I-20.179 J-3.229 K0.000 F100.000
G2 X100.595 Y49.935 Z-3.200 I-16.224 J2.788 K0.000 F100.000
G2 X87.787 Y45.733 Z-3.200 I-13.051 J18.160 K0.000 F100.000
G2 X83.042 Y46.206 Z-3.200 I1.162 J35.706 K0.000 F100.000
G3 X79.643 Y27.921 Z-3.200 I158.411 J-38.909 K0.000 F100.000
G3 X79.349 Y24.144 Z-3.200 I44.979 J-5.393 K0.000 F100.000
G3 X79.556 Y21.541 Z-3.200 I7.956 J-0.677 K0.000 F100.000
G3 X80.225 Y20.662 Z-3.200 I1.320 J0.310 K0.000 F100.000
G3 X81.505 Y20.884 Z-3.200 I0.432 J1.304 K0.000 F100.000
G3 X82.373 Y21.870 Z-3.200 I-8.591 J8.438 K0.000 F100.000
G2 X83.680 Y23.781 Z-3.200 I3.161 J-0.760 K0.000 F100.000
G2 X87.012 Y23.895 Z-3.200 I1.748 J-2.348 K0.000 F100.000
G2 X88.038 Y21.529 Z-3.200 I-1.514 J-2.062 K0.000 F100.000
G1 X88.038 Y21.529 Z-3.200 F100.000
G3 X88.157 Y20.056 Z-3.200 I3.261 J-0.478 K0.000 F100.000
G3 X89.247 Y19.771 Z-3.200 I0.639 J0.214 K0.000 F100.000
G3 X89.552 Y20.961 Z-3.200 I-1.205 J0.942 K0.000 F100.000
G3 X88.845 Y22.562 Z-3.200 I-3.659 J-0.659 K0.000 F100.000
G3 X87.211 Y24.336 Z-3.200 I-32.176 J-27.985 K0.000 F100.000
G2 X85.681 Y26.270 Z-3.200 I5.368 J5.817 K0.000 F100.000
G2 X85.800 Y31.906 Z-3.200 I4.725 J2.720 K0.000 F100.000
G2 X89.361 Y34.635 Z-3.200 I6.135 J-4.318 K0.000 F100.000
G2 X96.248 Y34.755 Z-3.200 I3.623 J-10.218 K0.000 F100.000
G2 X100.278 Y42.123 Z-3.200 I11.019 J-1.241 K0.000 F100.000
G2 X108.593 Y43.500 Z-3.200 I5.342 J-6.462 K0.000 F100.000
G2 X111.938 Y40.214 Z-3.200 I-2.050 J-5.433 K0.000 F100.000
G2 X112.403 Y36.552 Z-3.200 I-7.732 J-2.842 K0.000 F100.000
G3 X111.997 Y33.665 Z-3.200 I152.621 J-22.949 K0.000 F100.000
G3 X112.162 Y32.985 Z-3.200 I0.713 J-0.187 K0.000 F100.000
G3 X113.358 Y32.667 Z-3.200 I1.188 J2.056 K0.000 F100.000
G2 X114.277 Y32.059 Z-3.200 I-0.040 J-1.060 K0.000 F100.000
G2 X113.785 Y30.263 Z-3.200 I-1.572 J-0.535 K0.000 F100.000
G2 X112.685 Y29.803 Z-3.200 I-1.370 J1.730 K0.000 F100.000
G3 X110.722 Y28.362 Z-3.200 I0.419 J-2.628 K0.000 F100.000
G3 X109.287 Y23.839 Z-3.200 I28.905 J-11.661 K0.000 F100.000
G3 X108.758 Y21.009 Z-3.200 I16.795 J-4.605 K0.000 F100.000
G1 X108.755 Y21.001 Z-3.200 F100.000
G3 X109.200 Y19.291 Z-3.200 I1.977 J-0.399 K0.000 F100.000
G3 X110.951 Y18.969 Z-3.200 I1.196 J1.585 K0.000 F100.000
G3 X112.593 Y19.896 Z-3.200 I-2.676 J6.660 K0.000 F100.000
G2 X113.587 Y20.659 Z-3.200 I8.855 J-10.513 K0.000 F100.000
G2 X118.030 Y27.808 Z-3.200 I12.004 J-2.504 K0.000 F100.000
G2 X128.864 Y29.867 Z-3.200 I7.379 J-9.295 K0.000 F100.000
G2 X133.711 Y25.410 Z-3.200 I-1.711 J-6.725 K0.000 F100.000
G2 X134.099 Y22.351 Z-3.200 I-7.965 J-2.564 K0.000 F100.000
G2 X131.258 Y14.596 Z-3.200 I-16.113 J1.504 K0.000 F100.000
G2 X124.693 Y10.380 Z-3.200 I-8.284 J5.681 K0.000 F100.000
G2 X118.681 Y11.082 Z-3.200 I-1.708 J11.474 K0.000 F100.000
G2 X113.516 Y16.968 Z-3.200 I2.788 J7.655 K0.000 F100.000
G2 X108.958 Y14.088 Z-3.200 I-9.594 J10.136 K0.000 F100.000
G2 X103.513 Y13.695 Z-3.200 I-3.283 J7.571 K0.000 F100.000
G2 X99.812 Y17.149 Z-3.200 I1.238 J5.037 K0.000 F100.000
G2 X99.651 Y21.385 Z-3.200 I9.530 J2.484 K0.000 F100.000
G2 X101.052 Y26.308 Z-3.200 I33.636 J-6.912 K0.000 F100.000
G3 X101.930 Y29.616 Z-3.200 I-15.329 J5.840 K0.000 F100.000
G3 X101.960 Y30.217 Z-3.200 I-1.309 J0.366 K0.000 F100.000
G3 X101.478 Y30.808 Z-3.200 I-1.146 J-0.443 K0.000 F100.000
G2 X101.278 Y33.303 Z-3.200 I0.712 J1.313 K0.000 F100.000
G3 X103.040 Y34.535 Z-3.200 I-3.173 J6.412 K0.000 F100.000
G3 X104.655 Y38.361 Z-3.200 I-3.764 J3.843 K0.000 F100.000
G3 X104.041 Y39.223 Z-3.200 I-0.874 J0.027 K0.000 F100.000
G3 X102.244 Y38.833 Z-3.200 I-0.377 J-2.594 K0.000 F100.000
G3 X100.415 Y36.607 Z-3.200 I3.093 J-4.407 K0.000 F100.000
G3 X99.761 Y33.113 Z-3.200 I8.020 J-3.309 K0.000 F100.000
G2 X99.820 Y30.618 Z-3.200 I-36.932 J-2.112 K0.000 F100.000
G2 X99.069 Y28.036 Z-3.200 I-3.984 J-0.242 K0.000 F100.000
G2 X95.341 Y27.389 Z-3.200 I-2.203 J1.629 K0.000 F100.000
G2 X94.467 Y29.285 Z-3.200 I1.102 J1.657 K0.000 F100.000
G2 X94.905 Y30.606 Z-3.200 I5.284 J-1.019 K0.000 F100.000
G3 X95.041 Y31.132 Z-3.200 I-0.729 J0.469 K0.000 F100.000
G3 X94.223 Y31.533 Z-3.200 I-0.639 J-0.269 K0.000 F100.000
G3 X93.192 Y30.265 Z-3.200 I0.627 J-1.564 K0.000 F100.000
G3 X93.806 Y27.899 Z-3.200 I3.140 J-0.448 K0.000 F100.000
G3 X95.190 Y26.496 Z-3.200 I7.596 J6.112 K0.000 F100.000
G2 X97.163 Y24.640 Z-3.200 I-13.480 J-16.301 K0.000 F100.000
G2 X98.458 Y21.400 Z-3.200 I-3.682 J-3.350 K0.000 F100.000
G2 X95.076 Y15.710 Z-3.200 I-6.636 J0.094 K0.000 F100.000
G2 X89.272 Y14.621 Z-3.200 I-4.749 J9.297 K0.000 F100.000
G2 X85.237 Y15.806 Z-3.200 I0.762 J10.054 K0.000 F100.000
G2 X82.951 Y17.881 Z-3.200 I2.677 J5.246 K0.000 F100.000
G2 X80.143 Y15.584 Z-3.200 I-7.240 J5.985 K0.000 F100.000
G2 X76.772 Y14.569 Z-3.200 I-3.927 J6.938 K0.000 F100.000
G2 X72.202 Y17.076 Z-3.200 I-0.340 J4.799 K0.000 F100.000
G2 X68.583 Y14.598 Z-3.200 I-7.670 J7.321 K0.000 F100.000
G2 X64.261 Y13.983 Z-3.200 I-3.203 J7.023 K0.000 F100.000
G2 X60.028 Y16.787 Z-3.200 I0.721 J5.686 K0.000 F100.000
G2 X57.225 Y13.768 Z-3.200 I-8.494 J5.075 K0.000 F100.000
G2 X54.022 Y12.377 Z-3.200 I-4.604 J6.219 K0.000 F100.000
G1 X54.021 Y12.382 Z-3.200 F100.000
G1 X53.989 Y12.371 Z-3.200 F100.000
G2 X52.820 Y12.304 Z-3.200 I-0.862 J4.821 K0.000 F100.000
G2 X49.042 Y14.374 Z-3.200 I0.427 J5.262 K0.000 F100.000
G2 X42.530 Y10.317 Z-3.200 I-7.277 J4.427 K0.000 F100.000
G2 X36.823 Y12.784 Z-3.200 I-0.665 J6.296 K0.000 F100.000
G2 X35.360 Y15.940 Z-3.200 I7.815 J5.539 K0.000 F100.000
G2 X35.234 Y16.514 Z-3.200 I14.976 J3.592 K0.000 F100.000
G0 Z5.000
G0 X132.812 Y13.821 Z5.000
G0 X132.812 Y13.821 Z3.000
G1 X132.812 Y13.821 Z-3.200 F100.000
G2 X132.833 Y14.215 Z-3.200 I7.911 J-0.218 K0.000 F100.000
G2 X138.349 Y23.030 Z-3.200 I12.097 J-1.438 K0.000 F100.000
G2 X149.409 Y24.048 Z-3.200 I6.488 J-9.906 K0.000 F100.000
G2 X153.786 Y19.127 Z-3.200 I-2.378 J-6.522 K0.000 F100.000
G2 X153.865 Y16.046 Z-3.200 I-8.174 J-1.754 K0.000 F100.000
G2 X150.961 Y9.492 Z-3.200 I-15.670 J3.024 K0.000 F100.000
G2 X144.190 Y5.168 Z-3.200 I-8.525 J5.886 K0.000 F100.000
G2 X136.676 Y6.802 Z-3.200 I-1.502 J11.188 K0.000 F100.000
G2 X132.812 Y13.821 Z-3.200 I4.048 J6.801 K0.000 F100.000
G0 Z5.000
G0 X151.483 Y7.656 Z5.000
G0 X151.483 Y7.656 Z3.000
G1 X151.483 Y7.656 Z-3.200 F100.000
G2 X152.690 Y10.231 Z-3.200 I11.338 J-3.744 K0.000 F100.000
G2 X156.034 Y14.863 Z-3.200 I57.122 J-37.724 K0.000 F100.000
G3 X162.156 Y23.372 Z-3.200 I-57.679 J47.952 K0.000 F100.000
G3 X164.638 Y28.471 Z-3.200 I-26.064 J15.842 K0.000 F100.000
G3 X164.816 Y29.485 Z-3.200 I-2.677 J0.991 K0.000 F100.000
G3 X164.047 Y30.733 Z-3.200 I-1.188 J0.130 K0.000 F100.000
G2 X163.332 Y31.897 Z-3.200 I0.338 J1.009 K0.000 F100.000
G2 X164.256 Y33.055 Z-3.200 I1.612 J-0.339 K0.000 F100.000
G2 X165.620 Y33.539 Z-3.200 I3.063 J-6.460 K0.000 F100.000
G2 X170.118 Y33.385 Z-3.200 I1.941 J-9.075 K0.000 F100.000
G2 X173.118 Y31.614 Z-3.200 I-1.689 J-6.288 K0.000 F100.000
G2 X174.065 Y26.857 Z-3.200 I-3.620 J-3.193 K0.000 F100.000
G2 X172.607 Y23.941 Z-3.200 I-16.597 J6.476 K0.000 F100.000
G2 X168.714 Y18.311 Z-3.200 I-92.710 J59.957 K0.000 F100.000
G3 X162.849 Y10.133 Z-3.200 I126.731 J-97.062 K0.000 F100.000
G3 X160.942 Y6.820 Z-3.200 I21.106 J-14.354 K0.000 F100.000
G3 X160.255 Y4.556 Z-3.200 I5.408 J-2.879 K0.000 F100.000
G3 X160.541 Y3.707 Z-3.200 I0.968 J-0.147 K0.000 F100.000
G3 X161.704 Y3.538 Z-3.200 I0.775 J1.247 K0.000 F100.000
G2 X162.595 Y3.805 Z-3.200 I3.430 J-9.852 K0.000 F100.000
G2 X163.788 Y2.680 Z-3.200 I0.230 J-0.950 K0.000 F100.000
G2 X163.159 Y1.617 Z-3.200 I-2.053 J0.496 K0.000 F100.000
G2 X159.275 Y-0.263 Z-3.200 I-5.785 J7.000 K0.000 F100.000
G2 X153.785 Y0.815 Z-3.200 I-1.510 J6.829 K0.000 F100.000
G2 X151.229 Y6.775 Z-3.200 I3.176 J4.890 K0.000 F100.000
G2 X151.483 Y7.656 Z-3.200 I11.592 J-2.863 K0.000 F100.000
G1 X151.483 Y7.656 Z-4.000 F100.000
G2 X152.690 Y10.231 Z-4.000 I11.338 J-3.744 K0.000 F100.000
G2 X156.034 Y14.863 Z-4.000 I57.122 J-37.724 K0.000 F100.000
G3 X162.156 Y23.372 Z-4.000 I-57.679 J47.952 K0.000 F100.000
G3 X164.638 Y28.471 Z-4.000 I-26.064 J15.842 K0.000 F100.000
G3 X164.816 Y29.485 Z-4.000 I-2.677 J0.991 K0.000 F100.000
G3 X164.047 Y30.733 Z-4.000 I-1.188 J0.130 K0.000 F100.000
G2 X163.332 Y31.897 Z-4.000 I0.338 J1.009 K0.000 F100.000
G2 X164.256 Y33.055 Z-4.000 I1.612 J-0.339 K0.000 F100.000
G2 X165.620 Y33.539 Z-4.000 I3.063 J-6.460 K0.000 F100.000
G2 X170.118 Y33.385 Z-4.000 I1.941 J-9.075 K0.000 F100.000
G2 X173.118 Y31.614 Z-4.000 I-1.689 J-6.288 K0.000 F100.000
G2 X174.065 Y26.857 Z-4.000 I-3.620 J-3.193 K0.000 F100.000
G2 X172.607 Y23.941 Z-4.000 I-16.597 J6.476 K0.000 F100.000
G2 X168.714 Y18.311 Z-4.000 I-92.710 J59.957 K0.000 F100.000
G3 X162.849 Y10.133 Z-4.000 I126.731 J-97.062 K0.000 F100.000
G3 X160.942 Y6.820 Z-4.000 I21.106 J-14.354 K0.000 F100.000
G3 X160.255 Y4.556 Z-4.000 I5.408 J-2.879 K0.000 F100.000
G3 X160.541 Y3.707 Z-4.000 I0.968 J-0.147 K0.000 F100.000
G3 X161.704 Y3.538 Z-4.000 I0.775 J1.247 K0.000 F100.000
G2 X162.595 Y3.805 Z-4.000 I3.430 J-9.852 K0.000 F100.000
G2 X163.788 Y2.680 Z-4.000 I0.230 J-0.950 K0.000 F100.000
G2 X163.159 Y1.617 Z-4.000 I-2.053 J0.496 K0.000 F100.000
G2 X159.275 Y-0.263 Z-4.000 I-5.785 J7.000 K0.000 F100.000
G2 X153.785 Y0.815 Z-4.000 I-1.510 J6.829 K0.000 F100.000
G2 X151.229 Y6.775 Z-4.000 I3.176 J4.890 K0.000 F100.000
G2 X151.483 Y7.656 Z-4.000 I11.592 J-2.863 K0.000 F100.000
G0 Z5.000
G0 X150.316 Y8.652 Z5.000
G0 X150.316 Y8.652 Z3.000
G1 X150.316 Y8.652 Z-4.000 F100.000
G2 X144.190 Y5.168 Z-4.000 I-7.879 J6.725 K0.000 F100.000
G2 X136.676 Y6.802 Z-4.000 I-1.502 J11.188 K0.000 F100.000
G2 X132.833 Y14.215 Z-4.000 I4.048 J6.801 K0.000 F100.000
G2 X138.349 Y23.030 Z-4.000 I12.097 J-1.438 K0.000 F100.000
G2 X149.409 Y24.048 Z-4.000 I6.488 J-9.906 K0.000 F100.000
G2 X153.786 Y19.127 Z-4.000 I-2.378 J-6.522 K0.000 F100.000
G2 X153.865 Y16.046 Z-4.000 I-8.174 J-1.754 K0.000 F100.000
G2 X150.961 Y9.492 Z-4.000 I-15.670 J3.024 K0.000 F100.000
G2 X150.316 Y8.652 Z-4.000 I-8.525 J5.886 K0.000 F100.000
G0 Z5.000
G0 X132.630 Y16.968 Z5.000
G0 X132.630 Y16.968 Z3.000
G1 X132.630 Y16.968 Z-4.000 F100.000
G2 X131.258 Y14.596 Z-4.000 I-14.645 J6.886 K0.000 F100.000
G2 X124.693 Y10.380 Z-4.000 I-8.284 J5.681 K0.000 F100.000
G2 X118.681 Y11.082 Z-4.000 I-1.708 J11.474 K0.000 F100.000
G2 X113.516 Y16.968 Z-4.000 I2.788 J7.655 K0.000 F100.000
G2 X108.958 Y14.088 Z-4.000 I-9.594 J10.136 K0.000 F100.000
G2 X103.513 Y13.695 Z-4.000 I-3.283 J7.571 K0.000 F100.000
G2 X99.812 Y17.149 Z-4.000 I1.238 J5.037 K0.000 F100.000
G2 X99.651 Y21.385 Z-4.000 I9.530 J2.484 K0.000 F100.000
G2 X101.052 Y26.308 Z-4.000 I33.636 J-6.912 K0.000 F100.000
G3 X101.930 Y29.616 Z-4.000 I-15.329 J5.840 K0.000 F100.000
G3 X101.960 Y30.217 Z-4.000 I-1.309 J0.366 K0.000 F100.000
G3 X101.478 Y30.808 Z-4.000 I-1.146 J-0.443 K0.000 F100.000
G2 X101.278 Y33.303 Z-4.000 I0.712 J1.313 K0.000 F100.000
G3 X103.040 Y34.535 Z-4.000 I-3.173 J6.412 K0.000 F100.000
G3 X104.655 Y38.361 Z-4.000 I-3.764 J3.843 K0.000 F100.000
G3 X104.041 Y39.223 Z-4.000 I-0.874 J0.027 K0.000 F100.000
G3 X102.244 Y38.833 Z-4.000 I-0.377 J-2.594 K0.000 F100.000
G3 X100.415 Y36.607 Z-4.000 I3.093 J-4.407 K0.000 F100.000
G3 X99.761 Y33.113 Z-4.000 I8.020 J-3.309 K0.000 F100.000
G2 X99.820 Y30.618 Z-4.000 I-36.932 J-2.112 K0.000 F100.000
G2 X99.069 Y28.036 Z-4.000 I-3.984 J-0.242 K0.000 F100.000
G2 X95.341 Y27.389 Z-4.000 I-2.203 J1.629 K0.000 F100.000
G2 X94.467 Y29.285 Z-4.000 I1.102 J1.657 K0.000 F100.000
G2 X94.905 Y30.606 Z-4.000 I5.284 J-1.019 K0.000 F100.000
G3 X95.041 Y31.132 Z-4.000 I-0.729 J0.469 K0.000 F100.000
G3 X94.223 Y31.533 Z-4.000 I-0.639 J-0.269 K0.000 F100.000
G3 X93.192 Y30.265 Z-4.000 I0.627 J-1.564 K0.000 F100.000
G3 X93.806 Y27.899 Z-4.000 I3.140 J-0.448 K0.000 F100.000
G3 X95.190 Y26.496 Z-4.000 I7.596 J6.112 K0.000 F100.000
G2 X97.163 Y24.640 Z-4.000 I-13.480 J-16.301 K0.000 F100.000
G2 X98.458 Y21.400 Z-4.000 I-3.682 J-3.350 K0.000 F100.000
G2 X95.076 Y15.710 Z-4.000 I-6.636 J0.094 K0.000 F100.000
G2 X89.272 Y14.621 Z-4.000 I-4.749 J9.297 K0.000 F100.000
G2 X85.237 Y15.806 Z-4.000 I0.762 J10.054 K0.000 F100.000
G2 X82.951 Y17.881 Z-4.000 I2.677 J5.246 K0.000 F100.000
G2 X80.143 Y15.584 Z-4.000 I-7.240 J5.985 K0.000 F100.000
G2 X76.772 Y14.569 Z-4.000 I-3.927 J6.938 K0.000 F100.000
G2 X72.202 Y17.076 Z-4.000 I-0.340 J4.799 K0.000 F100.000
G2 X68.583 Y14.598 Z-4.000 I-7.670 J7.321 K0.000 F100.000
G2 X64.261 Y13.983 Z-4.000 I-3.203 J7.023 K0.000 F100.000
G2 X60.028 Y16.787 Z-4.000 I0.721 J5.686 K0.000 F100.000
G2 X57.225 Y13.768 Z-4.000 I-8.494 J5.075 K0.000 F100.000
G2 X54.022 Y12.377 Z-4.000 I-4.604 J6.219 K0.000 F100.000
G1 X54.021 Y12.382 Z-4.000 F100.000
G1 X53.989 Y12.371 Z-4.000 F100.000
G2 X52.820 Y12.304 Z-4.000 I-0.862 J4.821 K0.000 F100.000
G2 X49.042 Y14.374 Z-4.000 I0.427 J5.262 K0.000 F100.000
G2 X42.530 Y10.317 Z-4.000 I-7.277 J4.427 K0.000 F100.000
G2 X36.823 Y12.784 Z-4.000 I-0.665 J6.296 K0.000 F100.000
G2 X35.360 Y15.940 Z-4.000 I7.815 J5.539 K0.000 F100.000
G2 X35.328 Y22.987 Z-4.000 I14.976 J3.592 K0.000 F100.000
G2 X38.503 Y28.512 Z-4.000 I10.180 J-2.176 K0.000 F100.000
G2 X44.841 Y31.251 Z-4.000 I7.470 J-8.582 K0.000 F100.000
G2 X48.586 Y30.899 Z-4.000 I0.879 J-10.739 K0.000 F100.000
G3 X49.243 Y30.893 Z-4.000 I0.341 J1.388 K0.000 F100.000
G3 X51.448 Y31.875 Z-4.000 I-5.854 J16.107 K0.000 F100.000
G2 X53.777 Y32.905 Z-4.000 I4.928 J-7.994 K0.000 F100.000
G2 X55.075 Y32.390 Z-4.000 I0.325 J-1.075 K0.000 F100.000
G2 X55.328 Y31.045 Z-4.000 I-3.339 J-1.324 K0.000 F100.000
G3 X55.081 Y26.744 Z-4.000 I168.560 J-11.820 K0.000 F100.000
G3 X55.385 Y20.637 Z-4.000 I25.771 J-1.781 K0.000 F100.000
G3 X55.835 Y19.491 Z-4.000 I2.629 J0.371 K0.000 F100.000
G3 X57.991 Y19.213 Z-4.000 I1.183 J0.675 K0.000 F100.000
G3 X58.901 Y20.563 Z-4.000 I-20.628 J14.890 K0.000 F100.000
G2 X60.155 Y28.089 Z-4.000 I14.358 J1.474 K0.000 F100.000
G2 X64.292 Y32.868 Z-4.000 I9.858 J-4.353 K0.000 F100.000
G2 X70.458 Y34.331 Z-4.000 I5.134 J-7.913 K0.000 F100.000
G2 X72.599 Y33.792 Z-4.000 I-0.617 J-6.964 K0.000 F100.000
G2 X75.194 Y47.573 Z-4.000 I162.759 J-23.511 K0.000 F100.000
G2 X65.906 Y50.894 Z-4.000 I82.669 J245.866 K0.000 F100.000
G3 X54.403 Y54.939 Z-4.000 I-46.839 J-114.819 K0.000 F100.000
G3 X36.208 Y56.840 Z-4.000 I-14.117 J-47.087 K0.000 F100.000
G3 X34.650 Y56.525 Z-4.000 I1.001 J-8.950 K0.000 F100.000
G3 X30.783 Y54.105 Z-4.000 I2.180 J-7.785 K0.000 F100.000
G3 X29.517 Y45.714 Z-4.000 I6.285 J-5.239 K0.000 F100.000
G2 X30.129 Y44.381 Z-4.000 I-6.242 J-3.670 K0.000 F100.000
G2 X29.651 Y42.891 Z-4.000 I-1.200 J-0.437 K0.000 F100.000
G2 X28.522 Y42.806 Z-4.000 I-0.709 J1.878 K0.000 F100.000
G2 X25.889 Y43.861 Z-4.000 I1.983 J8.761 K0.000 F100.000
G2 X20.739 Y49.662 Z-4.000 I7.546 J11.886 K0.000 F100.000
G2 X19.289 Y57.775 Z-4.000 I14.291 J6.741 K0.000 F100.000
G2 X28.950 Y71.038 Z-4.000 I15.487 J-1.132 K0.000 F100.000
G2 X37.455 Y72.348 Z-4.000 I7.234 J-18.703 K0.000 F100.000
G2 X46.241 Y70.399 Z-4.000 I-2.719 J-33.028 K0.000 F100.000
G2 X56.287 Y65.674 Z-4.000 I-27.585 J-71.693 K0.000 F100.000
G2 X67.746 Y58.905 Z-4.000 I-300.182 J-521.299 K0.000 F100.000
G3 X76.611 Y54.242 Z-4.000 I44.324 J73.507 K0.000 F100.000
G2 X79.551 Y63.274 Z-4.000 I50.279 J-11.374 K0.000 F100.000
G2 X83.357 Y69.837 Z-4.000 I27.852 J-11.767 K0.000 F100.000
G2 X87.578 Y73.888 Z-4.000 I14.557 J-10.942 K0.000 F100.000
G2 X98.680 Y76.094 Z-4.000 I8.047 J-11.464 K0.000 F100.000
G2 X105.666 Y70.747 Z-4.000 I-2.143 J-10.038 K0.000 F100.000
G2 X106.937 Y66.889 Z-4.000 I-13.243 J-6.502 K0.000 F100.000
G2 X106.915 Y60.296 Z-4.000 I-20.179 J-3.229 K0.000 F100.000
G2 X100.595 Y49.935 Z-4.000 I-16.224 J2.788 K0.000 F100.000
G2 X87.787 Y45.733 Z-4.000 I-13.051 J18.160 K0.000 F100.000
G2 X83.042 Y46.206 Z-4.000 I1.162 J35.706 K0.000 F100.000
G3 X79.643 Y27.921 Z-4.000 I158.411 J-38.909 K0.000 F100.000
G3 X79.349 Y24.144 Z-4.000 I44.979 J-5.393 K0.000 F100.000
G3 X79.556 Y21.541 Z-4.000 I7.956 J-0.677 K0.000 F100.000
G3 X80.225 Y20.662 Z-4.000 I1.320 J0.310 K0.000 F100.000
G3 X81.505 Y20.884 Z-4.000 I0.432 J1.304 K0.000 F100.000
G3 X82.373 Y21.870 Z-4.000 I-8.591 J8.438 K0.000 F100.000
G2 X83.680 Y23.781 Z-4.000 I3.161 J-0.760 K0.000 F100.000
G2 X87.012 Y23.895 Z-4.000 I1.748 J-2.348 K0.000 F100.000
G2 X88.038 Y21.529 Z-4.000 I-1.514 J-2.062 K0.000 F100.000
G1 X88.038 Y21.529 Z-4.000 F100.000
G3 X88.157 Y20.056 Z-4.000 I3.261 J-0.478 K0.000 F100.000
G3 X89.247 Y19.771 Z-4.000 I0.639 J0.214 K0.000 F100.000
G3 X89.552 Y20.961 Z-4.000 I-1.205 J0.942 K0.000 F100.000
G3 X88.845 Y22.562 Z-4.000 I-3.659 J-0.659 K0.000 F100.000
G3 X87.211 Y24.336 Z-4.000 I-32.176 J-27.985 K0.000 F100.000
G2 X85.681 Y26.270 Z-4.000 I5.368 J5.817 K0.000 F100.000
G2 X85.800 Y31.906 Z-4.000 I4.725 J2.720 K0.000 F100.000
G2 X89.361 Y34.635 Z-4.000 I6.135 J-4.318 K0.000 F100.000
G2 X96.248 Y34.755 Z-4.000 I3.623 J-10.218 K0.000 F100.000
G2 X100.278 Y42.123 Z-4.000 I11.019 J-1.241 K0.000 F100.000
G2 X108.593 Y43.500 Z-4.000 I5.342 J-6.462 K0.000 F100.000
G2 X111.938 Y40.214 Z-4.000 I-2.050 J-5.433 K0.000 F100.000
G2 X112.403 Y36.552 Z-4.000 I-7.732 J-2.842 K0.000 F100.000
G3 X111.997 Y33.665 Z-4.000 I152.621 J-22.949 K0.000 F100.000
G3 X112.162 Y32.985 Z-4.000 I0.713 J-0.187 K0.000 F100.000
G3 X113.358 Y32.667 Z-4.000 I1.188 J2.056 K0.000 F100.000
G2 X114.277 Y32.059 Z-4.000 I-0.040 J-1.060 K0.000 F100.000
G2 X113.785 Y30.263 Z-4.000 I-1.572 J-0.535 K0.000 F100.000
G2 X112.685 Y29.803 Z-4.000 I-1.370 J1.730 K0.000 F100.000
G3 X110.722 Y28.362 Z-4.000 I0.419 J-2.628 K0.000 F100.000
G3 X109.287 Y23.839 Z-4.000 I28.905 J-11.661 K0.000 F100.000
G3 X108.758 Y21.009 Z-4.000 I16.795 J-4.605 K0.000 F100.000
G1 X108.755 Y21.001 Z-4.000 F100.000
G3 X109.200 Y19.291 Z-4.000 I1.977 J-0.399 K0.000 F100.000
G3 X110.951 Y18.969 Z-4.000 I1.196 J1.585 K0.000 F100.000
G3 X112.593 Y19.896 Z-4.000 I-2.676 J6.660 K0.000 F100.000
G2 X113.587 Y20.659 Z-4.000 I8.855 J-10.513 K0.000 F100.000
G2 X118.030 Y27.808 Z-4.000 I12.004 J-2.504 K0.000 F100.000
G2 X128.864 Y29.867 Z-4.000 I7.379 J-9.295 K0.000 F100.000
G2 X133.711 Y25.410 Z-4.000 I-1.711 J-6.725 K0.000 F100.000
G2 X134.099 Y22.351 Z-4.000 I-7.965 J-2.564 K0.000 F100.000
G2 X132.630 Y16.968 Z-4.000 I-16.113 J1.504 K0.000 F100.000
G0 Z5.000
G0 X34.307 Y16.330 Z5.000
G0 X34.307 Y16.330 Z3.000
G1 X34.307 Y16.330 Z-4.000 F100.000
G2 X34.217 Y14.517 Z-4.000 I-16.194 J-0.105 K0.000 F100.000
G2 X29.706 Y7.097 Z-4.000 I-9.872 J0.921 K0.000 F100.000
G2 X23.201 Y5.314 Z-4.000 I-6.081 J9.425 K0.000 F100.000
G2 X17.754 Y7.820 Z-4.000 I0.280 J7.782 K0.000 F100.000
G2 X14.068 Y2.299 Z-4.000 I-13.066 J4.733 K0.000 F100.000
G2 X10.801 Y0.492 Z-4.000 I-5.400 J5.907 K0.000 F100.000
G1 X10.066 Y0.325 Z-4.000 F100.000
G2 X5.236 Y1.844 Z-4.000 I-1.057 J5.080 K0.000 F100.000
G2 X3.270 Y5.567 Z-4.000 I7.438 J6.309 K0.000 F100.000
G2 X2.447 Y10.485 Z-4.000 I30.701 J7.662 K0.000 F100.000
G3 X1.731 Y14.285 Z-4.000 I-16.657 J-1.174 K0.000 F100.000
G3 X1.555 Y14.512 Z-4.000 I-0.229 J0.004 K0.000 F100.000
G3 X0.977 Y14.489 Z-4.000 I-0.140 J-3.920 K0.000 F100.000
G2 X-0.086 Y15.014 Z-4.000 I-0.081 J1.175 K0.000 F100.000
G2 X-0.312 Y17.132 Z-4.000 I2.582 J1.346 K0.000 F100.000
G2 X0.098 Y17.694 Z-4.000 I0.903 J-0.228 K0.000 F100.000
G3 X2.137 Y19.114 Z-4.000 I-2.269 J5.434 K0.000 F100.000
G3 X4.213 Y22.865 Z-4.000 I-9.503 J7.710 K0.000 F100.000
G3 X5.116 Y26.157 Z-4.000 I-46.822 J14.613 K0.000 F100.000
G2 X5.872 Y27.415 Z-4.000 I2.490 J-0.639 K0.000 F100.000
G2 X7.493 Y27.526 Z-4.000 I0.878 J-0.929 K0.000 F100.000
G2 X8.168 Y26.395 Z-4.000 I-1.343 J-1.569 K0.000 F100.000
G2 X8.673 Y23.770 Z-4.000 I-38.868 J-8.835 K0.000 F100.000
G3 X9.040 Y21.980 Z-4.000 I8.293 J0.768 K0.000 F100.000
G3 X9.472 Y21.469 Z-4.000 I0.675 J0.132 K0.000 F100.000
G3 X10.526 Y21.670 Z-4.000 I0.136 J2.146 K0.000 F100.000
G2 X11.864 Y21.321 Z-4.000 I0.471 J-0.932 K0.000 F100.000
G2 X12.136 Y19.135 Z-4.000 I-2.672 J-1.443 K0.000 F100.000
G2 X11.385 Y18.194 Z-4.000 I-1.325 J0.287 K0.000 F100.000
G3 X10.310 Y17.369 Z-4.000 I0.424 J-1.666 K0.000 F100.000
G3 X10.219 Y16.414 Z-4.000 I2.406 J-0.711 K0.000 F100.000
G3 X11.191 Y10.640 Z-4.000 I39.279 J3.639 K0.000 F100.000
G3 X12.093 Y8.327 Z-4.000 I6.547 J1.222 K0.000 F100.000
G3 X12.756 Y7.828 Z-4.000 I1.074 J0.737 K0.000 F100.000
G3 X14.499 Y8.297 Z-4.000 I0.404 J1.973 K0.000 F100.000
G3 X16.022 Y10.707 Z-4.000 I-6.988 J6.100 K0.000 F100.000
G2 X16.309 Y19.829 Z-4.000 I11.600 J4.200 K0.000 F100.000
G2 X24.753 Y26.742 Z-4.000 I10.910 J-4.711 K0.000 F100.000
G2 X31.148 Y25.176 Z-4.000 I1.744 J-6.718 K0.000 F100.000
G2 X32.964 Y22.683 Z-4.000 I-5.738 J-6.087 K0.000 F100.000
G2 X34.307 Y16.330 Z-4.000 I-14.850 J-6.458 K0.000 F100.000
G1 X34.307 Y16.330 Z-4.800 F100.000
G2 X34.217 Y14.517 Z-4.800 I-16.194 J-0.105 K0.000 F100.000
G2 X29.706 Y7.097 Z-4.800 I-9.872 J0.921 K0.000 F100.000
G2 X23.201 Y5.314 Z-4.800 I-6.081 J9.425 K0.000 F100.000
G2 X17.754 Y7.820 Z-4.800 I0.280 J7.782 K0.000 F100.000
G2 X14.068 Y2.299 Z-4.800 I-13.066 J4.733 K0.000 F100.000
G2 X10.801 Y0.492 Z-4.800 I-5.400 J5.907 K0.000 F100.000
G1 X10.066 Y0.325 Z-4.800 F100.000
G2 X5.236 Y1.844 Z-4.800 I-1.057 J5.080 K0.000 F100.000
G2 X3.270 Y5.567 Z-4.800 I7.438 J6.309 K0.000 F100.000
G2 X2.447 Y10.485 Z-4.800 I30.701 J7.662 K0.000 F100.000
G3 X1.731 Y14.285 Z-4.800 I-16.657 J-1.174 K0.000 F100.000
G3 X1.555 Y14.512 Z-4.800 I-0.229 J0.004 K0.000 F100.000
G3 X0.977 Y14.489 Z-4.800 I-0.140 J-3.920 K0.000 F100.000
G2 X-0.086 Y15.014 Z-4.800 I-0.081 J1.175 K0.000 F100.000
G2 X-0.312 Y17.132 Z-4.800 I2.582 J1.346 K0.000 F100.000
G2 X0.098 Y17.694 Z-4.800 I0.903 J-0.228 K0.000 F100.000
G3 X2.137 Y19.114 Z-4.800 I-2.269 J5.434 K0.000 F100.000
G3 X4.213 Y22.865 Z-4.800 I-9.503 J7.710 K0.000 F100.000
G3 X5.116 Y26.157 Z-4.800 I-46.822 J14.613 K0.000 F100.000
G2 X5.872 Y27.415 Z-4.800 I2.490 J-0.639 K0.000 F100.000
G2 X7.493 Y27.526 Z-4.800 I0.878 J-0.929 K0.000 F100.000
G2 X8.168 Y26.395 Z-4.800 I-1.343 J-1.569 K0.000 F100.000
G2 X8.673 Y23.770 Z-4.800 I-38.868 J-8.835 K0.000 F100.000
G3 X9.040 Y21.980 Z-4.800 I8.293 J0.768 K0.000 F100.000
G3 X9.472 Y21.469 Z-4.800 I0.675 J0.132 K0.000 F100.000
